P3
200 200
255
255 255 255 255 255 255 255 255 255 255 255 255 255 255 255 255 255
255 255 255 255 255 255 255 255 255 255 255 255 255 255 255 255 255
255 255 255 255 255 255 255 255 255 255 255 255 255 255 255 255 255
255 255 255 255 255 255 255 255 255 255 255 255 255 255 255 255 255
255 255 255 255 255 255 255 255 255 255 255 255 255 255 255 255 255
255 255 255 255 255 255 255 255 255 255 255 255 255 255 255 255 255
255 255 255 255 255 255 255 255 255 255 255 255 255 255 255 255 255
255 255 255 255 255 255 255 255 255 255 255 255 255 255 255 255 255
255 255 255 255 255 255 255 255 255 255 255 255 255 255 255 255 255
255 255 255 255 255 255 255 255 255 255 255 255 255 255 255 255 255
255 255 255 255 255 255 255 255 255 255 255 255 255 255 255 255 255
255 255 255 255 255 255 255 255 255 255 255 255 255 255 255 255 255
255 255 255 255 255 255 255 255 255 255 255 255 255 255 255 255 255
255 255 255 255 255 255 255 255 255 255 255 255 255 255 255 255 255
255 255 255 255 255 255 255 255 255 255 255 255 255 255 255 255 255
255 255 255 255 255 255 255 255 255 255 255 255 255 255 255 255 255
255 255 255 255 255 255 255 255 255 255 255 255 255 255 255 255 255
255 255 255 255 255 255 255 255 255 255 255 255 255 255 255 255 255
255 255 255 255 255 255 255 255 255 255 255 255 255 255 255 255 255
255 255 255 255 255 255 255 255 255 255 255 255 255 255 255 255 255
255 255 255 255 255 255 255 255 255 255 255 255 255 255 255 255 255
255 255 255 255 255 255 255 255 255 255 255 255 255 255 255 255 255
255 255 255 255 255 255 255 255 255 255 255 255 255 255 255 255 255
255 255 255 255 255 255 255 255 255 255 255 255 255 255 255 255 255
255 255 255 255 255 255 255 255 255 255 255 255 255 255 255 255 255
255 255 255 255 255 255 255 255 255 255 255 255 255 255 255 255 255
255 255 255 255 255 255 255 255 255 255 255 255 255 255 255 255 255
255 255 255 255 255 255 255 255 255 255 255 255 255 255 255 255 255
255 255 255 255 255 255 255 255 255 255 255 255 255 255 255 255 255
255 255 255 255 255 255 255 255 255 255 255 255 255 255 255 255 255
255 255 255 255 255 255 255 255 255 255 255 255 255 255 255 255 255
255 255 255 255 255 255 255 255 255 255 255 255 255 255 255 255 255
255 255 255 255 255 255 255 255 255 255 255 255 255 255 255 255 255
255 255 255 255 255 255 255 255 255 255 255 255 255 255 255 255 255
255 255 255 255 255 255 255 255 255 255 255 255 255 255 255 255 255
255 255 255 255 255
255 255 255 255 255 255 255 255 255 255 255 255 255 255 255 255 255
255 255 255 255 255 255 255 255 255 255 255 255 255 255 255 255 255
255 255 255 255 255 255 255 255 255 255 255 255 255 255 255 255 255
255 255 255 255 255 255 255 255 255 255 255 255 255 255 255 255 255
255 255 255 255 255 255 255 255 255 255 255 255 255 255 255 255 255
255 255 255 255 255 255 255 255 255 255 255 255 255 255 255 255 255
255 255 255 255 255 255 255 255 255 255 255 255 255 255 255 255 255
255 255 255 255 255 255 255 255 255 255 255 255 255 255 255 255 255
255 255 255 255 255 255 255 255 255 255 255 255 255 255 255 255 255
255 255 255 255 255 255 255 255 255 255 255 255 255 255 255 255 255
255 255 255 255 255 255 255 255 255 255 255 255 255 255 255 255 255
255 255 255 255 255 255 255 255 255 255 255 255 255 255 255 255 255
255 255 255 255 255 255 255 255 255 255 255 255 255 255 255 255 255
255 255 255 255 255 255 255 255 255 255 255 255 255 255 255 255 255
255 255 255 255 255 255 255 255 255 255 255 255 255 255 255 255 255
255 255 255 255 255 255 255 255 255 255 255 255 255 255 255 255 255
255 255 255 255 255 255 255 255 255 255 255 255 255 255 255 255 255
255 255 255 255 255 255 255 255 255 255 255 255 255 255 255 255 255
255 255 255 255 255 255 255 255 255 255 255 255 255 255 255 255 255
255 255 255 255 255 255 255 255 255 255 255 255 255 255 255 255 255
255 255 255 255 255 255 255 255 255 255 255 255 255 255 255 255 255
255 255 255 255 255 255 255 255 255 255 255 255 255 255 255 255 255
255 255 255 255 255 255 255 255 255 255 255 255 255 255 255 255 255
255 255 255 255 255 255 255 255 255 255 255 255 255 255 255 255 255
255 255 255 255 255 255 255 255 255 255 255 255 255 255 255 255 255
255 255 255 255 255 255 255 255 255 255 255 255 255 255 255 255 255
255 255 255 255 255 255 255 255 255 255 255 255 255 255 255 255 255
255 255 255 255 255 255 255 255 255 255 255 255 255 255 255 255 255
255 255 255 255 255 255 255 255 255 255 255 255 255 255 255 255 255
255 255 255 255 255 255 255 255 255 255 255 255 255 255 255 255 255
255 255 255 255 255 255 255 255 255 255 255 255 255 255 255 255 255
255 255 255 255 255 255 255 255 255 255 255 255 255 255 255 255 255
255 255 255 255 255 255 255 255 255 255 255 255 255 255 255 255 255
255 255 255 255 255 255 255 255 255 255 255 255 255 255 255 255 255
255 255 255 255 255 255 255 255 255 255 255 255 255 255 255 255 255
255 255 255 255 255
255 255 255 255 255 255 255 255 255 255 255 255 255 255 255 255 255
255 255 255 255 255 255 255 255 255 255 255 255 255 255 255 255 255
255 255 255 255 255 255 255 255 255 255 255 255 255 255 255 255 255
255 255 255 255 255 255 255 255 255 255 255 255 255 255 255 255 255
255 255 255 255 255 255 255 255 255 255 255 255 255 255 255 255 255
255 255 255 255 255 255 255 255 255 255 255 255 255 255 255 255 255
255 255 255 255 255 255 255 255 255 255 255 255 255 255 255 255 255
255 255 255 255 255 255 255 255 255 255 255 255 255 255 255 255 255
255 255 255 255 255 255 255 255 255 255 255 255 255 255 255 255 255
255 255 255 255 255 255 255 255 255 255 255 255 255 255 255 255 255
255 255 255 255 255 255 255 255 255 255 255 255 255 255 255 255 255
255 255 255 255 255 255 255 255 255 255 255 255 255 255 255 255 255
255 255 255 255 255 255 255 255 255 255 255 255 255 255 255 255 255
255 255 255 255 255 255 255 255 255 255 255 255 255 255 255 255 255
255 255 255 255 255 255 255 255 255 255 255 255 255 255 255 255 255
255 255 255 255 255 255 255 255 255 255 255 255 255 255 255 255 255
255 255 255 255 255 255 255 255 255 255 255 255 255 255 255 255 255
255 255 255 255 255 255 255 255 255 255 255 255 255 255 255 255 255
255 255 255 255 255 255 255 255 255 255 255 255 255 255 255 255 255
255 255 255 255 255 255 255 255 255 255 255 255 255 255 255 255 255
255 255 255 255 255 255 255 255 255 255 255 255 255 255 255 255 255
255 255 255 255 255 255 255 255 255 255 255 255 255 255 255 255 255
255 255 255 255 255 255 255 255 255 255 255 255 255 255 255 255 255
255 255 255 255 255 255 255 255 255 255 255 255 255 255 255 255 255
255 255 255 255 255 255 255 255 255 255 255 255 255 255 255 255 255
255 255 255 255 255 255 255 255 255 255 255 255 255 255 255 255 255
255 255 255 255 255 255 255 255 255 255 255 255 255 255 255 255 255
255 255 255 255 255 255 255 255 255 255 255 255 255 255 255 255 255
255 255 255 255 255 255 255 255 255 255 255 255 255 255 255 255 255
255 255 255 255 255 255 255 255 255 255 255 255 255 255 255 255 255
255 255 255 255 255 255 255 255 255 255 255 255 255 255 255 255 255
255 255 255 255 255 255 255 255 255 255 255 255 255 255 255 255 255
255 255 255 255 255 255 255 255 255 255 255 255 255 255 255 255 255
255 255 255 255 255 255 255 255 255 255 255 255 255 255 255 255 255
255 255 255 255 255 255 255 255 255 255 255 255 255 255 255 255 255
255 255 255 255 255
255 255 255 255 255 255 255 255 255 255 255 255 255 255 255 255 255
255 255 255 255 255 255 255 255 255 255 255 255 255 255 255 255 255
255 255 255 255 255 255 255 255 255 255 255 255 255 255 255 255 255
255 255 255 255 255 255 255 255 255 255 255 255 255 255 255 255 255
255 255 255 255 255 255 255 255 255 255 255 255 255 255 255 255 255
255 255 255 255 255 255 255 255 255 255 255 255 255 255 255 255 255
255 255 255 255 255 255 255 255 255 255 255 255 255 255 255 255 255
255 255 255 255 255 255 255 255 255 255 255 255 255 255 255 255 255
255 255 255 255 255 255 255 255 255 255 255 255 255 255 255 255 255
255 255 255 255 255 255 255 255 255 255 255 255 255 255 255 255 255
255 255 255 255 255 255 255 255 255 255 255 255 255 255 255 255 255
255 255 255 255 255 255 255 255 255 255 255 255 255 255 255 255 255
255 255 255 255 255 255 255 255 255 255 255 255 255 255 255 255 255
255 255 255 255 255 255 255 255 255 255 255 255 255 255 255 255 255
255 255 255 255 255 255 255 255 255 255 255 255 255 255 255 255 255
255 255 255 255 255 255 255 255 255 255 255 255 255 255 255 255 255
255 255 255 255 255 255 255 255 255 255 255 255 255 255 255 255 255
255 255 255 255 255 255 255 255 255 255 255 255 255 255 255 255 255
255 255 255 255 255 255 255 255 255 255 255 255 255 255 255 255 255
255 255 255 255 255 255 255 255 255 255 255 255 255 255 255 255 255
255 255 255 255 255 255 255 255 255 255 255 255 255 255 255 255 255
255 255 255 255 255 255 255 255 255 255 255 255 255 255 255 255 255
255 255 255 255 255 255 255 255 255 255 255 255 255 255 255 255 255
255 255 255 255 255 255 255 255 255 255 255 255 255 255 255 255 255
255 255 255 255 255 255 255 255 255 255 255 255 255 255 255 255 255
255 255 255 255 255 255 255 255 255 255 255 255 255 255 255 255 255
255 255 255 255 255 255 255 255 255 255 255 255 255 255 255 255 255
255 255 255 255 255 255 255 255 255 255 255 255 255 255 255 255 255
255 255 255 255 255 255 255 255 255 255 255 255 255 255 255 255 255
255 255 255 255 255 255 255 255 255 255 255 255 255 255 255 255 255
255 255 255 255 255 255 255 255 255 255 255 255 255 255 255 255 255
255 255 255 255 255 255 255 255 255 255 255 255 255 255 255 255 255
255 255 255 255 255 255 255 255 255 255 255 255 255 255 255 255 255
255 255 255 255 255 255 255 255 255 255 255 255 255 255 255 255 255
255 255 255 255 255 255 255 255 255 255 255 255 255 255 255 255 255
255 255 255 255 255
255 255 255 255 255 255 255 255 255 255 255 255 255 255 255 255 255
255 255 255 255 255 255 255 255 255 255 255 255 255 255 255 255 255
255 255 255 255 255 255 255 255 255 255 255 255 255 255 255 255 255
255 255 255 255 255 255 255 255 255 255 255 255 255 255 255 255 255
255 255 255 255 255 255 255 255 255 255 255 255 255 255 255 255 255
255 255 255 255 255 255 255 255 255 255 255 255 255 255 255 255 255
255 255 255 255 255 255 255 255 255 255 255 255 255 255 255 255 255
255 255 255 255 255 255 255 255 255 255 255 255 255 255 255 255 255
255 255 255 255 255 255 255 255 255 255 255 255 255 255 255 255 255
255 255 255 255 255 255 255 255 255 255 255 255 255 255 255 255 255
255 255 255 255 255 255 255 255 255 255 255 255 255 255 255 255 255
255 255 255 255 255 255 255 255 255 255 255 255 255 255 255 255 255
255 255 255 255 255 255 255 255 255 255 255 255 255 255 255 255 255
255 255 255 255 255 255 255 255 255 255 255 255 255 255 255 255 255
255 255 255 255 255 255 255 255 255 255 255 255 255 255 255 255 255
255 255 255 255 255 255 255 255 255 255 255 255 255 255 255 255 255
255 255 255 255 255 255 255 255 255 255 255 255 255 255 255 255 255
255 255 255 255 255 255 255 255 255 255 255 255 255 255 255 255 255
255 255 255 255 255 255 255 255 255 255 255 255 255 255 255 255 255
255 255 255 255 255 255 255 255 255 255 255 255 255 255 255 255 255
255 255 255 255 255 255 255 255 255 255 255 255 255 255 255 255 255
255 255 255 255 255 255 255 255 255 255 255 255 255 255 255 255 255
255 255 255 255 255 255 255 255 255 255 255 255 255 255 255 255 255
255 255 255 255 255 255 255 255 255 255 255 255 255 255 255 255 255
255 255 255 255 255 255 255 255 255 255 255 255 255 255 255 255 255
255 255 255 255 255 255 255 255 255 255 255 255 255 255 255 255 255
255 255 255 255 255 255 255 255 255 255 255 255 255 255 255 255 255
255 255 255 255 255 255 255 255 255 255 255 255 255 255 255 255 255
255 255 255 255 255 255 255 255 255 255 255 255 255 255 255 255 255
255 255 255 255 255 255 255 255 255 255 255 255 255 255 255 255 255
255 255 255 255 255 255 255 255 255 255 255 255 255 255 255 255 255
255 255 255 255 255 255 255 255 255 255 255 255 255 255 255 255 255
255 255 255 255 255 255 255 255 255 255 255 255 255 255 255 255 255
255 255 255 255 255 255 255 255 255 255 255 255 255 255 255 255 255
255 255 255 255 255 255 255 255 255 255 255 255 255 255 255 255 255
255 255 255 255 255
255 255 255 255 255 255 255 255 255 255 255 255 255 255 255 255 255
255 255 255 255 255 255 255 255 255 255 255 255 255 255 255 255 255
255 255 255 255 255 255 255 255 255 255 255 255 255 255 255 255 255
255 255 255 255 255 255 255 255 255 255 255 255 255 255 255 255 255
255 255 255 255 255 255 255 255 255 255 255 255 255 255 255 255 255
255 255 255 255 255 255 255 255 255 255 255 255 255 255 255 255 255
255 255 255 255 255 255 255 255 255 255 255 255 255 255 255 255 255
255 255 255 255 255 255 255 255 255 255 255 255 255 255 255 255 255
255 255 255 255 255 255 255 255 255 255 255 255 255 255 255 255 255
255 255 255 255 255 255 255 255 255 255 255 255 255 255 255 255 255
255 255 255 255 255 255 255 255 255 255 255 255 255 255 255 255 255
255 255 255 255 255 255 255 255 255 255 255 255 255 255 255 255 255
255 255 255 255 255 255 255 255 255 255 255 255 255 255 255 255 255
255 255 255 255 255 255 255 255 255 255 255 255 255 255 255 255 255
255 255 255 255 255 255 255 255 255 255 255 255 255 255 255 255 255
255 255 255 255 255 255 255 255 255 255 255 255 255 255 255 255 255
255 255 255 255 255 255 255 255 255 255 255 255 255 255 255 255 255
255 255 255 255 255 255 255 255 255 255 255 255 255 255 255 255 255
255 255 255 255 255 255 255 255 255 255 255 255 255 255 255 255 255
255 255 255 255 255 255 255 255 255 255 255 255 255 255 255 255 255
255 255 255 255 255 255 255 255 255 255 255 255 255 255 255 255 255
255 255 255 255 255 255 255 255 255 255 255 255 255 255 255 255 255
255 255 255 255 255 255 255 255 255 255 255 255 255 255 255 255 255
255 255 255 255 255 255 255 255 255 255 255 255 255 255 255 255 255
255 255 255 255 255 255 255 255 255 255 255 255 255 255 255 255 255
255 255 255 255 255 255 255 255 255 255 255 255 255 255 255 255 255
255 255 255 255 255 255 255 255 255 255 255 255 255 255 255 255 255
255 255 255 255 255 255 255 255 255 255 255 255 255 255 255 255 255
255 255 255 255 255 255 255 255 255 255 255 255 255 255 255 255 255
255 255 255 255 255 255 255 255 255 255 255 255 255 255 255 255 255
255 255 255 255 255 255 255 255 255 255 255 255 255 255 255 255 255
255 255 255 255 255 255 255 255 255 255 255 255 255 255 255 255 255
255 255 255 255 255 255 255 255 255 255 255 255 255 255 255 255 255
255 255 255 255 255 255 255 255 255 255 255 255 255 255 255 255 255
255 255 255 255 255 255 255 255 255 255 255 255 255 255 255 255 255
255 255 255 255 255
255 255 255 255 255 255 255 255 255 255 255 255 255 255 255 255 255
255 255 255 255 255 255 255 255 255 255 255 255 255 255 255 255 255
255 255 255 255 255 255 255 255 255 255 255 255 255 255 255 255 255
255 255 255 255 255 255 255 255 255 255 255 255 255 255 255 255 255
255 255 255 255 255 255 255 255 255 255 255 255 255 255 255 255 255
255 255 255 255 255 255 255 255 255 255 255 255 255 255 255 255 255
255 255 255 255 255 255 255 255 255 255 255 255 255 255 255 255 255
255 255 255 255 255 255 255 255 255 255 255 255 255 255 255 255 255
255 255 255 255 255 255 255 255 255 255 255 255 255 255 255 255 255
255 255 255 255 255 255 255 255 255 255 255 255 255 255 255 255 255
255 255 255 255 255 255 255 255 255 255 255 255 255 255 255 255 255
255 255 255 255 255 255 255 255 255 255 255 255 255 255 255 255 255
255 255 255 255 255 255 255 255 255 255 255 255 255 255 255 255 255
255 255 255 255 255 255 255 255 255 255 255 255 255 255 255 255 255
255 255 255 255 255 255 255 255 255 255 255 255 255 255 255 255 255
255 255 255 255 255 255 255 255 255 255 255 255 255 255 255 255 255
255 255 255 255 255 255 255 255 255 255 255 255 255 255 255 255 255
255 255 255 255 255 255 255 255 255 255 255 255 255 255 255 255 255
255 255 255 255 255 255 255 255 255 255 255 255 255 255 255 255 255
255 255 255 255 255 255 255 255 255 255 255 255 255 255 255 255 255
255 255 255 255 255 255 255 255 255 255 255 255 255 255 255 255 255
255 255 255 255 255 255 255 255 255 255 255 255 255 255 255 255 255
255 255 255 255 255 255 255 255 255 255 255 255 255 255 255 255 255
255 255 255 255 255 255 255 255 255 255 255 255 255 255 255 255 255
255 255 255 255 255 255 255 255 255 255 255 255 255 255 255 255 255
255 255 255 255 255 255 255 255 255 255 255 255 255 255 255 255 255
255 255 255 255 255 255 255 255 255 255 255 255 255 255 255 255 255
255 255 255 255 255 255 255 255 255 255 255 255 255 255 255 255 255
255 255 255 255 255 255 255 255 255 255 255 255 255 255 255 255 255
255 255 255 255 255 255 255 255 255 255 255 255 255 255 255 255 255
255 255 255 255 255 255 255 255 255 255 255 255 255 255 255 255 255
255 255 255 255 255 255 255 255 255 255 255 255 255 255 255 255 255
255 255 255 255 255 255 255 255 255 255 255 255 255 255 255 255 255
255 255 255 255 255 255 255 255 255 255 255 255 255 255 255 255 255
255 255 255 255 255 255 255 255 255 255 255 255 255 255 255 255 255
255 255 255 255 255
255 255 255 255 255 255 255 255 255 255 255 255 255 255 255 255 255
255 255 255 255 255 255 255 255 255 255 255 255 255 255 255 255 255
255 255 255 255 255 255 255 255 255 255 255 255 255 255 255 255 255
255 255 255 255 255 255 255 255 255 255 255 255 255 255 255 255 255
255 255 255 255 255 255 255 255 255 255 255 255 255 255 255 255 255
255 255 255 255 255 255 255 255 255 255 255 255 255 255 255 255 255
255 255 255 255 255 255 255 255 255 255 255 255 255 255 255 255 255
255 255 255 255 255 255 255 255 255 255 255 255 255 255 255 255 255
255 255 255 255 255 255 255 255 255 255 255 255 255 255 255 255 255
255 255 255 255 255 255 255 255 255 255 255 255 255 255 255 255 255
255 255 255 255 255 255 255 255 255 255 255 255 255 255 255 255 255
255 255 255 255 255 255 255 255 255 255 255 255 255 255 255 255 255
255 255 255 255 255 255 255 255 255 255 255 255 255 255 255 255 255
255 255 255 255 255 255 255 255 255 255 255 255 255 255 255 255 255
255 255 255 255 255 255 255 255 255 255 255 255 255 255 255 255 255
255 255 255 255 255 255 255 255 255 255 255 255 255 255 255 255 255
255 255 255 255 255 255 255 255 255 255 255 255 255 255 255 255 255
255 255 255 255 255 255 255 255 255 255 255 255 255 255 255 255 255
255 255 255 255 255 255 255 255 255 255 255 255 255 255 255 255 255
255 255 255 255 255 255 255 255 255 255 255 255 255 255 255 255 255
255 255 255 255 255 255 255 255 255 255 255 255 255 255 255 255 255
255 255 255 255 255 255 255 255 255 255 255 255 255 255 255 255 255
255 255 255 255 255 255 255 255 255 255 255 255 255 255 255 255 255
255 255 255 255 255 255 255 255 255 255 255 255 255 255 255 255 255
255 255 255 255 255 255 255 255 255 255 255 255 255 255 255 255 255
255 255 255 255 255 255 255 255 255 255 255 255 255 255 255 255 255
255 255 255 255 255 255 255 255 255 255 255 255 255 255 255 255 255
255 255 255 255 255 255 255 255 255 255 255 255 255 255 255 255 255
255 255 255 255 255 255 255 255 255 255 255 255 255 255 255 255 255
255 255 255 255 255 255 255 255 255 255 255 255 255 255 255 255 255
255 255 255 255 255 255 255 255 255 255 255 255 255 255 255 255 255
255 255 255 255 255 255 255 255 255 255 255 255 255 255 255 255 255
255 255 255 255 255 255 255 255 255 255 255 255 255 255 255 255 255
255 255 255 255 255 255 255 255 255 255 255 255 255 255 255 255 255
255 255 255 255 255 255 255 255 255 255 255 255 255 255 255 255 255
255 255 255 255 255
255 255 255 255 255 255 255 255 255 255 255 255 255 255 255 255 255
255 255 255 255 255 255 255 255 255 255 255 255 255 255 255 255 255
255 255 255 255 255 255 255 255 255 255 255 255 255 255 255 255 255
255 255 255 255 255 255 255 255 255 255 255 255 255 255 255 255 255
255 255 255 255 255 255 255 255 255 255 255 255 255 255 255 255 255
255 255 255 255 255 255 255 255 255 255 255 255 255 255 255 255 255
255 255 255 255 255 255 255 255 255 255 255 255 255 255 255 255 255
255 255 255 255 255 255 255 255 255 255 255 255 255 255 255 255 255
255 255 255 255 255 255 255 255 255 255 255 255 255 255 255 255 255
255 255 255 255 255 255 255 255 255 255 255 255 255 255 255 255 255
255 255 255 255 255 255 255 255 255 255 255 255 255 255 255 255 255
255 255 255 255 255 255 255 255 255 255 255 255 255 255 255 255 255
255 255 255 255 255 255 255 255 255 255 255 255 255 255 255 255 255
255 255 255 255 255 255 255 255 255 255 255 255 255 255 255 255 255
255 255 255 255 255 255 255 255 255 255 255 255 255 255 255 255 255
255 255 255 255 255 255 255 255 255 255 255 255 255 255 255 255 255
255 255 255 255 255 255 255 255 255 255 255 255 255 255 255 255 255
255 255 255 255 255 255 255 255 255 255 255 255 255 255 255 255 255
255 255 255 255 255 255 255 255 255 255 255 255 255 255 255 255 255
255 255 255 255 255 255 255 255 255 255 255 255 255 255 255 255 255
255 255 255 255 255 255 255 255 255 255 255 255 255 255 255 255 255
255 255 255 255 255 255 255 255 255 255 255 255 255 255 255 255 255
255 255 255 255 255 255 255 255 255 255 255 255 255 255 255 255 255
255 255 255 255 255 255 255 255 255 255 255 255 255 255 255 255 255
255 255 255 255 255 255 255 255 255 255 255 255 255 255 255 255 255
255 255 255 255 255 255 255 255 255 255 255 255 255 255 255 255 255
255 255 255 255 255 255 255 255 255 255 255 255 255 255 255 255 255
255 255 255 255 255 255 255 255 255 255 255 255 255 255 255 255 255
255 255 255 255 255 255 255 255 255 255 255 255 255 255 255 255 255
255 255 255 255 255 255 255 255 255 255 255 255 255 255 255 255 255
255 255 255 255 255 255 255 255 255 255 255 255 255 255 255 255 255
255 255 255 255 255 255 255 255 255 255 255 255 255 255 255 255 255
255 255 255 255 255 255 255 255 255 255 255 255 255 255 255 255 255
255 255 255 255 255 255 255 255 255 255 255 255 255 255 255 255 255
255 255 255 255 255 255 255 255 255 255 255 255 255 255 255 255 255
255 255 255 255 255
255 255 255 255 255 255 255 255 255 255 255 255 255 255 255 255 255
255 255 255 255 255 255 255 255 255 255 255 255 255 255 255 255 255
255 255 255 255 255 255 255 255 255 255 255 255 255 255 255 255 255
255 255 255 255 255 255 255 255 255 255 255 255 255 255 255 255 255
255 255 255 255 255 255 255 255 255 255 255 255 255 255 255 255 255
255 255 255 255 255 255 255 255 255 255 255 255 255 255 255 255 255
255 255 255 255 255 255 255 255 255 255 255 255 255 255 255 255 255
255 255 255 255 255 255 255 255 255 255 255 255 255 255 255 255 255
255 255 255 255 255 255 255 255 255 255 255 255 255 255 255 255 255
255 255 255 255 255 255 255 255 255 255 255 255 255 255 255 255 255
255 255 255 255 255 255 255 255 255 255 255 255 255 255 255 255 255
255 255 255 255 255 255 255 255 255 255 255 255 255 255 255 255 255
255 255 255 255 255 255 255 255 255 255 255 255 255 255 255 255 255
255 255 255 255 255 255 255 255 255 255 255 255 255 255 255 255 255
255 255 255 255 255 255 255 255 255 255 255 255 255 255 255 255 255
255 255 255 255 255 255 255 255 255 255 255 255 255 255 255 255 255
255 255 255 255 255 255 255 255 255 255 255 255 255 255 255 255 255
255 255 255 255 255 255 255 255 255 255 255 255 255 255 255 255 255
255 255 255 255 255 255 255 255 255 255 255 255 255 255 255 255 255
255 255 255 255 255 255 255 255 255 255 255 255 255 255 255 255 255
255 255 255 255 255 255 255 255 255 255 255 255 255 255 255 255 255
255 255 255 255 255 255 255 255 255 255 255 255 255 255 255 255 255
255 255 255 255 255 255 255 255 255 255 255 255 255 255 255 255 255
255 255 255 255 255 255 255 255 255 255 255 255 255 255 255 255 255
255 255 255 255 255 255 255 255 255 255 255 255 255 255 255 255 255
255 255 255 255 255 255 255 255 255 255 255 255 255 255 255 255 255
255 255 255 255 255 255 255 255 255 255 255 255 255 255 255 255 255
255 255 255 255 255 255 255 255 255 255 255 255 255 255 255 255 255
255 255 255 255 255 255 255 255 255 255 255 255 255 255 255 255 255
255 255 255 255 255 255 255 255 255 255 255 255 255 255 255 255 255
255 255 255 255 255 255 255 255 255 255 255 255 255 255 255 255 255
255 255 255 255 255 255 255 255 255 255 255 255 255 255 255 255 255
255 255 255 255 255 255 255 255 255 255 255 255 255 255 255 255 255
255 255 255 255 255 255 255 255 255 255 255 255 255 255 255 255 255
255 255 255 255 255 255 255 255 255 255 255 255 255 255 255 255 255
255 255 255 255 255
255 255 255 255 255 255 255 255 255 255 255 255 255 255 255 255 255
255 255 255 255 255 255 255 255 255 255 255 255 255 255 255 255 255
255 255 255 255 255 255 255 255 255 255 255 255 255 255 255 255 255
255 255 255 255 255 255 255 255 255 255 255 255 255 255 255 255 255
255 255 255 255 255 255 255 255 255 255 255 255 255 255 255 255 255
255 255 255 255 255 255 255 255 255 255 255 255 255 255 255 255 255
255 255 255 255 255 255 255 255 255 255 255 255 255 255 255 255 255
255 255 255 255 255 255 255 255 255 255 255 255 255 255 255 255 255
255 255 255 255 255 255 255 255 255 255 255 255 255 255 255 255 255
255 255 255 255 255 255 255 255 255 255 255 255 255 255 255 255 255
255 255 255 255 255 255 255 255 255 255 255 255 255 255 255 255 255
255 255 255 255 255 255 255 255 255 255 255 255 255 255 255 255 255
255 255 255 255 255 255 255 255 255 255 255 255 255 255 255 255 255
255 255 255 255 255 255 255 255 255 255 255 255 255 255 255 255 255
255 255 255 255 255 255 255 255 255 255 255 255 255 255 255 255 255
255 255 255 255 255 255 255 255 255 255 255 255 255 255 255 255 255
255 255 255 255 255 255 255 255 255 255 255 255 255 255 255 255 255
255 255 255 255 255 255 255 255 255 255 255 255 255 255 255 255 255
255 255 255 255 255 255 255 255 255 255 255 255 255 255 255 255 255
255 255 255 255 255 255 255 255 255 255 255 255 255 255 255 255 255
255 255 255 255 255 255 255 255 255 255 255 255 255 255 255 255 255
255 255 255 255 255 255 255 255 255 255 255 255 255 255 255 255 255
255 255 255 255 255 255 255 255 255 255 255 255 255 255 255 255 255
255 255 255 255 255 255 255 255 255 255 255 255 255 255 255 255 255
255 255 255 255 255 255 255 255 255 255 255 255 255 255 255 255 255
255 255 255 255 255 255 255 255 255 255 255 255 255 255 255 255 255
255 255 255 255 255 255 255 255 255 255 255 255 255 255 255 255 255
255 255 255 255 255 255 255 255 255 255 255 255 255 255 255 255 255
255 255 255 255 255 255 255 255 255 255 255 255 255 255 255 255 255
255 255 255 255 255 255 255 255 255 255 255 255 255 255 255 255 255
255 255 255 255 255 255 255 255 255 255 255 255 255 255 255 255 255
255 255 255 255 255 255 255 255 255 255 255 255 255 255 255 255 255
255 255 255 255 255 255 255 255 255 255 255 255 255 255 255 255 255
255 255 255 255 255 255 255 255 255 255 255 255 255 255 255 255 255
255 255 255 255 255 255 255 255 255 255 255 255 255 255 255 255 255
255 255 255 255 255
255 255 255 255 255 255 255 255 255 255 255 255 255 255 255 255 255
255 255 255 255 255 255 255 255 255 255 255 255 255 255 255 255 255
255 255 255 255 255 255 255 255 255 255 255 255 255 255 255 255 255
255 255 255 255 255 255 255 255 255 255 255 255 255 255 255 255 255
255 255 255 255 255 255 255 255 255 255 255 255 255 255 255 255 255
255 255 255 255 255 255 255 255 255 255 255 255 255 255 255 255 255
255 255 255 255 255 255 255 255 255 255 255 255 255 255 255 255 255
255 255 255 255 255 255 255 255 255 255 255 255 255 255 255 255 255
255 255 255 255 255 255 255 255 255 255 255 255 255 255 255 255 255
255 255 255 255 255 255 255 255 255 255 255 255 255 255 255 255 255
255 255 255 255 255 255 255 255 255 255 255 255 255 255 255 255 255
255 255 255 255 255 255 255 255 255 255 255 255 255 255 255 255 255
255 255 255 255 255 255 255 255 255 255 255 255 255 255 255 255 255
255 255 255 255 255 255 255 255 255 255 255 255 255 255 255 255 255
255 255 255 255 255 255 255 255 255 255 255 255 255 255 255 255 255
255 255 255 255 255 255 255 255 255 255 255 255 255 255 255 255 255
255 255 255 255 255 255 255 255 255 255 255 255 255 255 255 255 255
255 255 255 255 255 255 255 255 255 255 255 255 255 255 255 255 255
255 255 255 255 255 255 255 255 255 255 255 255 255 255 255 255 255
255 255 255 255 255 255 255 255 255 255 255 255 255 255 255 255 255
255 255 255 255 255 255 255 255 255 255 255 255 255 255 255 255 255
255 255 255 255 255 255 255 255 255 255 255 255 255 255 255 255 255
255 255 255 255 255 255 255 255 255 255 255 255 255 255 255 255 255
255 255 255 255 255 255 255 255 255 255 255 255 255 255 255 255 255
255 255 255 255 255 255 255 255 255 255 255 255 255 255 255 255 255
255 255 255 255 255 255 255 255 255 255 255 255 255 255 255 255 255
255 255 255 255 255 255 255 255 255 255 255 255 255 255 255 255 255
255 255 255 255 255 255 255 255 255 255 255 255 255 255 255 255 255
255 255 255 255 255 255 255 255 255 255 255 255 255 255 255 255 255
255 255 255 255 255 255 255 255 255 255 255 255 255 255 255 255 255
255 255 255 255 255 255 255 255 255 255 255 255 255 255 255 255 255
255 255 255 255 255 255 255 255 255 255 255 255 255 255 255 255 255
255 255 255 255 255 255 255 255 255 255 255 255 255 255 255 255 255
255 255 255 255 255 255 255 255 255 255 255 255 255 255 255 255 255
255 255 255 255 255 255 255 255 255 255 255 255 255 255 255 255 255
255 255 255 255 255
255 255 255 255 255 255 255 255 255 255 255 255 255 255 255 255 255
255 255 255 255 255 255 255 255 255 255 255 255 255 255 255 255 255
255 255 255 255 255 255 255 255 255 255 255 255 255 255 255 255 255
255 255 255 255 255 255 255 255 255 255 255 255 255 255 255 255 255
255 255 255 255 255 255 255 255 255 255 255 255 255 255 255 255 255
255 255 255 255 255 255 255 255 255 255 255 255 255 255 255 255 255
255 255 255 255 255 255 255 255 255 255 255 255 255 255 255 255 255
255 255 255 255 255 255 255 255 255 255 255 255 255 255 255 255 255
255 255 255 255 255 255 255 255 255 255 255 255 255 255 255 255 255
255 255 255 255 255 255 255 255 255 255 255 255 255 255 255 255 255
255 255 255 255 255 255 255 255 255 255 255 255 255 255 255 255 255
255 255 255 255 255 255 255 255 255 255 255 255 255 255 255 255 255
255 255 255 255 255 255 255 255 255 255 255 255 255 255 255 255 255
255 255 255 255 255 255 255 255 255 255 255 255 255 255 255 255 255
255 255 255 255 255 255 255 255 255 255 255 255 255 255 255 255 255
255 255 255 255 255 255 255 255 255 255 255 255 255 255 255 255 255
255 255 255 255 255 255 255 255 255 255 255 255 255 255 255 255 255
255 255 255 255 255 255 255 255 255 255 255 255 255 255 255 255 255
255 255 255 255 255 255 255 255 255 255 255 255 255 255 255 255 255
255 255 255 255 255 255 255 255 255 255 255 255 255 255 255 255 255
255 255 255 255 255 255 255 255 255 255 255 255 255 255 255 255 255
255 255 255 255 255 255 255 255 255 255 255 255 255 255 255 255 255
255 255 255 255 255 255 255 255 255 255 255 255 255 255 255 255 255
255 255 255 255 255 255 255 255 255 255 255 255 255 255 255 255 255
255 255 255 255 255 255 255 255 255 255 255 255 255 255 255 255 255
255 255 255 255 255 255 255 255 255 255 255 255 255 255 255 255 255
255 255 255 255 255 255 255 255 255 255 255 255 255 255 255 255 255
255 255 255 255 255 255 255 255 255 255 255 255 255 255 255 255 255
255 255 255 255 255 255 255 255 255 255 255 255 255 255 255 255 255
255 255 255 255 255 255 255 255 255 255 255 255 255 255 255 255 255
255 255 255 255 255 255 255 255 255 255 255 255 255 255 255 255 255
255 255 255 255 255 255 255 255 255 255 255 255 255 255 255 255 255
255 255 255 255 255 255 255 255 255 255 255 255 255 255 255 255 255
255 255 255 255 255 255 255 255 255 255 255 255 255 255 255 255 255
255 255 255 255 255 255 255 255 255 255 255 255 255 255 255 255 255
255 255 255 255 255
255 255 255 255 255 255 255 255 255 255 255 255 255 255 255 255 255
255 255 255 255 255 255 255 255 255 255 255 255 255 255 255 255 255
255 255 255 255 255 255 255 255 255 255 255 255 255 255 255 255 255
255 255 255 255 255 255 255 255 255 255 255 255 255 255 255 255 255
255 255 255 255 255 255 255 255 255 255 255 255 255 255 255 255 255
255 255 255 255 255 255 255 255 255 255 255 255 255 255 255 255 255
255 255 255 255 255 255 255 255 255 255 255 255 255 255 255 255 255
255 255 255 255 255 255 255 255 255 255 255 255 255 255 255 255 255
255 255 255 255 255 255 255 255 255 255 255 255 255 255 255 255 255
255 255 255 255 255 255 255 255 255 255 255 255 255 255 255 255 255
255 255 255 255 255 255 255 255 255 255 255 255 255 255 255 255 255
255 255 255 255 255 255 255 255 255 255 255 255 255 255 255 255 255
255 255 255 255 255 255 255 255 255 255 255 255 255 255 255 255 255
255 255 255 255 255 255 255 255 255 255 255 255 255 255 255 255 255
255 255 255 255 255 255 255 255 255 255 255 255 255 255 255 255 255
255 255 255 255 255 255 255 255 255 255 255 255 255 255 255 255 255
255 255 255 255 255 255 255 255 255 255 255 255 255 255 255 255 255
255 255 255 255 255 255 255 255 255 255 255 255 255 255 255 255 255
255 255 255 255 255 255 255 255 255 255 255 255 255 255 255 255 255
255 255 255 255 255 255 255 255 255 255 255 255 255 255 255 255 255
255 255 255 255 255 255 255 255 255 255 255 255 255 255 255 255 255
255 255 255 255 255 255 255 255 255 255 255 255 255 255 255 255 255
255 255 255 255 255 255 255 255 255 255 255 255 255 255 255 255 255
255 255 255 255 255 255 255 255 255 255 255 255 255 255 255 255 255
255 255 255 255 255 255 255 255 255 255 255 255 255 255 255 255 255
255 255 255 255 255 255 255 255 255 255 255 255 255 255 255 255 255
255 255 255 255 255 255 255 255 255 255 255 255 255 255 255 255 255
255 255 255 255 255 255 255 255 255 255 255 255 255 255 255 255 255
255 255 255 255 255 255 255 255 255 255 255 255 255 255 255 255 255
255 255 255 255 255 255 255 255 255 255 255 255 255 255 255 255 255
255 255 255 255 255 255 255 255 255 255 255 255 255 255 255 255 255
255 255 255 255 255 255 255 255 255 255 255 255 255 255 255 255 255
255 255 255 255 255 255 255 255 255 255 255 255 255 255 255 255 255
255 255 255 255 255 255 255 255 255 255 255 255 255 255 255 255 255
255 255 255 255 255 255 255 255 255 255 255 255 255 255 255 255 255
255 255 255 255 255
255 255 255 255 255 255 255 255 255 255 255 255 255 255 255 255 255
255 255 255 255 255 255 255 255 255 255 255 255 255 255 255 255 255
255 255 255 255 255 255 255 255 255 255 255 255 255 255 255 255 255
255 255 255 255 255 255 255 255 255 255 255 255 255 255 255 255 255
255 255 255 255 255 255 255 255 255 255 255 255 255 255 255 255 255
255 255 255 255 255 255 255 255 255 255 255 255 255 255 255 255 255
255 255 255 255 255 255 255 255 255 255 255 255 255 255 255 255 255
255 255 255 255 255 255 255 255 255 255 255 255 255 255 255 255 255
255 255 255 255 255 255 255 255 255 255 255 255 255 255 255 255 255
255 255 255 255 255 255 255 255 255 255 255 255 255 255 255 255 255
255 255 255 255 255 255 255 255 255 255 255 255 255 255 255 255 255
255 255 255 255 255 255 255 255 255 255 255 255 255 255 255 255 255
255 255 255 255 255 255 255 255 255 255 255 255 255 255 255 255 255
255 255 255 255 255 255 255 255 255 255 255 255 255 255 255 255 255
255 255 255 255 255 255 255 255 255 255 255 255 255 255 255 255 255
255 255 255 255 255 255 255 255 255 255 255 255 255 255 255 255 255
255 255 255 255 255 255 255 255 255 255 255 255 255 255 255 255 255
255 255 255 255 255 255 255 255 255 255 255 255 255 255 255 255 255
255 255 255 255 255 255 255 255 255 255 255 255 255 255 255 255 255
255 255 255 255 255 255 255 255 255 255 255 255 255 255 255 255 255
255 255 255 255 255 255 255 255 255 255 255 255 255 255 255 255 255
255 255 255 255 255 255 255 255 255 255 255 255 255 255 255 255 255
255 255 255 255 255 255 255 255 255 255 255 255 255 255 255 255 255
255 255 255 255 255 255 255 255 255 255 255 255 255 255 255 255 255
255 255 255 255 255 255 255 255 255 255 255 255 255 255 255 255 255
255 255 255 255 255 255 255 255 255 255 255 255 255 255 255 255 255
255 255 255 255 255 255 255 255 255 255 255 255 255 255 255 255 255
255 255 255 255 255 255 255 255 255 255 255 255 255 255 255 255 255
255 255 255 255 255 255 255 255 255 255 255 255 255 255 255 255 255
255 255 255 255 255 255 255 255 255 255 255 255 255 255 255 255 255
255 255 255 255 255 255 255 255 255 255 255 255 255 255 255 255 255
255 255 255 255 255 255 255 255 255 255 255 255 255 255 255 255 255
255 255 255 255 255 255 255 255 255 255 255 255 255 255 255 255 255
255 255 255 255 255 255 255 255 255 255 255 255 255 255 255 255 255
255 255 255 255 255 255 255 255 255 255 255 255 255 255 255 255 255
255 255 255 255 255
255 255 255 255 255 255 255 255 255 255 255 255 255 255 255 255 255
255 255 255 255 255 255 255 255 255 255 255 255 255 255 255 255 255
255 255 255 255 255 255 255 255 255 255 255 255 255 255 255 255 255
255 255 255 255 255 255 255 255 255 255 255 255 255 255 255 255 255
255 255 255 255 255 255 255 255 255 255 255 255 255 255 255 255 255
255 255 255 255 255 255 255 255 255 255 255 255 255 255 255 255 255
255 255 255 255 255 255 255 255 255 255 255 255 255 255 255 255 255
255 255 255 255 255 255 255 255 255 255 255 255 255 255 255 255 255
255 255 255 255 255 255 255 255 255 255 255 255 255 255 255 255 255
255 255 255 255 255 255 255 255 255 255 255 255 255 255 255 255 255
255 255 255 255 255 255 255 255 255 255 255 255 255 255 255 255 255
255 255 255 255 255 255 255 255 255 255 255 255 255 255 255 255 255
255 255 255 255 255 255 255 255 255 255 255 255 255 255 255 255 255
255 255 255 255 255 255 255 255 255 255 255 255 255 255 255 255 255
255 255 255 255 255 255 255 255 255 255 255 255 255 255 255 255 255
255 255 255 255 255 255 255 255 255 255 255 255 255 255 255 255 255
255 255 255 255 255 255 255 255 255 255 255 255 255 255 255 255 255
255 255 255 255 255 255 255 255 255 255 255 255 255 255 255 255 255
255 255 255 255 255 255 255 255 255 255 255 255 255 255 255 255 255
255 255 255 255 255 255 255 255 255 255 255 255 255 255 255 255 255
255 255 255 255 255 255 255 255 255 255 255 255 255 255 255 255 255
255 255 255 255 255 255 255 255 255 255 255 255 255 255 255 255 255
255 255 255 255 255 255 255 255 255 255 255 255 255 255 255 255 255
255 255 255 255 255 255 255 255 255 255 255 255 255 255 255 255 255
255 255 255 255 255 255 255 255 255 255 255 255 255 255 255 255 255
255 255 255 255 255 255 255 255 255 255 255 255 255 255 255 255 255
255 255 255 255 255 255 255 255 255 255 255 255 255 255 255 255 255
255 255 255 255 255 255 255 255 255 255 255 255 255 255 255 255 255
255 255 255 255 255 255 255 255 255 255 255 255 255 255 255 255 255
255 255 255 255 255 255 255 255 255 255 255 255 255 255 255 255 255
255 255 255 255 255 255 255 255 255 255 255 255 255 255 255 255 255
255 255 255 255 255 255 255 255 255 255 255 255 255 255 255 255 255
255 255 255 255 255 255 255 255 255 255 255 255 255 255 255 255 255
255 255 255 255 255 255 255 255 255 255 255 255 255 255 255 255 255
255 255 255 255 255 255 255 255 255 255 255 255 255 255 255 255 255
255 255 255 255 255
255 255 255 255 255 255 255 255 255 255 255 255 255 255 255 255 255
255 255 255 255 255 255 255 255 255 255 255 255 255 255 255 255 255
255 255 255 255 255 255 255 255 255 255 255 255 255 255 255 255 255
255 255 255 255 255 255 255 255 255 255 255 255 255 255 255 255 255
255 255 255 255 255 255 255 255 255 255 255 255 255 255 255 255 255
255 255 255 255 255 255 255 255 255 255 255 255 255 255 255 255 255
255 255 255 255 255 255 255 255 255 255 255 255 255 255 255 255 255
255 255 255 255 255 255 255 255 255 255 255 255 255 255 255 255 255
255 255 255 255 255 255 255 255 255 255 255 255 255 255 255 255 255
255 255 255 255 255 255 255 255 255 255 255 255 255 255 255 255 255
255 255 255 255 255 255 255 255 255 255 255 255 255 255 255 255 255
255 255 255 255 255 255 255 255 255 255 255 255 255 255 255 255 255
255 255 255 255 255 255 255 255 255 255 255 255 255 255 255 255 255
255 255 255 255 255 255 255 255 255 255 255 255 255 255 255 255 255
255 255 255 255 255 255 255 255 255 255 255 255 255 255 255 255 255
255 255 255 255 255 255 255 255 255 255 255 255 255 255 255 255 255
255 255 255 255 255 255 255 255 255 255 255 255 255 255 255 255 255
255 255 255 255 255 255 255 255 255 255 255 255 255 255 255 255 255
255 255 255 255 255 255 255 255 255 255 255 255 255 255 255 255 255
255 255 255 255 255 255 255 255 255 255 255 255 255 255 255 255 255
255 255 255 255 255 255 255 255 255 255 255 255 255 255 255 255 255
255 255 255 255 255 255 255 255 255 255 255 255 255 255 255 255 255
255 255 255 255 255 255 255 255 255 255 255 255 255 255 255 255 255
255 255 255 255 255 255 255 255 255 255 255 255 255 255 255 255 255
255 255 255 255 255 255 255 255 255 255 255 255 255 255 255 255 255
255 255 255 255 255 255 255 255 255 255 255 255 255 255 255 255 255
255 255 255 255 255 255 255 255 255 255 255 255 255 255 255 255 255
255 255 255 255 255 255 255 255 255 255 255 255 255 255 255 255 255
255 255 255 255 255 255 255 255 255 255 255 255 255 255 255 255 255
255 255 255 255 255 255 255 255 255 255 255 255 255 255 255 255 255
255 255 255 255 255 255 255 255 255 255 255 255 255 255 255 255 255
255 255 255 255 255 255 255 255 255 255 255 255 255 255 255 255 255
255 255 255 255 255 255 255 255 255 255 255 255 255 255 255 255 255
255 255 255 255 255 255 255 255 255 255 255 255 255 255 255 255 255
255 255 255 255 255 255 255 255 255 255 255 255 255 255 255 255 255
255 255 255 255 255
255 255 255 255 255 255 255 255 255 255 255 255 255 255 255 255 255
255 255 255 255 255 255 255 255 255 255 255 255 255 255 255 255 255
255 255 255 255 255 255 255 255 255 255 255 255 255 255 255 255 255
255 255 255 255 255 255 255 255 255 255 255 255 255 255 255 255 255
255 255 255 255 255 255 255 255 255 255 255 255 255 255 255 255 255
255 255 255 255 255 255 255 255 255 255 255 255 255 255 255 255 255
255 255 255 255 255 255 255 255 255 255 255 255 255 255 255 255 255
255 255 255 255 255 255 255 255 255 255 255 255 255 255 255 255 255
255 255 255 255 255 255 255 255 255 255 255 255 255 255 255 255 255
255 255 255 255 255 255 255 255 255 255 255 255 255 255 255 255 255
255 255 255 255 255 255 255 255 255 255 255 255 255 255 255 255 255
255 255 255 255 255 255 255 255 255 255 255 255 255 255 255 255 255
255 255 255 255 255 255 255 255 255 255 255 255 255 255 255 255 255
255 255 255 255 255 255 255 255 255 255 255 255 255 255 255 255 255
255 255 255 255 255 255 255 255 255 255 255 255 255 255 255 255 255
255 255 255 255 255 255 255 255 255 255 255 255 255 255 255 255 255
255 255 255 255 255 255 255 255 255 255 255 255 255 255 255 255 255
255 255 255 255 255 255 255 255 255 255 255 255 255 255 255 255 255
255 255 255 255 255 255 255 255 255 255 255 255 255 255 255 255 255
255 255 255 255 255 255 255 255 255 255 255 255 255 255 255 255 255
255 255 255 255 255 255 255 255 255 255 255 255 255 255 255 255 255
255 255 255 255 255 255 255 255 255 255 255 255 255 255 255 255 255
255 255 255 255 255 255 255 255 255 255 255 255 255 255 255 255 255
255 255 255 255 255 255 255 255 255 255 255 255 255 255 255 255 255
255 255 255 255 255 255 255 255 255 255 255 255 255 255 255 255 255
255 255 255 255 255 255 255 255 255 255 255 255 255 255 255 255 255
255 255 255 255 255 255 255 255 255 255 255 255 255 255 255 255 255
255 255 255 255 255 255 255 255 255 255 255 255 255 255 255 255 255
255 255 255 255 255 255 255 255 255 255 255 255 255 255 255 255 255
255 255 255 255 255 255 255 255 255 255 255 255 255 255 255 255 255
255 255 255 255 255 255 255 255 255 255 255 255 255 255 255 255 255
255 255 255 255 255 255 255 255 255 255 255 255 255 255 255 255 255
255 255 255 255 255 255 255 255 255 255 255 255 255 255 255 255 255
255 255 255 255 255 255 255 255 255 255 255 255 255 255 255 255 255
255 255 255 255 255 255 255 255 255 255 255 255 255 255 255 255 255
255 255 255 255 255
255 255 255 255 255 255 255 255 255 255 255 255 255 255 255 255 255
255 255 255 255 255 255 255 255 255 255 255 255 255 255 255 255 255
255 255 255 255 255 255 255 255 255 255 255 255 255 255 255 255 255
255 255 255 255 255 255 255 255 255 255 255 255 255 255 255 255 255
255 255 255 255 255 255 255 255 255 255 255 255 255 255 255 255 255
255 255 255 255 255 255 255 255 255 255 255 255 255 255 255 255 255
255 255 255 255 255 255 255 255 255 255 255 255 255 255 255 255 255
255 255 255 255 255 255 255 255 255 255 255 255 255 255 255 255 255
255 255 255 255 255 255 255 255 255 255 255 255 255 255 255 255 255
255 255 255 255 255 255 255 255 255 255 255 255 255 255 255 255 255
255 255 255 255 255 255 255 255 255 255 255 255 255 255 255 255 255
255 255 255 255 255 255 255 255 255 255 255 255 255 255 255 255 255
255 255 255 255 255 255 255 255 255 255 255 255 255 255 255 255 255
255 255 255 255 255 255 255 255 255 255 255 255 255 255 255 255 255
255 255 255 255 255 255 255 255 255 255 255 255 255 255 255 255 255
255 255 255 255 255 255 255 255 255 255 255 255 255 255 255 255 255
255 255 255 255 255 255 255 255 255 255 255 255 255 255 255 255 255
255 255 255 255 255 255 255 255 255 255 255 255 255 255 255 255 255
255 255 255 255 255 255 255 255 255 255 255 255 255 255 255 255 255
255 255 255 255 255 255 255 255 255 255 255 255 255 255 255 255 255
255 255 255 255 255 255 255 255 255 255 255 255 255 255 255 255 255
255 255 255 255 255 255 255 255 255 255 255 255 255 255 255 255 255
255 255 255 255 255 255 255 255 255 255 255 255 255 255 255 255 255
255 255 255 255 255 255 255 255 255 255 255 255 255 255 255 255 255
255 255 255 255 255 255 255 255 255 255 255 255 255 255 255 255 255
255 255 255 255 255 255 255 255 255 255 255 255 255 255 255 255 255
255 255 255 255 255 255 255 255 255 255 255 255 255 255 255 255 255
255 255 255 255 255 255 255 255 255 255 255 255 255 255 255 255 255
255 255 255 255 255 255 255 255 255 255 255 255 255 255 255 255 255
255 255 255 255 255 255 255 255 255 255 255 255 255 255 255 255 255
255 255 255 255 255 255 255 255 255 255 255 255 255 255 255 255 255
255 255 255 255 255 255 255 255 255 255 255 255 255 255 255 255 255
255 255 255 255 255 255 255 255 255 255 255 255 255 255 255 255 255
255 255 255 255 255 255 255 255 255 255 255 255 255 255 255 255 255
255 255 255 255 255 255 255 255 255 255 255 255 255 255 255 255 255
255 255 255 255 255
255 255 255 255 255 255 255 255 255 255 255 255 255 255 255 255 255
255 255 255 255 255 255 255 255 255 255 255 255 255 255 255 255 255
255 255 255 255 255 255 255 255 255 255 255 255 255 255 255 255 255
255 255 255 255 255 255 255 255 255 255 255 255 255 255 255 255 255
255 255 255 255 255 255 255 255 255 255 255 255 255 255 255 255 255
255 255 255 255 255 255 255 255 255 255 255 255 255 255 255 255 255
255 255 255 255 255 255 255 255 255 255 255 255 255 255 255 255 255
255 255 255 255 255 255 255 255 255 255 255 255 255 255 255 255 255
255 255 255 255 255 255 255 255 255 255 255 255 255 255 255 255 255
255 255 255 255 255 255 255 255 255 255 255 255 255 255 255 255 255
255 255 255 255 255 255 255 255 255 255 255 255 255 255 255 255 255
255 255 255 255 255 255 255 255 255 255 255 255 255 255 255 255 255
255 255 255 255 255 255 255 255 255 255 255 255 255 255 255 255 255
255 255 255 255 255 255 255 255 255 255 255 255 255 255 255 255 255
255 255 255 255 255 255 255 255 255 255 255 255 255 255 255 255 255
255 255 255 255 255 255 255 255 255 255 255 255 255 255 255 255 255
255 255 255 255 255 255 255 255 255 255 255 255 255 255 255 255 255
255 255 255 255 255 255 255 255 255 255 255 255 255 255 255 255 255
255 255 255 255 255 255 255 255 255 255 255 255 255 255 255 255 255
255 255 255 255 255 255 255 255 255 255 255 255 255 255 255 255 255
255 255 255 255 255 255 255 255 255 255 255 255 255 255 255 255 255
255 255 255 255 255 255 255 255 255 255 255 255 255 255 255 255 255
255 255 255 255 255 255 255 255 255 255 255 255 255 255 255 255 255
255 255 255 255 255 255 255 255 255 255 255 255 255 255 255 255 255
255 255 255 255 255 255 255 255 255 255 255 255 255 255 255 255 255
255 255 255 255 255 255 255 255 255 255 255 255 255 255 255 255 255
255 255 255 255 255 255 255 255 255 255 255 255 255 255 255 255 255
255 255 255 255 255 255 255 255 255 255 255 255 255 255 255 255 255
255 255 255 255 255 255 255 255 255 255 255 255 255 255 255 255 255
255 255 255 255 255 255 255 255 255 255 255 255 255 255 255 255 255
255 255 255 255 255 255 255 255 255 255 255 255 255 255 255 255 255
255 255 255 255 255 255 255 255 255 255 255 255 255 255 255 255 255
255 255 255 255 255 255 255 255 255 255 255 255 255 255 255 255 255
255 255 255 255 255 255 255 255 255 255 255 255 255 255 255 255 255
255 255 255 255 255 255 255 255 255 255 255 255 255 255 255 255 255
255 255 255 255 255
255 255 255 255 255 255 255 255 255 255 255 255 255 255 255 255 255
255 255 255 255 255 255 255 255 255 255 255 255 255 255 255 255 255
255 255 255 255 255 255 255 255 255 255 255 255 255 255 255 255 255
255 255 255 255 255 255 255 255 255 255 255 255 255 255 255 255 255
255 255 255 255 255 255 255 255 255 255 255 255 255 255 255 255 255
255 255 255 255 255 255 255 255 255 255 255 255 255 255 255 255 255
255 255 255 255 255 255 255 255 255 255 255 255 255 255 255 255 255
255 255 255 255 255 255 255 255 255 255 255 255 255 255 255 255 255
255 255 255 255 255 255 255 255 255 255 255 255 255 255 255 255 255
255 255 255 255 255 255 255 255 255 255 255 255 255 255 255 255 255
255 255 255 255 255 255 255 255 255 255 255 255 255 255 255 255 255
255 255 255 255 255 255 255 255 255 255 255 255 255 255 255 255 255
255 255 255 255 255 255 255 255 255 255 255 255 255 255 255 255 255
255 255 255 255 255 255 255 255 255 255 255 255 255 255 255 255 255
255 255 255 255 255 255 255 255 255 255 255 255 255 255 255 255 255
255 255 255 255 255 255 255 255 255 255 255 255 255 255 255 255 255
255 255 255 255 255 255 255 255 255 255 255 255 255 255 255 255 255
255 255 255 255 255 255 255 255 255 255 255 255 255 255 255 255 255
255 255 255 255 255 255 255 255 255 255 255 255 255 255 255 255 255
255 255 255 255 255 255 255 255 255 255 255 255 255 255 255 255 255
255 255 255 255 255 255 255 255 255 255 255 255 255 255 255 255 255
255 255 255 255 255 255 255 255 255 255 255 255 255 255 255 255 255
255 255 255 255 255 255 255 255 255 255 255 255 255 255 255 255 255
255 255 255 255 255 255 255 255 255 255 255 255 255 255 255 255 255
255 255 255 255 255 255 255 255 255 255 255 255 255 255 255 255 255
255 255 255 255 255 255 255 255 255 255 255 255 255 255 255 255 255
255 255 255 255 255 255 255 255 255 255 255 255 255 255 255 255 255
255 255 255 255 255 255 255 255 255 255 255 255 255 255 255 255 255
255 255 255 255 255 255 255 255 255 255 255 255 255 255 255 255 255
255 255 255 255 255 255 255 255 255 255 255 255 255 255 255 255 255
255 255 255 255 255 255 255 255 255 255 255 255 255 255 255 255 255
255 255 255 255 255 255 255 255 255 255 255 255 255 255 255 255 255
255 255 255 255 255 255 255 255 255 255 255 255 255 255 255 255 255
255 255 255 255 255 255 255 255 255 255 255 255 255 255 255 255 255
255 255 255 255 255 255 255 255 255 255 255 255 255 255 255 255 255
255 255 255 255 255
255 255 255 255 255 255 255 255 255 255 255 255 255 255 255 255 255
255 255 255 255 255 255 255 255 255 255 255 255 255 255 255 255 255
255 255 255 255 255 255 255 255 255 255 255 255 255 255 255 255 255
255 255 255 255 255 255 255 255 255 255 255 255 255 255 255 255 255
255 255 255 255 255 255 255 255 255 255 255 255 255 255 255 255 255
255 255 255 255 255 255 255 255 255 255 255 255 255 255 255 255 255
255 255 255 255 255 255 255 255 255 255 255 255 255 255 255 255 255
255 255 255 255 255 255 255 255 255 255 255 255 255 255 255 255 255
255 255 255 255 255 255 255 255 255 255 255 255 255 255 255 255 255
255 255 255 255 255 255 255 255 255 255 255 255 255 255 255 255 255
255 255 255 255 255 255 255 255 255 255 255 255 255 255 255 255 255
255 255 255 255 255 255 255 255 255 255 255 255 255 255 255 255 255
255 255 255 255 255 255 255 255 255 255 255 255 255 255 255 255 255
255 255 255 255 255 255 255 255 255 255 255 255 255 255 255 255 255
255 255 255 255 255 255 255 255 255 255 255 255 255 255 255 255 255
255 255 255 255 255 255 255 255 255 255 255 255 255 255 255 255 255
255 255 255 255 255 255 255 255 255 255 255 255 255 255 255 255 255
255 255 255 255 255 255 255 255 255 255 255 255 255 255 255 255 255
255 255 255 255 255 255 255 255 255 255 255 255 255 255 255 255 255
255 255 255 255 255 255 255 255 255 255 255 255 255 255 255 255 255
255 255 255 255 255 255 255 255 255 255 255 255 255 255 255 255 255
255 255 255 255 255 255 255 255 255 255 255 255 255 255 255 255 255
255 255 255 255 255 255 255 255 255 255 255 255 255 255 255 255 255
255 255 255 255 255 255 255 255 255 255 255 255 255 255 255 255 255
255 255 255 255 255 255 255 255 255 255 255 255 255 255 255 255 255
255 255 255 255 255 255 255 255 255 255 255 255 255 255 255 255 255
255 255 255 255 255 255 255 255 255 255 255 255 255 255 255 255 255
255 255 255 255 255 255 255 255 255 255 255 255 255 255 255 255 255
255 255 255 255 255 255 255 255 255 255 255 255 255 255 255 255 255
255 255 255 255 255 255 255 255 255 255 255 255 255 255 255 255 255
255 255 255 255 255 255 255 255 255 255 255 255 255 255 255 255 255
255 255 255 255 255 255 255 255 255 255 255 255 255 255 255 255 255
255 255 255 255 255 255 255 255 255 255 255 255 255 255 255 255 255
255 255 255 255 255 255 255 255 255 255 255 255 255 255 255 255 255
255 255 255 255 255 255 255 255 255 255 255 255 255 255 255 255 255
255 255 255 255 255
255 255 255 255 255 255 255 255 255 255 255 255 255 255 255 255 255
255 255 255 255 255 255 255 255 255 255 255 255 255 255 255 255 255
255 255 255 255 255 255 255 255 255 255 255 255 255 255 255 255 255
255 255 255 255 255 255 255 255 255 255 255 255 255 255 255 255 255
255 255 255 255 255 255 255 255 255 255 255 255 255 255 255 255 255
255 255 255 255 255 255 255 255 255 255 255 255 255 255 255 255 255
255 255 255 255 255 255 255 255 255 255 255 255 255 255 255 255 255
255 255 255 255 255 255 255 255 255 255 255 255 255 255 255 255 255
255 255 255 255 255 255 255 255 255 255 255 255 255 255 255 255 255
255 255 255 255 255 255 255 255 255 255 255 255 255 255 255 255 255
255 255 255 255 255 255 255 255 255 255 255 255 255 255 255 255 255
255 255 255 255 255 255 255 255 255 255 255 255 255 255 255 255 255
255 255 255 255 255 255 255 255 255 255 255 255 255 255 255 255 255
255 255 255 255 255 255 255 255 255 255 255 255 255 255 255 255 255
255 255 255 255 255 255 255 255 255 255 255 255 255 255 255 255 255
255 255 255 255 255 255 255 255 255 255 255 255 255 255 255 255 255
255 255 255 255 255 255 255 255 255 255 255 255 255 255 255 255 255
255 255 255 255 255 255 255 255 255 255 255 255 255 255 255 255 255
255 255 255 255 255 255 255 255 255 255 255 255 255 255 255 255 255
255 255 255 255 255 255 255 255 255 255 255 255 255 255 255 255 255
255 255 255 255 255 255 255 255 255 255 255 255 255 255 255 255 255
255 255 255 255 255 255 255 255 255 255 255 255 255 255 255 255 255
255 255 255 255 255 255 255 255 255 255 255 255 255 255 255 255 255
255 255 255 255 255 255 255 255 255 255 255 255 255 255 255 255 255
255 255 255 255 255 255 255 255 255 255 255 255 255 255 255 255 255
255 255 255 255 255 255 255 255 255 255 255 255 255 255 255 255 255
255 255 255 255 255 255 255 255 255 255 255 255 255 255 255 255 255
255 255 255 255 255 255 255 255 255 255 255 255 255 255 255 255 255
255 255 255 255 255 255 255 255 255 255 255 255 255 255 255 255 255
255 255 255 255 255 255 255 255 255 255 255 255 255 255 255 255 255
255 255 255 255 255 255 255 255 255 255 255 255 255 255 255 255 255
255 255 255 255 255 255 255 255 255 255 255 255 255 255 255 255 255
255 255 255 255 255 255 255 255 255 255 255 255 255 255 255 255 255
255 255 255 255 255 255 255 255 255 255 255 255 255 255 255 255 255
255 255 255 255 255 255 255 255 255 255 255 255 255 255 255 255 255
255 255 255 255 255
255 255 255 255 255 255 255 255 255 255 255 255 255 255 255 255 255
255 255 255 255 255 255 255 255 255 255 255 255 255 255 255 255 255
255 255 255 255 255 255 255 255 255 255 255 255 255 255 255 255 255
255 255 255 255 255 255 255 255 255 255 255 255 255 255 255 255 255
255 255 255 255 255 255 255 255 255 255 255 255 255 255 255 255 255
255 255 255 255 255 255 255 255 255 255 255 255 255 255 255 255 255
255 255 255 255 255 255 255 255 255 255 255 255 255 255 255 255 255
255 255 255 255 255 255 255 255 255 255 255 255 255 255 255 255 255
255 255 255 255 255 255 255 255 255 255 255 255 255 255 255 255 255
255 255 255 255 255 255 255 255 255 255 255 255 255 255 255 255 255
255 255 255 255 255 255 255 255 255 255 255 255 255 255 255 255 255
255 255 255 255 255 255 255 255 255 255 255 255 255 255 255 255 255
255 255 255 255 255 255 255 255 255 255 255 255 255 255 255 255 255
255 255 255 255 255 255 255 255 255 255 255 255 255 255 255 255 255
255 255 255 255 255 255 255 255 255 255 255 255 255 255 255 255 255
255 255 255 255 255 255 255 255 255 255 255 255 255 255 255 255 255
255 255 255 255 255 255 255 255 255 255 255 255 255 255 255 255 255
255 255 255 255 255 255 255 255 255 255 255 255 255 255 255 255 255
255 255 255 255 255 255 255 255 255 255 255 255 255 255 255 255 255
255 255 255 255 255 255 255 255 255 255 255 255 255 255 255 255 255
255 255 255 255 255 255 255 255 255 255 255 255 255 255 255 255 255
255 255 255 255 255 255 255 255 255 255 255 255 255 255 255 255 255
255 255 255 255 255 255 255 255 255 255 255 255 255 255 255 255 255
255 255 255 255 255 255 255 255 255 255 255 255 255 255 255 255 255
255 255 255 255 255 255 255 255 255 255 255 255 255 255 255 255 255
255 255 255 255 255 255 255 255 255 255 255 255 255 255 255 255 255
255 255 255 255 255 255 255 255 255 255 255 255 255 255 255 255 255
255 255 255 255 255 255 255 255 255 255 255 255 255 255 255 255 255
255 255 255 255 255 255 255 255 255 255 255 255 255 255 255 255 255
255 255 255 255 255 255 255 255 255 255 255 255 255 255 255 255 255
255 255 255 255 255 255 255 255 255 255 255 255 255 255 255 255 255
255 255 255 255 255 255 255 255 255 255 255 255 255 255 255 255 255
255 255 255 255 255 255 255 255 255 255 255 255 255 255 255 255 255
255 255 255 255 255 255 255 255 255 255 255 255 255 255 255 255 255
255 255 255 255 255 255 255 255 255 255 255 255 255 255 255 255 255
255 255 255 255 255
255 255 255 255 255 255 255 255 255 255 255 255 255 255 255 255 255
255 255 255 255 255 255 255 255 255 255 255 255 255 255 255 255 255
255 255 255 255 255 255 255 255 255 255 255 255 255 255 255 255 255
255 255 255 255 255 255 255 255 255 255 255 255 255 255 255 255 255
255 255 255 255 255 255 255 255 255 255 255 255 255 255 255 255 255
255 255 255 255 255 255 255 255 255 255 255 255 255 255 255 255 255
255 255 255 255 255 255 255 255 255 255 255 255 255 255 255 255 255
255 255 255 255 255 255 255 255 255 255 255 255 255 255 255 255 255
255 255 255 255 255 255 255 255 255 255 255 255 255 255 255 255 255
255 255 255 255 255 255 255 255 255 255 255 255 255 255 255 255 255
255 255 255 255 255 255 255 255 255 255 255 255 255 255 255 255 255
255 255 255 255 255 255 255 255 255 255 255 255 255 255 255 255 255
255 255 255 255 255 255 255 255 255 255 255 255 255 255 255 255 255
255 255 255 255 255 255 255 255 255 255 255 255 255 255 255 255 255
255 255 255 255 255 255 255 255 255 255 255 255 255 255 255 255 255
255 255 255 255 255 255 255 255 255 255 255 255 255 255 255 255 255
255 255 255 255 255 255 255 255 255 255 255 255 255 255 255 255 255
255 255 255 255 255 255 255 255 255 255 255 255 255 255 255 255 255
255 255 255 255 255 255 255 255 255 255 255 255 255 255 255 255 255
255 255 255 255 255 255 255 255 255 255 255 255 255 255 255 255 255
255 255 255 255 255 255 255 255 255 255 255 255 255 255 255 255 255
255 255 255 255 255 255 255 255 255 255 255 255 255 255 255 255 255
255 255 255 255 255 255 255 255 255 255 255 255 255 255 255 255 255
255 255 255 255 255 255 255 255 255 255 255 255 255 255 255 255 255
255 255 255 255 255 255 255 255 255 255 255 255 255 255 255 255 255
255 255 255 255 255 255 255 255 255 255 255 255 255 255 255 255 255
255 255 255 255 255 255 255 255 255 255 255 255 255 255 255 255 255
255 255 255 255 255 255 255 255 255 255 255 255 255 255 255 255 255
255 255 255 255 255 255 255 255 255 255 255 255 255 255 255 255 255
255 255 255 255 255 255 255 255 255 255 255 255 255 255 255 255 255
255 255 255 255 255 255 255 255 255 255 255 255 255 255 255 255 255
255 255 255 255 255 255 255 255 255 255 255 255 255 255 255 255 255
255 255 255 255 255 255 255 255 255 255 255 255 255 255 255 255 255
255 255 255 255 255 255 255 255 255 255 255 255 255 255 255 255 255
255 255 255 255 255 255 255 255 255 255 255 255 255 255 255 255 255
255 255 255 255 255
255 255 255 255 255 255 255 255 255 255 255 255 255 255 255 255 255
255 255 255 255 255 255 255 255 255 255 255 255 255 255 255 255 255
255 255 255 255 255 255 255 255 255 255 255 255 255 255 255 255 255
255 255 255 255 255 255 255 255 255 255 255 255 255 255 255 255 255
255 255 255 255 255 255 255 255 255 255 255 255 255 255 255 255 255
255 255 255 255 255 255 255 255 255 255 255 255 255 255 255 255 255
255 255 255 255 255 255 255 255 255 255 255 255 255 255 255 255 255
255 255 255 255 255 255 255 255 255 255 255 255 255 255 255 255 255
255 255 255 255 255 255 255 255 255 255 255 255 255 255 255 255 255
255 255 255 255 255 255 255 255 255 255 255 255 255 255 255 255 255
255 255 255 255 255 255 255 255 255 255 255 255 255 255 255 255 255
255 255 255 255 255 255 255 255 255 255 255 255 255 255 255 255 255
255 255 255 255 255 255 255 255 255 255 255 255 255 255 255 255 255
255 255 255 255 255 255 255 255 255 255 255 255 255 255 255 255 255
255 255 255 255 255 255 255 255 255 255 255 255 255 255 255 255 255
255 255 255 255 255 255 255 255 255 255 255 255 255 255 255 255 255
255 255 255 255 255 255 255 255 255 255 255 255 255 255 255 255 255
255 255 255 255 255 255 255 255 255 255 255 255 255 255 255 255 255
255 255 255 255 255 255 255 255 255 255 255 255 255 255 255 255 255
255 255 255 255 255 255 255 255 255 255 255 255 255 255 255 255 255
255 255 255 255 255 255 255 255 255 255 255 255 255 255 255 255 255
255 255 255 255 255 255 255 255 255 255 255 255 255 255 255 255 255
255 255 255 255 255 255 255 255 255 255 255 255 255 255 255 255 255
255 255 255 255 255 255 255 255 255 255 255 255 255 255 255 255 255
255 255 255 255 255 255 255 255 255 255 255 255 255 255 255 255 255
255 255 255 255 255 255 255 255 255 255 255 255 255 255 255 255 255
255 255 255 255 255 255 255 255 255 255 255 255 255 255 255 255 255
255 255 255 255 255 255 255 255 255 255 255 255 255 255 255 255 255
255 255 255 255 255 255 255 255 255 255 255 255 255 255 255 255 255
255 255 255 255 255 255 255 255 255 255 255 255 255 255 255 255 255
255 255 255 255 255 255 255 255 255 255 255 255 255 255 255 255 255
255 255 255 255 255 255 255 255 255 255 255 255 255 255 255 255 255
255 255 255 255 255 255 255 255 255 255 255 255 255 255 255 255 255
255 255 255 255 255 255 255 255 255 255 255 255 255 255 255 255 255
255 255 255 255 255 255 255 255 255 255 255 255 255 255 255 255 255
255 255 255 255 255
255 255 255 255 255 255 255 255 255 255 255 255 255 255 255 255 255
255 255 255 255 255 255 255 255 255 255 255 255 255 255 255 255 255
255 255 255 255 255 255 255 255 255 255 255 255 255 255 255 255 255
255 255 255 255 255 255 255 255 255 255 255 255 255 255 255 255 255
255 255 255 255 255 255 255 255 255 255 255 255 255 255 255 255 255
255 255 255 255 255 255 255 255 255 255 255 255 255 255 255 255 255
255 255 255 255 255 255 255 255 255 255 255 255 255 255 255 255 255
255 255 255 255 255 255 255 255 255 255 255 255 255 255 255 255 255
255 255 255 255 255 255 255 255 255 255 255 255 255 255 255 255 255
255 255 255 255 255 255 255 255 255 255 255 255 255 255 255 255 255
255 255 255 255 255 255 255 255 255 255 255 255 255 255 255 255 255
255 255 255 255 255 255 255 255 255 255 255 255 255 255 255 255 255
255 255 255 255 255 255 255 255 255 255 255 255 255 255 255 255 255
255 255 255 255 255 255 255 255 255 255 255 255 255 255 255 255 255
255 255 255 255 255 255 255 255 255 255 255 255 255 255 255 255 255
255 255 255 255 255 255 255 255 255 255 255 255 255 255 255 255 255
255 255 255 255 255 255 255 255 255 255 255 255 255 255 255 255 255
255 255 255 255 255 255 255 255 255 255 255 255 255 255 255 255 255
255 255 255 255 255 255 255 255 255 255 255 255 255 255 255 255 255
255 255 255 255 255 255 255 255 255 255 255 255 255 255 255 255 255
255 255 255 255 255 255 255 255 255 255 255 255 255 255 255 255 255
255 255 255 255 255 255 255 255 255 255 255 255 255 255 255 255 255
255 255 255 255 255 255 255 255 255 255 255 255 255 255 255 255 255
255 255 255 255 255 255 255 255 255 255 255 255 255 255 255 255 255
255 255 255 255 255 255 255 255 255 255 255 255 255 255 255 255 255
255 255 255 255 255 255 255 255 255 255 255 255 255 255 255 255 255
255 255 255 255 255 255 255 255 255 255 255 255 255 255 255 255 255
255 255 255 255 255 255 255 255 255 255 255 255 255 255 255 255 255
255 255 255 255 255 255 255 255 255 255 255 255 255 255 255 255 255
255 255 255 255 255 255 255 255 255 255 255 255 255 255 255 255 255
255 255 255 255 255 255 255 255 255 255 255 255 255 255 255 255 255
255 255 255 255 255 255 255 255 255 255 255 255 255 255 255 255 255
255 255 255 255 255 255 255 255 255 255 255 255 255 255 255 255 255
255 255 255 255 255 255 255 255 255 255 255 255 255 255 255 255 255
255 255 255 255 255 255 255 255 255 255 255 255 255 255 255 255 255
255 255 255 255 255
255 255 255 255 255 255 255 255 255 255 255 255 255 255 255 255 255
255 255 255 255 255 255 255 255 255 255 255 255 255 255 255 255 255
255 255 255 255 255 255 255 255 255 255 255 255 255 255 255 255 255
255 255 255 255 255 255 255 255 255 255 255 255 255 255 255 255 255
255 255 255 255 255 255 255 255 255 255 255 255 255 255 255 255 255
255 255 255 255 255 255 255 255 255 255 255 255 255 255 255 255 255
255 255 255 255 255 255 255 255 255 255 255 255 255 255 255 255 255
255 255 255 255 255 255 255 255 255 255 255 255 255 255 255 255 255
255 255 255 255 255 255 255 255 255 255 255 255 255 255 255 255 255
255 255 255 255 255 255 255 255 255 255 255 255 255 255 255 255 255
255 255 255 255 255 255 255 255 255 255 255 255 255 255 255 255 255
255 255 255 255 255 255 255 255 255 255 255 255 255 255 255 255 255
255 255 255 255 255 255 255 255 255 255 255 255 255 255 255 255 255
255 255 255 255 255 255 255 255 255 255 255 255 255 255 255 255 255
255 255 255 255 255 255 255 255 255 255 255 255 255 255 255 255 255
255 255 255 255 255 255 255 255 255 255 255 255 255 255 255 255 255
255 255 255 255 255 255 255 255 255 255 255 255 255 255 255 255 255
255 255 255 255 255 255 255 255 255 255 255 255 255 255 255 255 255
255 255 255 255 255 255 255 255 255 255 255 255 255 255 255 255 255
255 255 255 255 255 255 255 255 255 255 255 255 255 255 255 255 255
255 255 255 255 255 255 255 255 255 255 255 255 255 255 255 255 255
255 255 255 255 255 255 255 255 255 255 255 255 255 255 255 255 255
255 255 255 255 255 255 255 255 255 255 255 255 255 255 255 255 255
255 255 255 255 255 255 255 255 255 255 255 255 255 255 255 255 255
255 255 255 255 255 255 255 255 255 255 255 255 255 255 255 255 255
255 255 255 255 255 255 255 255 255 255 255 255 255 255 255 255 255
255 255 255 255 255 255 255 255 255 255 255 255 255 255 255 255 255
255 255 255 255 255 255 255 255 255 255 255 255 255 255 255 255 255
255 255 255 255 255 255 255 255 255 255 255 255 255 255 255 255 255
255 255 255 255 255 255 255 255 255 255 255 255 255 255 255 255 255
255 255 255 255 255 255 255 255 255 255 255 255 255 255 255 255 255
255 255 255 255 255 255 255 255 255 255 255 255 255 255 255 255 255
255 255 255 255 255 255 255 255 255 255 255 255 255 255 255 255 255
255 255 255 255 255 255 255 255 255 255 255 255 255 255 255 255 255
255 255 255 255 255 255 255 255 255 255 255 255 255 255 255 255 255
255 255 255 255 255
255 255 255 255 255 255 255 255 255 255 255 255 255 255 255 255 255
255 255 255 255 255 255 255 255 255 255 255 255 255 255 255 255 255
255 255 255 255 255 255 255 255 255 255 255 255 255 255 255 255 255
255 255 255 255 255 255 255 255 255 255 255 255 255 255 255 255 255
255 255 255 255 255 255 255 255 255 255 255 255 255 255 255 255 255
255 255 255 255 255 255 255 255 255 255 255 255 255 255 255 255 255
255 255 255 255 255 255 255 255 255 255 255 255 255 255 255 255 255
255 255 255 255 255 255 255 255 255 255 255 255 255 255 255 255 255
255 255 255 255 255 255 255 255 255 255 255 255 255 255 255 255 255
255 255 255 255 255 255 255 255 255 255 255 255 255 255 255 255 255
255 255 255 255 255 255 255 255 255 255 255 255 255 255 255 255 255
255 255 255 255 255 255 255 255 255 255 255 255 255 255 255 255 255
255 255 255 255 255 255 255 255 255 255 255 255 255 255 255 255 255
255 255 255 255 255 255 255 255 255 255 255 255 255 255 255 255 255
255 255 255 255 255 255 255 255 255 255 255 255 255 255 255 255 255
255 255 255 255 255 255 255 255 255 255 255 255 255 255 255 255 255
255 255 255 255 255 255 255 255 255 255 255 255 255 255 255 255 255
255 255 255 255 255 255 255 255 255 255 255 255 255 255 255 255 255
255 255 255 255 255 255 255 255 255 255 255 255 255 255 255 255 255
255 255 255 255 255 255 255 255 255 255 255 255 255 255 255 255 255
255 255 255 255 255 255 255 255 255 255 255 255 255 255 255 255 255
255 255 255 255 255 255 255 255 255 255 255 255 255 255 255 255 255
255 255 255 255 255 255 255 255 255 255 255 255 255 255 255 255 255
255 255 255 255 255 255 255 255 255 255 255 255 255 255 255 255 255
255 255 255 255 255 255 255 255 255 255 255 255 255 255 255 255 255
255 255 255 255 255 255 255 255 255 255 255 255 255 255 255 255 255
255 255 255 255 255 255 255 255 255 255 255 255 255 255 255 255 255
255 255 255 255 255 255 255 255 255 255 255 255 255 255 255 255 255
255 255 255 255 255 255 255 255 255 255 255 255 255 255 255 255 255
255 255 255 255 255 255 255 255 255 255 255 255 255 255 255 255 255
255 255 255 255 255 255 255 255 255 255 255 255 255 255 255 255 255
255 255 255 255 255 255 255 255 255 255 255 255 255 255 255 255 255
255 255 255 255 255 255 255 255 255 255 255 255 255 255 255 255 255
255 255 255 255 255 255 255 255 255 255 255 255 255 255 255 255 255
255 255 255 255 255 255 255 255 255 255 255 255 255 255 255 255 255
255 255 255 255 255
255 255 255 255 255 255 255 255 255 255 255 255 255 255 255 255 255
255 255 255 255 255 255 255 255 255 255 255 255 255 255 255 255 255
255 255 255 255 255 255 255 255 255 255 255 255 255 255 255 255 255
255 255 255 255 255 255 255 255 255 255 255 255 255 255 255 255 255
255 255 255 255 255 255 255 255 255 255 255 255 255 255 255 255 255
255 255 255 255 255 255 255 255 255 255 255 255 255 255 255 255 255
255 255 255 255 255 255 255 255 255 255 255 255 255 255 255 255 255
255 255 255 255 255 255 255 255 255 255 255 255 255 255 255 255 255
255 255 255 255 255 255 255 255 255 255 255 255 255 255 255 255 255
255 255 255 255 255 255 255 255 255 255 255 255 255 255 255 255 255
255 255 255 255 255 255 255 255 255 255 255 255 255 255 255 255 255
255 255 255 255 255 255 255 255 255 255 255 255 255 255 255 255 255
255 255 255 255 255 255 255 255 255 255 255 255 255 255 255 255 255
255 255 255 255 255 255 255 255 255 255 255 255 255 255 255 255 255
255 255 255 255 255 255 255 255 255 255 255 255 255 255 255 255 255
255 255 255 255 255 255 255 255 255 255 255 255 255 255 255 255 255
255 255 255 255 255 255 255 255 255 255 255 255 255 255 255 255 255
255 255 255 255 255 255 255 255 255 255 255 255 255 255 255 255 255
255 255 255 255 255 255 255 255 255 255 255 255 255 255 255 255 255
255 255 255 255 255 255 255 255 255 255 255 255 255 255 255 255 255
255 255 255 255 255 255 255 255 255 255 255 255 255 255 255 255 255
255 255 255 255 255 255 255 255 255 255 255 255 255 255 255 255 255
255 255 255 255 255 255 255 255 255 255 255 255 255 255 255 255 255
255 255 255 255 255 255 255 255 255 255 255 255 255 255 255 255 255
255 255 255 255 255 255 255 255 255 255 255 255 255 255 255 255 255
255 255 255 255 255 255 255 255 255 255 255 255 255 255 255 255 255
255 255 255 255 255 255 255 255 255 255 255 255 255 255 255 255 255
255 255 255 255 255 255 255 255 255 255 255 255 255 255 255 255 255
255 255 255 255 255 255 255 255 255 255 255 255 255 255 255 255 255
255 255 255 255 255 255 255 255 255 255 255 255 255 255 255 255 255
255 255 255 255 255 255 255 255 255 255 255 255 255 255 255 255 255
255 255 255 255 255 255 255 255 255 255 255 255 255 255 255 255 255
255 255 255 255 255 255 255 255 255 255 255 255 255 255 255 255 255
255 255 255 255 255 255 255 255 255 255 255 255 255 255 255 255 255
255 255 255 255 255 255 255 255 255 255 255 255 255 255 255 255 255
255 255 255 255 255
255 255 255 255 255 255 255 255 255 255 255 255 255 255 255 255 255
255 255 255 255 255 255 255 255 255 255 255 255 255 255 255 255 255
255 255 255 255 255 255 255 255 255 255 255 255 255 255 255 255 255
255 255 255 255 255 255 255 255 255 255 255 255 255 255 255 255 255
255 255 255 255 255 255 255 255 255 255 255 255 255 255 255 255 255
255 255 255 255 255 255 255 255 255 255 255 255 255 255 255 255 255
255 255 255 255 255 255 255 255 255 255 255 255 255 255 255 255 255
255 255 255 255 255 255 255 255 255 255 255 255 255 255 255 255 255
255 255 255 255 255 255 255 255 255 255 255 255 255 255 255 255 255
255 255 255 255 255 255 255 255 255 255 255 255 255 255 255 255 255
255 255 255 255 255 255 255 255 255 255 255 255 255 255 255 255 255
255 255 255 255 255 255 255 255 255 255 255 255 255 255 255 255 255
255 255 255 255 255 255 255 255 255 255 255 255 255 255 255 255 255
255 255 255 255 255 255 255 255 255 255 255 255 255 255 255 255 255
255 255 255 255 255 255 255 255 255 255 255 255 255 255 255 255 255
255 255 255 255 255 255 255 255 255 255 255 255 255 255 255 255 255
255 255 255 255 255 255 255 255 255 255 255 255 255 255 255 255 255
255 255 255 255 255 255 255 255 255 255 255 255 255 255 255 255 255
255 255 255 255 255 255 255 255 255 255 255 255 255 255 255 255 255
255 255 255 255 255 255 255 255 255 255 255 255 255 255 255 255 255
255 255 255 255 255 255 255 255 255 255 255 255 255 255 255 255 255
255 255 255 255 255 255 255 255 255 255 255 255 255 255 255 255 255
255 255 255 255 255 255 255 255 255 255 255 255 255 255 255 255 255
255 255 255 255 255 255 255 255 255 255 255 255 255 255 255 255 255
255 255 255 255 255 255 255 255 255 255 255 255 255 255 255 255 255
255 255 255 255 255 255 255 255 255 255 255 255 255 255 255 255 255
255 255 255 255 255 255 255 255 255 255 255 255 255 255 255 255 255
255 255 255 255 255 255 255 255 255 255 255 255 255 255 255 255 255
255 255 255 255 255 255 255 255 255 255 255 255 255 255 255 255 255
255 255 255 255 255 255 255 255 255 255 255 255 255 255 255 255 255
255 255 255 255 255 255 255 255 255 255 255 255 255 255 255 255 255
255 255 255 255 255 255 255 255 255 255 255 255 255 255 255 255 255
255 255 255 255 255 255 255 255 255 255 255 255 255 255 255 255 255
255 255 255 255 255 255 255 255 255 255 255 255 255 255 255 255 255
255 255 255 255 255 255 255 255 255 255 255 255 255 255 255 255 255
255 255 255 255 255
255 255 255 255 255 255 255 255 255 255 255 255 255 255 255 255 255
255 255 255 255 255 255 255 255 255 255 255 255 255 255 255 255 255
255 255 255 255 255 255 255 255 255 255 255 255 255 255 255 255 255
255 255 255 255 255 255 255 255 255 255 255 255 255 255 255 255 255
255 255 255 255 255 255 255 255 255 255 255 255 255 255 255 255 255
255 255 255 255 255 255 255 255 255 255 255 255 255 255 255 255 255
255 255 255 255 255 255 255 255 255 255 255 255 255 255 255 255 255
255 255 255 255 255 255 255 255 255 255 255 255 255 255 255 255 255
255 255 255 255 255 255 255 255 255 255 255 255 255 255 255 255 255
255 255 255 255 255 255 255 255 255 255 255 255 255 255 255 255 255
255 255 255 255 255 255 255 255 255 255 255 255 255 255 255 255 255
255 255 255 255 255 255 255 255 255 255 255 255 255 255 255 255 255
255 255 255 255 255 255 255 255 255 255 255 255 255 255 255 255 255
255 255 255 255 255 255 255 255 255 255 255 255 255 255 255 255 255
255 255 255 255 255 255 255 255 255 255 255 255 255 255 255 255 255
255 255 255 255 255 255 255 255 255 255 255 255 255 255 255 255 255
255 255 255 255 255 255 255 255 255 255 255 255 255 255 255 255 255
255 255 255 255 255 255 255 255 255 255 255 255 255 255 255 255 255
255 255 255 255 255 255 255 255 255 255 255 255 255 255 255 255 255
255 255 255 255 255 255 255 255 255 255 255 255 255 255 255 255 255
255 255 255 255 255 255 255 255 255 255 255 255 255 255 255 255 255
255 255 255 255 255 255 255 255 255 255 255 255 255 255 255 255 255
255 255 255 255 255 255 255 255 255 255 255 255 255 255 255 255 255
255 255 255 255 255 255 255 255 255 255 255 255 255 255 255 255 255
255 255 255 255 255 255 255 255 255 255 255 255 255 255 255 255 255
255 255 255 255 255 255 255 255 255 255 255 255 255 255 255 255 255
255 255 255 255 255 255 255 255 255 255 255 255 255 255 255 255 255
255 255 255 255 255 255 255 255 255 255 255 255 255 255 255 255 255
255 255 255 255 255 255 255 255 255 255 255 255 255 255 255 255 255
255 255 255 255 255 255 255 255 255 255 255 255 255 255 255 255 255
255 255 255 255 255 255 255 255 255 255 255 255 255 255 255 255 255
255 255 255 255 255 255 255 255 255 255 255 255 255 255 255 255 255
255 255 255 255 255 255 255 255 255 255 255 255 255 255 255 255 255
255 255 255 255 255 255 255 255 255 255 255 255 255 255 255 255 255
255 255 255 255 255 255 255 255 255 255 255 255 255 255 255 255 255
255 255 255 255 255
255 255 255 255 255 255 255 255 255 255 255 255 255 255 255 255 255
255 255 255 255 255 255 255 255 255 255 255 255 255 255 255 255 255
255 255 255 255 255 255 255 255 255 255 255 255 255 255 255 255 255
255 255 255 255 255 255 255 255 255 255 255 255 255 255 255 255 255
255 255 255 255 255 255 255 255 255 255 255 255 255 255 255 255 255
255 255 255 255 255 255 255 255 255 255 255 255 255 255 255 255 255
255 255 255 255 255 255 255 255 255 255 255 255 255 255 255 255 255
255 255 255 255 255 255 255 255 255 255 255 255 255 255 255 255 255
255 255 255 255 255 255 255 255 255 255 255 255 255 255 255 255 255
255 255 255 255 255 255 255 255 255 255 255 255 255 255 255 255 255
255 255 255 255 255 255 255 255 255 255 255 255 255 255 255 255 255
255 255 255 255 255 255 255 255 255 255 255 255 255 255 255 255 255
255 255 255 255 255 255 255 255 255 255 255 255 255 255 255 255 255
255 255 255 255 255 255 255 255 255 255 255 255 255 255 255 255 255
255 255 255 255 255 255 255 255 255 255 255 255 255 255 255 255 255
255 255 255 255 255 255 255 255 255 255 255 255 255 255 255 255 255
255 255 255 255 255 255 255 255 255 255 255 255 255 255 255 255 255
255 255 255 255 255 255 255 255 255 255 255 255 255 255 255 255 255
255 255 255 255 255 255 255 255 255 255 255 255 255 255 255 255 255
255 255 255 255 255 255 255 255 255 255 255 255 255 255 255 255 255
255 255 255 255 255 255 255 255 255 255 255 255 255 255 255 255 255
255 255 255 255 255 255 255 255 255 255 255 255 255 255 255 255 255
255 255 255 255 255 255 255 255 255 255 255 255 255 255 255 255 255
255 255 255 255 255 255 255 255 255 255 255 255 255 255 255 255 255
255 255 255 255 255 255 255 255 255 255 255 255 255 255 255 255 255
255 255 255 255 255 255 255 255 255 255 255 255 255 255 255 255 255
255 255 255 255 255 255 255 255 255 255 255 255 255 255 255 255 255
255 255 255 255 255 255 255 255 255 255 255 255 255 255 255 255 255
255 255 255 255 255 255 255 255 255 255 255 255 255 255 255 255 255
255 255 255 255 255 255 255 255 255 255 255 255 255 255 255 255 255
255 255 255 255 255 255 255 255 255 255 255 255 255 255 255 255 255
255 255 255 255 255 255 255 255 255 255 255 255 255 255 255 255 255
255 255 255 255 255 255 255 255 255 255 255 255 255 255 255 255 255
255 255 255 255 255 255 255 255 255 255 255 255 255 255 255 255 255
255 255 255 255 255 255 255 255 255 255 255 255 255 255 255 255 255
255 255 255 255 255
255 255 255 255 255 255 255 255 255 255 255 255 255 255 255 255 255
255 255 255 255 255 255 255 255 255 255 255 255 255 255 255 255 255
255 255 255 255 255 255 255 255 255 255 255 255 255 255 255 255 255
255 255 255 255 255 255 255 255 255 255 255 255 255 255 255 255 255
255 255 255 255 255 255 255 255 255 255 255 255 255 255 255 255 255
255 255 255 255 255 255 255 255 255 255 255 255 255 255 255 255 255
255 255 255 255 255 255 255 255 255 255 255 255 255 255 255 255 255
255 255 255 255 255 255 255 255 255 255 255 255 255 255 255 255 255
255 255 255 255 255 255 255 255 255 255 255 255 255 255 255 255 255
255 255 255 255 255 255 255 255 255 255 255 255 255 255 255 255 255
255 255 255 255 255 255 255 255 255 255 255 255 255 255 255 255 255
255 255 255 255 255 255 255 255 255 255 255 255 255 255 255 255 255
255 255 255 255 255 255 255 255 255 255 255 255 255 255 255 255 255
255 255 255 255 255 255 255 255 255 255 255 255 255 255 255 255 255
255 255 255 255 255 255 255 255 255 255 255 255 255 255 255 255 255
255 255 255 255 255 255 255 255 255 255 255 255 255 255 255 255 255
255 255 255 255 255 255 255 255 255 255 255 255 255 255 255 255 255
255 255 255 255 255 255 255 255 255 255 255 255 255 255 255 255 255
255 255 255 255 255 255 255 255 255 255 255 255 255 255 255 255 255
255 255 255 255 255 255 255 255 255 255 255 255 255 255 255 255 255
255 255 255 255 255 255 255 255 255 255 255 255 255 255 255 255 255
255 255 255 255 255 255 255 255 255 255 255 255 255 255 255 255 255
255 255 255 255 255 255 255 255 255 255 255 255 255 255 255 255 255
255 255 255 255 255 255 255 255 255 255 255 255 255 255 255 255 255
255 255 255 255 255 255 255 255 255 255 255 255 255 255 255 255 255
255 255 255 255 255 255 255 255 255 255 255 255 255 255 255 255 255
255 255 255 255 255 255 255 255 255 255 255 255 255 255 255 255 255
255 255 255 255 255 255 255 255 255 255 255 255 255 255 255 255 255
255 255 255 255 255 255 255 255 255 255 255 255 255 255 255 255 255
255 255 255 255 255 255 255 255 255 255 255 255 255 255 255 255 255
255 255 255 255 255 255 255 255 255 255 255 255 255 255 255 255 255
255 255 255 255 255 255 255 255 255 255 255 255 255 255 255 255 255
255 255 255 255 255 255 255 255 255 255 255 255 255 255 255 255 255
255 255 255 255 255 255 255 255 255 255 255 255 255 255 255 255 255
255 255 255 255 255 255 255 255 255 255 255 255 255 255 255 255 255
255 255 255 255 255
255 255 255 255 255 255 255 255 255 255 255 255 255 255 255 255 255
255 255 255 255 255 255 255 255 255 255 255 255 255 255 255 255 255
255 255 255 255 255 255 255 255 255 255 255 255 255 255 255 255 255
255 255 255 255 255 255 255 255 255 255 255 255 255 255 255 255 255
255 255 255 255 255 255 255 255 255 255 255 255 255 255 255 255 255
255 255 255 255 255 255 255 255 255 255 255 255 255 255 255 255 255
255 255 255 255 255 255 255 255 255 255 255 255 255 255 255 255 255
255 255 255 255 255 255 255 255 255 255 255 255 255 255 255 255 255
255 255 255 255 255 255 255 255 255 255 255 255 255 255 255 255 255
255 255 255 255 255 255 255 255 255 255 255 255 255 255 255 255 255
255 255 255 255 255 255 255 255 255 255 255 255 255 255 255 255 255
255 255 255 255 255 255 255 255 255 255 255 255 255 255 255 255 255
255 255 255 255 255 255 255 255 255 255 255 255 255 255 255 255 255
255 255 255 255 255 255 255 255 255 255 255 255 255 255 255 255 255
255 255 255 255 255 255 255 255 255 255 255 255 255 255 255 255 255
255 255 255 255 255 255 255 255 255 255 255 255 255 255 255 255 255
255 255 255 255 255 255 255 255 255 255 255 255 255 255 255 255 255
255 255 255 255 255 255 255 255 255 255 255 255 255 255 255 255 255
255 255 255 255 255 255 255 255 255 255 255 255 255 255 255 255 255
255 255 255 255 255 255 255 255 255 255 255 255 255 255 255 255 255
255 255 255 255 255 255 255 255 255 255 255 255 255 255 255 255 255
255 255 255 255 255 255 255 255 255 255 255 255 255 255 255 255 255
255 255 255 255 255 255 255 255 255 255 255 255 255 255 255 255 255
255 255 255 255 255 255 255 255 255 255 255 255 255 255 255 255 255
255 255 255 255 255 255 255 255 255 255 255 255 255 255 255 255 255
255 255 255 255 255 255 255 255 255 255 255 255 255 255 255 255 255
255 255 255 255 255 255 255 255 255 255 255 255 255 255 255 255 255
255 255 255 255 255 255 255 255 255 255 255 255 255 255 255 255 255
255 255 255 255 255 255 255 255 255 255 255 255 255 255 255 255 255
255 255 255 255 255 255 255 255 255 255 255 255 255 255 255 255 255
255 255 255 255 255 255 255 255 255 255 255 255 255 255 255 255 255
255 255 255 255 255 255 255 255 255 255 255 255 255 255 255 255 255
255 255 255 255 255 255 255 255 255 255 255 255 255 255 255 255 255
255 255 255 255 255 255 255 255 255 255 255 255 255 255 255 255 255
255 255 255 255 255 255 255 255 255 255 255 255 255 255 255 255 255
255 255 255 255 255
255 255 255 255 255 255 255 255 255 255 255 255 255 255 255 255 255
255 255 255 255 255 255 255 255 255 255 255 255 255 255 255 255 255
255 255 255 255 255 255 255 255 255 255 255 255 255 255 255 255 255
255 255 255 255 255 255 255 255 255 255 255 255 255 255 255 255 255
255 255 255 255 255 255 255 255 255 255 255 255 255 255 255 255 255
255 255 255 255 255 255 255 255 255 255 255 255 255 255 255 255 255
255 255 255 255 255 255 255 255 255 255 255 255 255 255 255 255 255
255 255 255 255 255 255 255 255 255 255 255 255 255 255 255 255 255
255 255 255 255 255 255 255 255 255 255 255 255 255 255 255 255 255
255 255 255 255 255 255 255 255 255 255 255 255 255 255 255 255 255
255 255 255 255 255 255 255 255 255 255 255 255 255 255 255 255 255
255 255 255 255 255 255 255 255 255 255 255 255 255 255 255 255 255
255 255 255 255 255 255 255 255 255 255 255 255 255 255 255 255 255
255 255 255 255 255 255 255 255 255 255 255 255 255 255 255 255 255
255 255 255 255 255 255 255 255 255 255 255 255 255 255 255 255 255
255 255 255 255 255 255 255 255 255 255 255 255 255 255 255 255 255
255 255 255 255 255 255 255 255 255 255 255 255 255 255 255 255 255
255 255 255 255 255 255 255 255 255 255 255 255 255 255 255 255 255
255 255 255 255 255 255 255 255 255 255 255 255 255 255 255 255 255
255 255 255 255 255 255 255 255 255 255 255 255 255 255 255 255 255
255 255 255 255 255 255 255 255 255 255 255 255 255 255 255 255 255
255 255 255 255 255 255 255 255 255 255 255 255 255 255 255 255 255
255 255 255 255 255 255 255 255 255 255 255 255 255 255 255 255 255
255 255 255 255 255 255 255 255 255 255 255 255 255 255 255 255 255
255 255 255 255 255 255 255 255 255 255 255 255 255 255 255 255 255
255 255 255 255 255 255 255 255 255 255 255 255 255 255 255 255 255
255 255 255 255 255 255 255 255 255 255 255 255 255 255 255 255 255
255 255 255 255 255 255 255 255 255 255 255 255 255 255 255 255 255
255 255 255 255 255 255 255 255 255 255 255 255 255 255 255 255 255
255 255 255 255 255 255 255 255 255 255 255 255 255 255 255 255 255
255 255 255 255 255 255 255 255 255 255 255 255 255 255 255 255 255
255 255 255 255 255 255 255 255 255 255 255 255 255 255 255 255 255
255 255 255 255 255 255 255 255 255 255 255 255 255 255 255 255 255
255 255 255 255 255 255 255 255 255 255 255 255 255 255 255 255 255
255 255 255 255 255 255 255 255 255 255 255 255 255 255 255 255 255
255 255 255 255 255
255 255 255 255 255 255 255 255 255 255 255 255 255 255 255 255 255
255 255 255 255 255 255 255 255 255 255 255 255 255 255 255 255 255
255 255 255 255 255 255 255 255 255 255 255 255 255 255 255 255 255
255 255 255 255 255 255 255 255 255 255 255 255 255 255 255 255 255
255 255 255 255 255 255 255 255 255 255 255 255 255 255 255 255 255
255 255 255 255 255 255 255 255 255 255 255 255 255 255 255 255 255
255 255 255 255 255 255 255 255 255 255 255 255 255 255 255 255 255
255 255 255 255 255 255 255 255 255 255 255 255 255 255 255 255 255
255 255 255 255 255 255 255 255 255 255 255 255 255 255 255 255 255
255 255 255 255 255 255 255 255 255 255 255 255 255 255 255 255 255
255 255 255 255 255 255 255 255 255 255 255 255 255 255 255 255 255
255 255 255 255 255 255 255 255 255 255 255 255 255 255 255 255 255
255 255 255 255 255 255 255 255 255 255 255 255 255 255 255 255 255
255 255 255 255 255 255 255 255 255 255 255 255 255 255 255 255 255
255 255 255 255 255 255 255 255 255 255 255 255 255 255 255 255 255
255 255 255 255 255 255 255 255 255 255 255 255 255 255 255 255 255
255 255 255 255 255 255 255 255 255 255 255 255 255 255 255 255 255
255 255 255 255 255 255 255 255 255 255 255 255 255 255 255 255 255
255 255 255 255 255 255 255 255 255 255 255 255 255 255 255 255 255
255 255 255 255 255 255 255 255 255 255 255 255 255 255 255 255 255
255 255 255 255 255 255 255 255 255 255 255 255 255 255 255 255 255
255 255 255 255 255 255 255 255 255 255 255 255 255 255 255 255 255
255 255 255 255 255 255 255 255 255 255 255 255 255 255 255 255 255
255 255 255 255 255 255 255 255 255 255 255 255 255 255 255 255 255
255 255 255 255 255 255 255 255 255 255 255 255 255 255 255 255 255
255 255 255 255 255 255 255 255 255 255 255 255 255 255 255 255 255
255 255 255 255 255 255 255 255 255 255 255 255 255 255 255 255 255
255 255 255 255 255 255 255 255 255 255 255 255 255 255 255 255 255
255 255 255 255 255 255 255 255 255 255 255 255 255 255 255 255 255
255 255 255 255 255 255 255 255 255 255 255 255 255 255 255 255 255
255 255 255 255 255 255 255 255 255 255 255 255 255 255 255 255 255
255 255 255 255 255 255 255 255 255 255 255 255 255 255 255 255 255
255 255 255 255 255 255 255 255 255 255 255 255 255 255 255 255 255
255 255 255 255 255 255 255 255 255 255 255 255 255 255 255 255 255
255 255 255 255 255 255 255 255 255 255 255 255 255 255 255 255 255
255 255 255 255 255
255 255 255 255 255 255 255 255 255 255 255 255 255 255 255 255 255
255 255 255 255 255 255 255 255 255 255 255 255 255 255 255 255 255
255 255 255 255 255 255 255 255 255 255 255 255 255 255 255 255 255
255 255 255 255 255 255 255 255 255 255 255 255 255 255 255 255 255
255 255 255 255 255 255 255 255 255 255 255 255 255 255 255 255 255
255 255 255 255 255 255 255 255 255 255 255 255 255 255 255 255 255
255 255 255 255 255 255 255 255 255 255 255 255 255 255 255 255 255
255 255 255 255 255 255 255 255 255 255 255 255 255 255 255 255 255
255 255 255 255 255 255 255 255 255 255 255 255 255 255 255 255 255
255 255 255 255 255 255 255 255 255 255 255 255 255 255 255 255 255
255 255 255 255 255 255 255 255 255 255 255 255 255 255 255 255 255
255 255 255 255 255 255 255 255 255 255 255 255 255 255 255 255 255
255 255 255 255 255 255 255 255 255 255 255 255 255 255 255 255 255
255 255 255 255 255 255 255 255 255 255 255 255 255 255 255 255 255
255 255 255 255 255 255 255 255 255 255 255 255 255 255 255 255 255
255 255 255 255 255 255 255 255 255 255 255 255 255 255 255 255 255
255 255 255 255 255 255 255 255 255 255 255 255 255 255 255 255 255
255 255 255 255 255 255 255 255 255 255 255 255 255 255 255 255 255
255 255 255 255 255 255 255 255 255 255 255 255 255 255 255 255 255
255 255 255 255 255 255 255 255 255 255 255 255 255 255 255 255 255
255 255 255 255 255 255 255 255 255 255 255 255 255 255 255 255 255
255 255 255 255 255 255 255 255 255 255 255 255 255 255 255 255 255
255 255 255 255 255 255 255 255 255 255 255 255 255 255 255 255 255
255 255 255 255 255 255 255 255 255 255 255 255 255 255 255 255 255
255 255 255 255 255 255 255 255 255 255 255 255 255 255 255 255 255
255 255 255 255 255 255 255 255 255 255 255 255 255 255 255 255 255
255 255 255 255 255 255 255 255 255 255 255 255 255 255 255 255 255
255 255 255 255 255 255 255 255 255 255 255 255 255 255 255 255 255
255 255 255 255 255 255 255 255 255 255 255 255 255 255 255 255 255
255 255 255 255 255 255 255 255 255 255 255 255 255 255 255 255 255
255 255 255 255 255 255 255 255 255 255 255 255 255 255 255 255 255
255 255 255 255 255 255 255 255 255 255 255 255 255 255 255 255 255
255 255 255 255 255 255 255 255 255 255 255 255 255 255 255 255 255
255 255 255 255 255 255 255 255 255 255 255 255 255 255 255 255 255
255 255 255 255 255 255 255 255 255 255 255 255 255 255 255 255 255
255 255 255 255 255
255 255 255 255 255 255 255 255 255 255 255 255 255 255 255 255 255
255 255 255 255 255 255 255 255 255 255 255 255 255 255 255 255 255
255 255 255 255 255 255 255 255 255 255 255 255 255 255 255 255 255
255 255 255 255 255 255 255 255 255 255 255 255 255 255 255 255 255
255 255 255 255 255 255 255 255 255 255 255 255 255 255 255 255 255
255 255 255 255 255 255 255 255 255 255 255 255 255 255 255 255 255
255 255 255 255 255 255 255 255 255 255 255 255 255 255 255 255 255
255 255 255 255 255 255 255 255 255 255 255 255 255 255 255 255 255
255 255 255 255 255 255 255 255 255 255 255 255 255 255 255 255 255
255 255 255 255 255 255 255 255 255 255 255 255 255 255 255 255 255
255 255 255 255 255 255 255 255 255 255 255 255 255 255 255 255 255
255 255 255 255 255 255 255 255 255 255 255 255 255 255 255 255 255
255 255 255 255 255 255 255 255 255 255 255 255 255 255 255 255 255
255 255 255 255 255 255 255 255 255 255 255 255 255 255 255 255 255
255 255 255 255 255 255 255 255 255 255 255 255 255 255 255 255 255
255 255 255 255 255 255 255 255 255 255 255 255 255 255 255 255 255
255 255 255 255 255 255 255 255 255 255 255 255 255 255 255 255 255
255 255 255 255 255 255 255 255 255 255 255 255 255 255 255 255 255
255 255 255 255 255 255 255 255 255 255 255 255 255 255 255 255 255
255 255 255 255 255 255 255 255 255 255 255 255 255 255 255 255 255
255 255 255 255 255 255 255 255 255 255 255 255 255 255 255 255 255
255 255 255 255 255 255 255 255 255 255 255 255 255 255 255 255 255
255 255 255 255 255 255 255 255 255 255 255 255 255 255 255 255 255
255 255 255 255 255 255 255 255 255 255 255 255 255 255 255 255 255
255 255 255 255 255 255 255 255 255 255 255 255 255 255 255 255 255
255 255 255 255 255 255 255 255 255 255 255 255 255 255 255 255 255
255 255 255 255 255 255 255 255 255 255 255 255 255 255 255 255 255
255 255 255 255 255 255 255 255 255 255 255 255 255 255 255 255 255
255 255 255 255 255 255 255 255 255 255 255 255 255 255 255 255 255
255 255 255 255 255 255 255 255 255 255 255 255 255 255 255 255 255
255 255 255 255 255 255 255 255 255 255 255 255 255 255 255 255 255
255 255 255 255 255 255 255 255 255 255 255 255 255 255 255 255 255
255 255 255 255 255 255 255 255 255 255 255 255 255 255 255 255 255
255 255 255 255 255 255 255 255 255 255 255 255 255 255 255 255 255
255 255 255 255 255 255 255 255 255 255 255 255 255 255 255 255 255
255 255 255 255 255
255 255 255 255 255 255 255 255 255 255 255 255 255 255 255 255 255
255 255 255 255 255 255 255 255 255 255 255 255 255 255 255 255 255
255 255 255 255 255 255 255 255 255 255 255 255 255 255 255 255 255
255 255 255 255 255 255 255 255 255 255 255 255 255 255 255 255 255
255 255 255 255 255 255 255 255 255 255 255 255 255 255 255 255 255
255 255 255 255 255 255 255 255 255 255 255 255 255 255 255 255 255
255 255 255 255 255 255 255 255 255 255 255 255 255 255 255 255 255
255 255 255 255 255 255 255 255 255 255 255 255 255 255 255 255 255
255 255 255 255 255 255 255 255 255 255 255 255 255 255 255 255 255
255 255 255 255 255 255 255 255 255 255 255 255 255 255 255 255 255
255 255 255 255 255 255 255 255 255 255 255 255 255 255 255 255 255
255 255 255 255 255 255 255 255 255 255 255 255 255 255 255 255 255
255 255 255 255 255 255 255 255 255 255 255 255 255 255 255 255 255
255 255 255 255 255 255 255 255 255 255 255 255 255 255 255 255 255
255 255 255 255 255 255 255 255 255 255 255 255 255 255 255 255 255
255 255 255 255 255 255 255 255 255 255 255 255 255 255 255 255 255
255 255 255 255 255 255 255 255 255 255 255 255 255 255 255 255 255
255 255 255 255 255 255 255 255 255 255 255 255 255 255 255 255 255
255 255 255 255 255 255 255 255 255 255 255 255 255 255 255 255 255
255 255 255 255 255 255 255 255 255 255 255 255 255 255 255 255 255
255 255 255 255 255 255 255 255 255 255 255 255 255 255 255 255 255
255 255 255 255 255 255 255 255 255 255 255 255 255 255 255 255 255
255 255 255 255 255 255 255 255 255 255 255 255 255 255 255 255 255
255 255 255 255 255 255 255 255 255 255 255 255 255 255 255 255 255
255 255 255 255 255 255 255 255 255 255 255 255 255 255 255 255 255
255 255 255 255 255 255 255 255 255 255 255 255 255 255 255 255 255
255 255 255 255 255 255 255 255 255 255 255 255 255 255 255 255 255
255 255 255 255 255 255 255 255 255 255 255 255 255 255 255 255 255
255 255 255 255 255 255 255 255 255 255 255 255 255 255 255 255 255
255 255 255 255 255 255 255 255 255 255 255 255 255 255 255 255 255
255 255 255 255 255 255 255 255 255 255 255 255 255 255 255 255 255
255 255 255 255 255 255 255 255 255 255 255 255 255 255 255 255 255
255 255 255 255 255 255 255 255 255 255 255 255 255 255 255 255 255
255 255 255 255 255 255 255 255 255 255 255 255 255 255 255 255 255
255 255 255 255 255 255 255 255 255 255 255 255 255 255 255 255 255
255 255 255 255 255
255 255 255 255 255 255 255 255 255 255 255 255 255 255 255 255 255
255 255 255 255 255 255 255 255 255 255 255 255 255 255 255 255 255
255 255 255 255 255 255 255 255 255 255 255 255 255 255 255 255 255
255 255 255 255 255 255 255 255 255 255 255 255 255 255 255 255 255
255 255 255 255 255 255 255 255 255 255 255 255 255 255 255 255 255
255 255 255 255 255 255 255 255 255 255 255 255 255 255 255 255 255
255 255 255 255 255 255 255 255 255 255 255 255 255 255 255 255 255
255 255 255 255 255 255 255 255 255 255 255 255 255 255 255 255 255
255 255 255 255 255 255 255 255 255 255 255 255 255 255 255 255 255
255 255 255 255 255 255 255 255 255 255 255 255 255 255 255 255 255
255 255 255 255 255 255 255 255 255 255 255 255 255 255 255 255 255
255 255 255 255 255 255 255 255 255 255 255 255 255 255 255 255 255
255 255 255 255 255 255 255 255 255 255 255 255 255 255 255 255 255
255 255 255 255 255 255 255 255 255 255 255 255 255 255 255 255 255
255 255 255 255 255 255 255 255 255 255 255 255 255 255 255 255 255
255 255 255 255 255 255 255 255 255 255 255 255 255 255 255 255 255
255 255 255 255 255 255 255 255 255 255 255 255 255 255 255 255 255
255 255 255 255 255 255 255 255 255 255 255 255 255 255 255 255 255
255 255 255 255 255 255 255 255 255 255 255 255 255 255 255 255 255
255 255 255 255 255 255 255 255 255 255 255 255 255 255 255 255 255
255 255 255 255 255 255 255 255 255 255 255 255 255 255 255 255 255
255 255 255 255 255 255 255 255 255 255 255 255 255 255 255 255 255
255 255 255 255 255 255 255 255 255 255 255 255 255 255 255 255 255
255 255 255 255 255 255 255 255 255 255 255 255 255 255 255 255 255
255 255 255 255 255 255 255 255 255 255 255 255 255 255 255 255 255
255 255 255 255 255 255 255 255 255 255 255 255 255 255 255 255 255
255 255 255 255 255 255 255 255 255 255 255 255 255 255 255 255 255
255 255 255 255 255 255 255 255 255 255 255 255 255 255 255 255 255
255 255 255 255 255 255 255 255 255 255 255 255 255 255 255 255 255
255 255 255 255 255 255 255 255 255 255 255 255 255 255 255 255 255
255 255 255 255 255 255 255 255 255 255 255 255 255 255 255 255 255
255 255 255 255 255 255 255 255 255 255 255 255 255 255 255 255 255
255 255 255 255 255 255 255 255 255 255 255 255 255 255 255 255 255
255 255 255 255 255 255 255 255 255 255 255 255 255 255 255 255 255
255 255 255 255 255 255 255 255 255 255 255 255 255 255 255 255 255
255 255 255 255 255
255 255 255 255 255 255 255 255 255 255 255 255 255 255 255 255 255
255 255 255 255 255 255 255 255 255 255 255 255 255 255 255 255 255
255 255 255 255 255 255 255 255 255 255 255 255 255 255 255 255 255
255 255 255 255 255 255 255 255 255 255 255 255 255 255 255 255 255
255 255 255 255 255 255 255 255 255 255 255 255 255 255 255 255 255
255 255 255 255 255 255 255 255 255 255 255 255 255 255 255 255 255
255 255 255 255 255 255 255 255 255 255 255 255 255 255 255 255 255
255 255 255 255 255 255 255 255 255 255 255 255 255 255 255 255 255
255 255 255 255 255 255 255 255 255 255 255 255 255 255 255 255 255
255 255 255 255 255 255 255 255 255 255 255 255 255 255 255 255 255
255 255 255 255 255 255 255 255 255 255 255 255 255 255 255 255 255
255 255 255 255 255 255 255 255 255 255 255 255 255 255 255 255 255
255 255 255 255 255 255 255 255 255 255 255 255 255 255 255 255 255
255 255 255 255 255 255 255 255 255 255 255 255 255 255 255 255 255
255 255 255 255 255 255 255 255 255 255 255 255 255 255 255 255 255
255 255 255 255 255 255 255 255 255 255 255 255 255 255 255 255 255
255 255 255 255 255 255 255 255 255 255 255 255 255 255 255 255 255
255 255 255 255 255 255 255 255 255 255 255 255 255 255 255 255 255
255 255 255 255 255 255 255 255 255 255 255 255 255 255 255 255 255
255 255 255 255 255 255 255 255 255 255 255 255 255 255 255 255 255
255 255 255 255 255 255 255 255 255 255 255 255 255 255 255 255 255
255 255 255 255 255 255 255 255 255 255 255 255 255 255 255 255 255
255 255 255 255 255 255 255 255 255 255 255 255 255 255 255 255 255
255 255 255 255 255 255 255 255 255 255 255 255 255 255 255 255 255
255 255 255 255 255 255 255 255 255 255 255 255 255 255 255 255 255
255 255 255 255 255 255 255 255 255 255 255 255 255 255 255 255 255
255 255 255 255 255 255 255 255 255 255 255 255 255 255 255 255 255
255 255 255 255 255 255 255 255 255 255 255 255 255 255 255 255 255
255 255 255 255 255 255 255 255 255 255 255 255 255 255 255 255 255
255 255 255 255 255 255 255 255 255 255 255 255 255 255 255 255 255
255 255 255 255 255 255 255 255 255 255 255 255 255 255 255 255 255
255 255 255 255 255 255 255 255 255 255 255 255 255 255 255 255 255
255 255 255 255 255 255 255 255 255 255 255 255 255 255 255 255 255
255 255 255 255 255 255 255 255 255 255 255 255 255 255 255 255 255
255 255 255 255 255 255 255 255 255 255 255 255 255 255 255 255 255
255 255 255 255 255
255 255 255 255 255 255 255 255 255 255 255 255 255 255 255 255 255
255 255 255 255 255 255 255 255 255 255 255 255 255 255 255 255 255
255 255 255 255 255 255 255 255 255 255 255 255 255 255 255 255 255
255 255 255 255 255 255 255 255 255 255 255 255 255 255 255 255 255
255 255 255 255 255 255 255 255 255 255 255 255 255 255 255 255 255
255 255 255 255 255 255 255 255 255 255 255 255 255 255 255 255 255
255 255 255 255 255 255 255 255 255 255 255 255 255 255 255 255 255
255 255 255 255 255 255 255 255 255 255 255 255 255 255 255 255 255
255 255 255 255 255 255 255 255 255 255 255 255 255 255 255 255 255
255 255 255 255 255 255 255 255 255 255 255 255 255 255 255 255 255
255 255 255 255 255 255 255 255 255 255 255 255 255 255 255 255 255
255 255 255 255 255 255 255 255 255 255 255 255 255 255 255 255 255
255 255 255 255 255 255 255 255 255 255 255 255 255 255 255 255 255
255 255 255 255 255 255 255 255 255 255 255 255 255 255 255 255 255
255 255 255 255 255 255 255 255 255 255 255 255 255 255 255 255 255
255 255 255 255 255 255 255 255 255 255 255 255 255 255 255 255 255
255 255 255 255 255 255 255 255 255 255 255 255 255 255 255 255 255
255 255 255 255 255 255 255 255 255 255 255 255 255 255 255 255 255
255 255 255 255 255 255 255 255 255 255 255 255 255 255 255 255 255
255 255 255 255 255 255 255 255 255 255 255 255 255 255 255 255 255
255 255 255 255 255 255 255 255 255 255 255 255 255 255 255 255 255
255 255 255 255 255 255 255 255 255 255 255 255 255 255 255 255 255
255 255 255 255 255 255 255 255 255 255 255 255 255 255 255 255 255
255 255 255 255 255 255 255 255 255 255 255 255 255 255 255 255 255
255 255 255 255 255 255 255 255 255 255 255 255 255 255 255 255 255
255 255 255 255 255 255 255 255 255 255 255 255 255 255 255 255 255
255 255 255 255 255 255 255 255 255 255 255 255 255 255 255 255 255
255 255 255 255 255 255 255 255 255 255 255 255 255 255 255 255 255
255 255 255 255 255 255 255 255 255 255 255 255 255 255 255 255 255
255 255 255 255 255 255 255 255 255 255 255 255 255 255 255 255 255
255 255 255 255 255 255 255 255 255 255 255 255 255 255 255 255 255
255 255 255 255 255 255 255 255 255 255 255 255 255 255 255 255 255
255 255 255 255 255 255 255 255 255 255 255 255 255 255 255 255 255
255 255 255 255 255 255 255 255 255 255 255 255 255 255 255 255 255
255 255 255 255 255 255 255 255 255 255 255 255 255 255 255 255 255
255 255 255 255 255
255 255 255 255 255 255 255 255 255 255 255 255 255 255 255 255 255
255 255 255 255 255 255 255 255 255 255 255 255 255 255 255 255 255
255 255 255 255 255 255 255 255 255 255 255 255 255 255 255 255 255
255 255 255 255 255 255 255 255 255 255 255 255 255 255 255 255 255
255 255 255 255 255 255 255 255 255 255 255 255 255 255 255 255 255
255 255 255 255 255 255 255 255 255 255 255 255 255 255 255 255 255
255 255 255 255 255 255 255 255 255 255 255 255 255 255 255 255 255
255 255 255 255 255 255 255 255 255 255 255 255 255 255 255 255 255
255 255 255 255 255 255 255 255 255 255 255 255 255 255 255 255 255
255 255 255 255 255 255 255 255 255 255 255 255 255 255 255 255 255
255 255 255 255 255 255 255 255 255 255 255 255 255 255 255 255 255
255 255 255 255 255 255 255 255 255 255 255 255 255 255 255 255 255
255 255 255 255 255 255 255 255 255 255 255 255 255 255 255 255 255
255 255 255 255 255 255 255 255 255 255 255 255 255 255 255 255 255
255 255 255 255 255 255 255 255 255 255 255 255 255 255 255 255 255
255 255 255 255 255 255 255 255 255 255 255 255 255 255 255 255 255
255 255 255 255 255 255 255 255 255 255 255 255 255 255 255 255 255
255 255 255 255 255 255 255 255 255 255 255 255 255 255 255 255 255
255 255 255 255 255 255 255 255 255 255 255 255 255 255 255 255 255
255 255 255 255 255 255 255 255 255 255 255 255 255 255 255 255 255
255 255 255 255 255 255 255 255 255 255 255 255 255 255 255 255 255
255 255 255 255 255 255 255 255 255 255 255 255 255 255 255 255 255
255 255 255 255 255 255 255 255 255 255 255 255 255 255 255 255 255
255 255 255 255 255 255 255 255 255 255 255 255 255 255 255 255 255
255 255 255 255 255 255 255 255 255 255 255 255 255 255 255 255 255
255 255 255 255 255 255 255 255 255 255 255 255 255 255 255 255 255
255 255 255 255 255 255 255 255 255 255 255 255 255 255 255 255 255
255 255 255 255 255 255 255 255 255 255 255 255 255 255 255 255 255
255 255 255 255 255 255 255 255 255 255 255 255 255 255 255 255 255
255 255 255 255 255 255 255 255 255 255 255 255 255 255 255 255 255
255 255 255 255 255 255 255 255 255 255 255 255 255 255 255 255 255
255 255 255 255 255 255 255 255 255 255 255 255 255 255 255 255 255
255 255 255 255 255 255 255 255 255 255 255 255 255 255 255 255 255
255 255 255 255 255 255 255 255 255 255 255 255 255 255 255 255 255
255 255 255 255 255 255 255 255 255 255 255 255 255 255 255 255 255
255 255 255 255 255
255 255 255 255 255 255 255 255 255 255 255 255 255 255 255 255 255
255 255 255 255 255 255 255 255 255 255 255 255 255 255 255 255 255
255 255 255 255 255 255 255 255 255 255 255 255 255 255 255 255 255
255 255 255 255 255 255 255 255 255 255 255 255 255 255 255 255 255
255 255 255 255 255 255 255 255 255 255 255 255 255 255 255 255 255
255 255 255 255 255 255 255 255 255 255 255 255 255 255 255 255 255
255 255 255 255 255 255 255 255 255 255 255 255 255 255 255 255 255
255 255 255 255 255 255 255 255 255 255 255 255 255 255 255 255 255
255 255 255 255 255 255 255 255 255 255 255 255 255 255 255 255 255
255 255 255 255 255 255 255 255 255 255 255 255 255 255 255 255 255
255 255 255 255 255 255 255 255 255 255 255 255 255 255 255 255 255
255 255 255 255 255 255 255 255 255 255 255 255 255 255 255 255 255
255 255 255 255 255 255 255 255 255 255 255 255 255 255 255 255 255
255 255 255 255 255 255 255 255 255 255 255 255 255 255 255 255 255
255 255 255 255 255 255 255 255 255 255 255 255 255 255 255 255 255
255 255 255 255 255 255 255 255 255 255 255 255 255 255 255 255 255
255 255 255 255 255 255 255 255 255 255 255 255 255 255 255 255 255
255 255 255 255 255 255 255 255 255 255 255 255 255 255 255 255 255
255 255 255 255 255 255 255 255 255 255 255 255 255 255 255 255 255
255 255 255 255 255 255 255 255 255 255 255 255 255 255 255 255 255
255 255 255 255 255 255 255 255 255 255 255 255 255 255 255 255 255
255 255 255 255 255 255 255 255 255 255 255 255 255 255 255 255 255
255 255 255 255 255 255 255 255 255 255 255 255 255 255 255 255 255
255 255 255 255 255 255 255 255 255 255 255 255 255 255 255 255 255
255 255 255 255 255 255 255 255 255 255 255 255 255 255 255 255 255
255 255 255 255 255 255 255 255 255 255 255 255 255 255 255 255 255
255 255 255 255 255 255 255 255 255 255 255 255 255 255 255 255 255
255 255 255 255 255 255 255 255 255 255 255 255 255 255 255 255 255
255 255 255 255 255 255 255 255 255 255 255 255 255 255 255 255 255
255 255 255 255 255 255 255 255 255 255 255 255 255 255 255 255 255
255 255 255 255 255 255 255 255 255 255 255 255 255 255 255 255 255
255 255 255 255 255 255 255 255 255 255 255 255 255 255 255 255 255
255 255 255 255 255 255 255 255 255 255 255 255 255 255 255 255 255
255 255 255 255 255 255 255 255 255 255 255 255 255 255 255 255 255
255 255 255 255 255 255 255 255 255 255 255 255 255 255 255 255 255
255 255 255 255 255
255 255 255 255 255 255 255 255 255 255 255 255 255 255 255 255 255
255 255 255 255 255 255 255 255 255 255 255 255 255 255 255 255 255
255 255 255 255 255 255 255 255 255 255 255 255 255 255 255 255 255
255 255 255 255 255 255 255 255 255 255 255 255 255 255 255 255 255
255 255 255 255 255 255 255 255 255 255 255 255 255 255 255 255 255
255 255 255 255 255 255 255 255 255 255 255 255 255 255 255 255 255
255 255 255 255 255 255 255 255 255 255 255 255 255 255 255 255 255
255 255 255 255 255 255 255 255 255 255 255 255 255 255 255 255 255
255 255 255 255 255 255 255 255 255 255 255 255 255 255 255 255 255
255 255 255 255 255 255 255 255 255 255 255 255 255 255 255 255 255
255 255 255 255 255 255 255 255 255 255 255 255 255 255 255 255 255
255 255 255 255 255 255 255 255 255 255 255 255 255 255 255 255 255
255 255 255 255 255 255 255 255 255 255 255 255 255 255 255 255 255
255 255 255 255 255 255 255 255 255 255 255 255 255 255 255 255 255
255 255 255 255 255 255 255 255 255 255 255 255 255 255 255 255 255
255 255 255 255 255 255 255 255 255 255 255 255 255 255 255 255 255
255 255 255 255 255 255 255 255 255 255 255 255 255 255 255 255 255
255 255 255 255 255 255 255 255 255 255 255 255 255 255 255 255 255
255 255 255 255 255 255 255 255 255 255 255 255 255 255 255 255 255
255 255 255 255 255 255 255 255 255 255 255 255 255 255 255 255 255
255 255 255 255 255 255 255 255 255 255 255 255 255 255 255 255 255
255 255 255 255 255 255 255 255 255 255 255 255 255 255 255 255 255
255 255 255 255 255 255 255 255 255 255 255 255 255 255 255 255 255
255 255 255 255 255 255 255 255 255 255 255 255 255 255 255 255 255
255 255 255 255 255 255 255 255 255 255 255 255 255 255 255 255 255
255 255 255 255 255 255 255 255 255 255 255 255 255 255 255 255 255
255 255 255 255 255 255 255 255 255 255 255 255 255 255 255 255 255
255 255 255 255 255 255 255 255 255 255 255 255 255 255 255 255 255
255 255 255 255 255 255 255 255 255 255 255 255 255 255 255 255 255
255 255 255 255 255 255 255 255 255 255 255 255 255 255 255 255 255
255 255 255 255 255 255 255 255 255 255 255 255 255 255 255 255 255
255 255 255 255 255 255 255 255 255 255 255 255 255 255 255 255 255
255 255 255 255 255 255 255 255 255 255 255 255 255 255 255 255 255
255 255 255 255 255 255 255 255 255 255 255 255 255 255 255 255 255
255 255 255 255 255 255 255 255 255 255 255 255 255 255 255 255 255
255 255 255 255 255
255 255 255 255 255 255 255 255 255 255 255 255 255 255 255 255 255
255 255 255 255 255 255 255 255 255 255 255 255 255 255 255 255 255
255 255 255 255 255 255 255 255 255 255 255 255 255 255 255 255 255
255 255 255 255 255 255 255 255 255 255 255 255 255 255 255 255 255
255 255 255 255 255 255 255 255 255 255 255 255 255 255 255 255 255
255 255 255 255 255 255 255 255 255 255 255 255 255 255 255 255 255
255 255 255 255 255 255 255 255 255 255 255 255 255 255 255 255 255
255 255 255 255 255 255 255 255 255 255 255 255 255 255 255 255 255
255 255 255 255 255 255 255 255 255 255 255 255 255 255 255 255 255
255 255 255 255 255 255 255 255 255 255 255 255 255 255 255 255 255
255 255 255 255 255 255 255 255 255 255 255 255 255 255 255 255 255
255 255 255 255 255 255 255 255 255 255 255 255 255 255 255 255 255
255 255 255 255 255 255 255 255 255 255 255 255 255 255 255 255 255
255 255 255 255 255 255 255 255 255 255 255 255 255 255 255 255 255
255 255 255 255 255 255 255 255 255 255 255 255 255 255 255 255 255
255 255 255 255 255 255 255 255 255 255 255 255 255 255 255 255 255
255 255 255 255 255 255 255 255 255 255 255 255 255 255 255 255 255
255 255 255 255 255 255 255 255 255 255 255 255 255 255 255 255 255
255 255 255 255 255 255 255 255 255 255 255 255 255 255 255 255 255
255 255 255 255 255 255 255 255 255 255 255 255 255 255 255 255 255
255 255 255 255 255 255 255 255 255 255 255 255 255 255 255 255 255
255 255 255 255 255 255 255 255 255 255 255 255 255 255 255 255 255
255 255 255 255 255 255 255 255 255 255 255 255 255 255 255 255 255
255 255 255 255 255 255 255 255 255 255 255 255 255 255 255 255 255
255 255 255 255 255 255 255 255 255 255 255 255 255 255 255 255 255
255 255 255 255 255 255 255 255 255 255 255 255 255 255 255 255 255
255 255 255 255 255 255 255 255 255 255 255 255 255 255 255 255 255
255 255 255 255 255 255 255 255 255 255 255 255 255 255 255 255 255
255 255 255 255 255 255 255 255 255 255 255 255 255 255 255 255 255
255 255 255 255 255 255 255 255 255 255 255 255 255 255 255 255 255
255 255 255 255 255 255 255 255 255 255 255 255 255 255 255 255 255
255 255 255 255 255 255 255 255 255 255 255 255 255 255 255 255 255
255 255 255 255 255 255 255 255 255 255 255 255 255 255 255 255 255
255 255 255 255 255 255 255 255 255 255 255 255 255 255 255 255 255
255 255 255 255 255 255 255 255 255 255 255 255 255 255 255 255 255
255 255 255 255 255
255 255 255 255 255 255 255 255 255 255 255 255 255 255 255 255 255
255 255 255 255 255 255 255 255 255 255 255 255 255 255 255 255 255
255 255 255 255 255 255 255 255 255 255 255 255 255 255 255 255 255
255 255 255 255 255 255 255 255 255 255 255 255 255 255 255 255 255
255 255 255 255 255 255 255 255 255 255 255 255 255 255 255 255 255
255 255 255 255 255 255 255 255 255 255 255 255 255 255 255 255 255
255 255 255 255 255 255 255 255 255 255 255 255 255 255 255 255 255
255 255 255 255 255 255 255 255 255 255 255 255 255 255 255 255 255
255 255 255 255 255 255 255 255 255 255 255 255 255 255 255 255 255
255 255 255 255 255 255 255 255 255 255 255 255 255 255 255 255 255
255 255 255 255 255 255 255 255 255 255 255 255 255 255 255 255 255
255 255 255 255 255 255 255 255 255 255 255 255 255 255 255 255 255
255 255 255 255 255 255 255 255 255 255 255 255 255 255 255 255 255
255 255 255 255 255 255 255 255 255 255 255 255 255 255 255 255 255
255 255 255 255 255 255 255 255 255 255 255 255 255 255 255 255 255
255 255 255 255 255 255 255 255 255 255 255 255 255 255 255 255 255
255 255 255 255 255 255 255 255 255 255 255 255 255 255 255 255 255
255 255 255 255 255 255 255 255 255 255 255 255 255 255 255 255 255
255 255 255 255 255 255 255 255 255 255 255 255 255 255 255 255 255
255 255 255 255 255 255 255 255 255 255 255 255 255 255 255 255 255
255 255 255 255 255 255 255 255 255 255 255 255 255 255 255 255 255
255 255 255 255 255 255 255 255 255 255 255 255 255 255 255 255 255
255 255 255 255 255 255 255 255 255 255 255 255 255 255 255 255 255
255 255 255 255 255 255 255 255 255 255 255 255 255 255 255 255 255
255 255 255 255 255 255 255 255 255 255 255 255 255 255 255 255 255
255 255 255 255 255 255 255 255 255 255 255 255 255 255 255 255 255
255 255 255 255 255 255 255 255 255 255 255 255 255 255 255 255 255
255 255 255 255 255 255 255 255 255 255 255 255 255 255 255 255 255
255 255 255 255 255 255 255 255 255 255 255 255 255 255 255 255 255
255 255 255 255 255 255 255 255 255 255 255 255 255 255 255 255 255
255 255 255 255 255 255 255 255 255 255 255 255 255 255 255 255 255
255 255 255 255 255 255 255 255 255 255 255 255 255 255 255 255 255
255 255 255 255 255 255 255 255 255 255 255 255 255 255 255 255 255
255 255 255 255 255 255 255 255 255 255 255 255 255 255 255 255 255
255 255 255 255 255 255 255 255 255 255 255 255 255 255 255 255 255
255 255 255 255 255
0 124 0 0 123 0 0 120 0 255 255 255 255 255 255 255 255 255 255 255
255 255 255 255 255 255 255 255 255 255 255 255 255 255 255 255 255
255 255 255 255 255 255 255 255 255 255 255 255 255 255 255 255 255
255 255 255 255 255 255 255 255 255 255 255 255 255 255 255 255 255
255 255 255 255 255 255 255 255 255 255 255 255 255 255 255 255 255
255 255 255 255 255 255 255 255 255 255 255 255 255 255 255 255 255
255 255 255 255 255 255 255 255 255 255 255 255 255 255 255 255 255
255 255 255 255 255 255 255 255 255 255 255 255 255 255 255 255 255
255 255 255 255 255 255 255 255 255 255 255 255 255 255 255 255 255
255 255 255 255 255 255 255 255 255 255 255 255 255 255 255 255 255
255 255 255 255 255 255 255 255 255 255 255 255 255 255 255 255 255
255 255 255 255 255 255 255 255 255 255 255 255 255 255 255 255 255
255 255 255 255 255 255 255 255 255 255 255 255 255 255 255 255 255
255 255 255 255 255 255 255 255 255 255 255 255 255 255 255 255 255
255 255 255 255 255 255 255 255 255 255 255 255 255 255 255 255 255
255 255 255 255 255 255 255 255 255 255 255 255 255 255 255 255 255
255 255 255 255 255 255 255 255 255 255 255 255 255 255 255 255 255
255 255 255 255 255 255 255 255 255 255 255 255 255 255 255 255 255
255 255 255 255 255 255 255 255 255 255 255 255 255 255 255 255 255
255 255 255 255 255 255 255 255 255 255 255 255 255 255 255 255 255
255 255 255 255 255 255 255 255 255 255 255 255 255 255 255 255 255
255 255 255 255 255 255 255 255 255 255 255 255 255 255 255 255 255
255 255 255 255 255 255 255 255 255 255 255 255 255 255 255 255 255
255 255 255 255 255 255 255 255 255 255 255 255 255 255 255 255 255
255 255 255 255 255 255 255 255 255 255 255 255 255 255 255 255 255
255 255 255 255 255 255 255 255 255 255 255 255 255 255 255 255 255
255 255 255 255 255 255 255 255 255 255 255 255 255 255 255 255 255
255 255 255 255 255 255 255 255 255 255 255 255 255 255 255 255 255
255 255 255 255 255 255 255 255 255 255 255 255 255 255 255 255 255
255 255 255 255 255 255 255 255 255 255 255 255 255 255 255 255 255
255 255 255 255 255 255 255 255 255 255 255 255 255 255 255 255 255
255 255 255 255 255 255 255 255 255 255 255 255 255 255 255 255 255
255 255 255 255 255 255 255 255 255 255 255 255 255 255 255 255 255
255 255 255 255 255 255 255 255 255 255 255 255 255 255 255 255 255
255 255 255 255 255 255 255 255 255 255 255 255 255 0 0 111 0 0 115
0 135 0 0 135 0 0 136 0 0 136 0 0 135 0 0 134 0 0 133 0 0 130 0 255
255 255 255 255 255 255 255 255 255 255 255 255 255 255 255 255 255
255 255 255 255 255 255 255 255 255 255 255 255 255 255 255 255 255
255 255 255 255 255 255 255 255 255 255 255 255 255 255 255 255 255
255 255 255 255 255 255 255 255 255 255 255 255 255 255 255 255 255
255 255 255 255 255 255 255 255 255 255 255 255 255 255 255 255 255
255 255 255 255 255 255 255 255 255 255 255 255 255 255 255 255 255
255 255 255 255 255 255 255 255 255 255 255 255 255 255 255 255 255
255 255 255 255 255 255 255 255 255 255 255 255 255 255 255 255 255
255 255 255 255 255 255 255 255 255 255 255 255 255 255 255 255 255
255 255 255 255 255 255 255 255 255 255 255 255 255 255 255 255 255
255 255 255 255 255 255 255 255 255 255 255 255 255 255 255 255 255
255 255 255 255 255 255 255 255 255 255 255 255 255 255 255 255 255
255 255 255 255 255 255 255 255 255 255 255 255 255 255 255 255 255
255 255 255 255 255 255 255 255 255 255 255 255 255 255 255 255 255
255 255 255 255 255 255 255 255 255 255 255 255 255 255 255 255 255
255 255 255 255 255 255 255 255 255 255 255 255 255 255 255 255 255
255 255 255 255 255 255 255 255 255 255 255 255 255 255 255 255 255
255 255 255 255 255 255 255 255 255 255 255 255 255 255 255 255 255
255 255 255 255 255 255 255 255 255 255 255 255 255 255 255 255 255
255 255 255 255 255 255 255 255 255 255 255 255 255 255 255 255 255
255 255 255 255 255 255 255 255 255 255 255 255 255 255 255 255 255
255 255 255 255 255 255 255 255 255 255 255 255 255 255 255 255 255
255 255 255 255 255 255 255 255 255 255 255 255 255 255 255 255 255
255 255 255 255 255 255 255 255 255 255 255 255 255 255 255 255 255
255 255 255 255 255 255 255 255 255 255 255 255 255 255 255 255 255
255 255 255 255 255 255 255 255 255 255 255 255 255 255 255 255 255
255 255 255 255 255 255 255 255 255 255 255 255 255 255 255 255 255
255 255 255 255 255 255 255 255 255 255 255 255 255 255 255 255 255
255 255 255 255 255 255 255 255 255 255 255 255 255 255 255 255 255
255 255 255 255 255 255 255 255 255 255 255 255 255 255 255 255 255
255 255 255 255 255 255 255 255 255 255 255 255 255 255 255 255 255
255 255 255 255 255 255 255 255 255 255 255 255 255 255 255 255 255
255 255 255 255 255 255 255 255 255 255 0 0 108 0 0 112 0 0 116 0 0
119 0 0 122 0 0 124 0 0 126
0 142 0 0 142 0 0 143 0 0 143 0 0 144 0 0 144 0 0 143 0 0 143 0 0 142
0 0 141 0 0 139 0 0 135 0 255 255 255 255 255 255 255 255 255 255 255
255 255 255 255 255 255 255 255 255 255 255 255 255 255 255 255 255
255 255 255 255 255 255 255 255 255 255 255 255 255 255 255 255 255
255 255 255 255 255 255 255 255 255 255 255 255 255 255 255 255 255
255 255 255 255 255 255 255 255 255 255 255 255 255 255 255 255 255
255 255 255 255 255 255 255 255 255 255 255 255 255 255 255 255 255
255 255 255 255 255 255 255 255 255 255 255 255 255 255 255 255 255
255 255 255 255 255 255 255 255 255 255 255 255 255 255 255 255 255
255 255 255 255 255 255 255 255 255 255 255 255 255 255 255 255 255
255 255 255 255 255 255 255 255 255 255 255 255 255 255 255 255 255
255 255 255 255 255 255 255 255 255 255 255 255 255 255 255 255 255
255 255 255 255 255 255 255 255 255 255 255 255 255 255 255 255 255
255 255 255 255 255 255 255 255 255 255 255 255 255 255 255 255 255
255 255 255 255 255 255 255 255 255 255 255 255 255 255 255 255 255
255 255 255 255 255 255 255 255 255 255 255 255 255 255 255 255 255
255 255 255 255 255 255 255 255 255 255 255 255 255 255 255 255 255
255 255 255 255 255 255 255 255 255 255 255 255 255 255 255 255 255
255 255 255 255 255 255 255 255 255 255 255 255 255 255 255 255 255
255 255 255 255 255 255 255 255 255 255 255 255 255 255 255 255 255
255 255 255 255 255 255 255 255 255 255 255 255 255 255 255 255 255
255 255 255 255 255 255 255 255 255 255 255 255 255 255 255 255 255
255 255 255 255 255 255 255 255 255 255 255 255 255 255 255 255 255
255 255 255 255 255 255 255 255 255 255 255 255 255 255 255 255 255
255 255 255 255 255 255 255 255 255 255 255 255 255 255 255 255 255
255 255 255 255 255 255 255 255 255 255 255 255 255 255 255 255 255
255 255 255 255 255 255 255 255 255 255 255 255 255 255 255 255 255
255 255 255 255 255 255 255 255 255 255 255 255 255 255 255 255 255
255 255 255 255 255 255 255 255 255 255 255 255 255 255 255 255 255
255 255 255 255 255 255 255 255 255 255 255 255 255 255 255 255 255
255 255 255 255 255 255 255 255 255 255 255 255 255 255 255 255 255
255 255 255 255 255 255 255 255 255 255 255 255 255 255 255 255 255
255 255 255 255 255 255 255 255 255 255 0 0 102 0 0 108 0 0 112 0 0
115 0 0 118 0 0 121 0 0 124 0 0 126 0 0 128 0 0 130 0 0 132
0 147 0 0 147 0 0 148 0 0 149 0 0 149 0 0 150 0 0 150 0 0 150 0 0 150
0 0 149 0 0 149 0 0 148 0 0 146 0 0 144 0 0 140 0 255 255 255 255 255
255 255 255 255 255 255 255 255 255 255 255 255 255 255 255 255 255
255 255 255 255 255 255 255 255 255 255 255 255 255 255 255 255 255
255 255 255 255 255 255 255 255 255 255 255 255 255 255 255 255 255
255 255 255 255 255 255 255 255 255 255 255 255 255 255 255 255 255
255 255 255 255 255 255 255 255 255 255 255 255 255 255 255 255 255
255 255 255 255 255 255 255 255 255 255 255 255 255 255 255 255 255
255 255 255 255 255 255 255 255 255 255 255 255 255 255 255 255 255
255 255 255 255 255 255 255 255 255 255 255 255 255 255 255 255 255
255 255 255 255 255 255 255 255 255 255 255 255 255 255 255 255 255
255 255 255 255 255 255 255 255 255 255 255 255 255 255 255 255 255
255 255 255 255 255 255 255 255 255 255 255 255 255 255 255 255 255
255 255 255 255 255 255 255 255 255 255 255 255 255 255 255 255 255
255 255 255 255 255 255 255 255 255 255 255 255 255 255 255 255 255
255 255 255 255 255 255 255 255 255 255 255 255 255 255 255 255 255
255 255 255 255 255 255 255 255 255 255 255 255 255 255 255 255 255
255 255 255 255 255 255 255 255 255 255 255 255 255 255 255 255 255
255 255 255 255 255 255 255 255 255 255 255 255 255 255 255 255 255
255 255 255 255 255 255 255 255 255 255 255 255 255 255 255 255 255
255 255 255 255 255 255 255 255 255 255 255 255 255 255 255 255 255
255 255 255 255 255 255 255 255 255 255 255 255 255 255 255 255 255
255 255 255 255 255 255 255 255 255 255 255 255 255 255 255 255 255
255 255 255 255 255 255 255 255 255 255 255 255 255 255 255 255 255
255 255 255 255 255 255 255 255 255 255 255 255 255 255 255 255 255
255 255 255 255 255 255 255 255 255 255 255 255 255 255 255 255 255
255 255 255 255 255 255 255 255 255 255 255 255 255 255 255 255 255
255 255 255 255 255 255 255 255 255 255 255 255 255 255 255 255 255
255 255 255 255 255 255 255 255 255 255 255 255 255 255 255 255 255
255 255 255 255 255 255 255 255 255 255 255 255 255 255 255 255 255
255 255 255 255 255 255 255 255 255 255 255 255 255 255 255 255 255
255 255 255 255 255 255 255 255 255 255 255 255 255 255 255 0 0 99 0
0 105 0 0 109 0 0 113 0 0 116 0 0 119 0 0 122 0 0 124 0 0 126 0 0 129
0 0 131 0 0 133 0 0 135 0 0 136
0 151 0 0 152 0 0 152 0 0 153 0 0 154 0 0 154 0 0 155 0 0 155 0 0 155
0 0 155 0 0 155 0 0 155 0 0 154 0 0 153 0 0 152 0 0 149 0 0 146 0 0
141 0 255 255 255 255 255 255 255 255 255 255 255 255 255 255 255 255
255 255 255 255 255 255 255 255 255 255 255 255 255 255 255 255 255
255 255 255 255 255 255 255 255 255 255 255 255 255 255 255 255 255
255 255 255 255 255 255 255 255 255 255 255 255 255 255 255 255 255
255 255 255 255 255 255 255 255 255 255 255 255 255 255 255 255 255
255 255 255 255 255 255 255 255 255 255 255 255 255 255 255 255 255
255 255 255 255 255 255 255 255 255 255 255 255 255 255 255 255 255
255 255 255 255 255 255 255 255 255 255 255 255 255 255 255 255 255
255 255 255 255 255 255 255 255 255 255 255 255 255 255 255 255 255
255 255 255 255 255 255 255 255 255 255 255 255 255 255 255 255 255
255 255 255 255 255 255 255 255 255 255 255 255 255 255 255 255 255
255 255 255 255 255 255 255 255 255 255 255 255 255 255 255 255 255
255 255 255 255 255 255 255 255 255 255 255 255 255 255 255 255 255
255 255 255 255 255 255 255 255 255 255 255 255 255 255 255 255 255
255 255 255 255 255 255 255 255 255 255 255 255 255 255 255 255 255
255 255 255 255 255 255 255 255 255 255 255 255 255 255 255 255 255
255 255 255 255 255 255 255 255 255 255 255 255 255 255 255 255 255
255 255 255 255 255 255 255 255 255 255 255 255 255 255 255 255 255
255 255 255 255 255 255 255 255 255 255 255 255 255 255 255 255 255
255 255 255 255 255 255 255 255 255 255 255 255 255 255 255 255 255
255 255 255 255 255 255 255 255 255 255 255 255 255 255 255 255 255
255 255 255 255 255 255 255 255 255 255 255 255 255 255 255 255 255
255 255 255 255 255 255 255 255 255 255 255 255 255 255 255 255 255
255 255 255 255 255 255 255 255 255 255 255 255 255 255 255 255 255
255 255 255 255 255 255 255 255 255 255 255 255 255 255 255 255 255
255 255 255 255 255 255 255 255 255 255 255 255 255 255 255 255 255
255 255 255 255 255 255 255 255 255 255 255 255 255 255 255 255 255
255 255 255 255 255 255 255 255 255 255 255 255 255 255 255 255 255
255 255 255 255 255 255 255 255 255 255 255 255 255 255 255 255 255
255 255 255 0 0 93 0 0 100 0 0 104 0 0 108 0 0 112 0 0 115 0 0 118 0
0 121 0 0 124 0 0 126 0 0 128 0 0 130 0 0 132 0 0 134 0 0 136 0 0 138
0 0 140
0 154 0 0 155 0 0 156 0 0 157 0 0 157 0 0 158 0 0 159 0 0 159 0 0 159
0 0 160 0 0 160 0 0 160 0 0 159 0 0 159 0 0 158 0 0 157 0 0 156 0 0
154 0 0 151 0 0 146 0 255 255 255 255 255 255 255 255 255 255 255 255
255 255 255 255 255 255 255 255 255 255 255 255 255 255 255 255 255
255 255 255 255 255 255 255 255 255 255 255 255 255 255 255 255 255
255 255 255 255 255 255 255 255 255 255 255 255 255 255 255 255 255
255 255 255 255 255 255 255 255 255 255 255 255 255 255 255 255 255
255 255 255 255 255 255 255 255 255 255 255 255 255 255 255 255 255
255 255 255 255 255 255 255 255 255 255 255 255 255 255 255 255 255
255 255 255 255 255 255 255 255 255 255 255 255 255 255 255 255 255
255 255 255 255 255 255 255 255 255 255 255 255 255 255 255 255 255
255 255 255 255 255 255 255 255 255 255 255 255 255 255 255 255 255
255 255 255 255 255 255 255 255 255 255 255 255 255 255 255 255 255
255 255 255 255 255 255 255 255 255 255 255 255 255 255 255 255 255
255 255 255 255 255 255 255 255 255 255 255 255 255 255 255 255 255
255 255 255 255 255 255 255 255 255 255 255 255 255 255 255 255 255
255 255 255 255 255 255 255 255 255 255 255 255 255 255 255 255 255
255 255 255 255 255 255 255 255 255 255 255 255 255 255 255 255 255
255 255 255 255 255 255 255 255 255 255 255 255 255 255 255 255 255
255 255 255 255 255 255 255 255 255 255 255 255 255 255 255 255 255
255 255 255 255 255 255 255 255 255 255 255 255 255 255 255 255 255
255 255 255 255 255 255 255 255 255 255 255 255 255 255 255 255 255
255 255 255 255 255 255 255 255 255 255 255 255 255 255 255 255 255
255 255 255 255 255 255 255 255 255 255 255 255 255 255 255 255 255
255 255 255 255 255 255 255 255 255 255 255 255 255 255 255 255 255
255 255 255 255 255 255 255 255 255 255 255 255 255 255 255 255 255
255 255 255 255 255 255 255 255 255 255 255 255 255 255 255 255 255
255 255 255 255 255 255 255 255 255 255 255 255 255 255 255 255 255
255 255 255 255 255 255 255 255 255 255 255 255 255 255 255 255 255
255 255 255 255 255 255 255 255 255 255 255 255 255 255 255 255 255
255 255 255 255 255 255 255 255 255 255 255 255 0 0 92 0 0 98 0 0 103
0 0 107 0 0 111 0 0 114 0 0 117 0 0 120 0 0 122 0 0 125 0 0 127 0 0
129 0 0 132 0 0 134 0 0 136 0 0 137 0 0 139 0 0 141 0 0 143
0 157 0 0 158 0 0 159 0 0 160 0 0 161 0 0 161 0 0 162 0 0 163 0 0 163
0 0 163 0 0 164 0 0 164 0 0 164 0 0 164 0 0 163 0 0 163 0 0 162 0 0
161 0 0 159 0 0 157 0 0 154 0 0 149 0 255 255 255 255 255 255 255 255
255 255 255 255 255 255 255 255 255 255 255 255 255 255 255 255 255
255 255 255 255 255 255 255 255 255 255 255 255 255 255 255 255 255
255 255 255 255 255 255 255 255 255 255 255 255 255 255 255 255 255
255 255 255 255 255 255 255 255 255 255 255 255 255 255 255 255 255
255 255 255 255 255 255 255 255 255 255 255 255 255 255 255 255 255
255 255 255 255 255 255 255 255 255 255 255 255 255 255 255 255 255
255 255 255 255 255 255 255 255 255 255 255 255 255 255 255 255 255
255 255 255 255 255 255 255 255 255 255 255 255 255 255 255 255 255
255 255 255 255 255 255 255 255 255 255 255 255 255 255 255 255 255
255 255 255 255 255 255 255 255 255 255 255 255 255 255 255 255 255
255 255 255 255 255 255 255 255 255 255 255 255 255 255 255 255 255
255 255 255 255 255 255 255 255 255 255 255 255 255 255 255 255 255
255 255 255 255 255 255 255 255 255 255 255 255 255 255 255 255 255
255 255 255 255 255 255 255 255 255 255 255 255 255 255 255 255 255
255 255 255 255 255 255 255 255 255 255 255 255 255 255 255 255 255
255 255 255 255 255 255 255 255 255 255 255 255 255 255 255 255 255
255 255 255 255 255 255 255 255 255 255 255 255 255 255 255 255 255
255 255 255 255 255 255 255 255 255 255 255 255 255 255 255 255 255
255 255 255 255 255 255 255 255 255 255 255 255 255 255 255 255 255
255 255 255 255 255 255 255 255 255 255 255 255 255 255 255 255 255
255 255 255 255 255 255 255 255 255 255 255 255 255 255 255 255 255
255 255 255 255 255 255 255 255 255 255 255 255 255 255 255 255 255
255 255 255 255 255 255 255 255 255 255 255 255 255 255 255 255 255
255 255 255 255 255 255 255 255 255 255 255 255 255 255 255 255 255
255 255 255 255 255 255 255 255 255 255 255 255 255 255 255 255 255
255 255 255 255 255 255 255 255 255 255 255 255 255 255 255 255 255
255 255 255 255 255 255 255 255 255 255 255 255 255 255 255 255 255
255 255 255 255 0 0 90 0 0 96 0 0 101 0 0 105 0 0 108 0 0 112 0 0 115
0 0 118 0 0 120 0 0 123 0 0 125 0 0 128 0 0 130 0 0 132 0 0 134 0 0
136 0 0 138 0 0 140 0 0 142 0 0 143 0 0 145
0 159 0 0 161 0 0 162 0 0 162 0 0 163 0 0 164 0 0 165 0 0 165 0 0 166
0 0 166 0 0 167 0 0 167 0 0 167 0 0 167 0 0 167 0 0 167 0 0 166 0 0
166 0 0 165 0 0 163 0 0 162 0 0 159 0 0 156 0 0 151 0 255 255 255 255
255 255 255 255 255 255 255 255 255 255 255 255 255 255 255 255 255
255 255 255 255 255 255 255 255 255 255 255 255 255 255 255 255 255
255 255 255 255 255 255 255 255 255 255 255 255 255 255 255 255 255
255 255 255 255 255 255 255 255 255 255 255 255 255 255 255 255 255
255 255 255 255 255 255 255 255 255 255 255 255 255 255 255 255 255
255 255 255 255 255 255 255 255 255 255 255 255 255 255 255 255 255
255 255 255 255 255 255 255 255 255 255 255 255 255 255 255 255 255
255 255 255 255 255 255 255 255 255 255 255 255 255 255 255 255 255
255 255 255 255 255 255 255 255 255 255 255 255 255 255 255 255 255
255 255 255 255 255 255 255 255 255 255 255 255 255 255 255 255 255
255 255 255 255 255 255 255 255 255 255 255 255 255 255 255 255 255
255 255 255 255 255 255 255 255 255 255 255 255 255 255 255 255 255
255 255 255 255 255 255 255 255 255 255 255 255 255 255 255 255 255
255 255 255 255 255 255 255 255 255 255 255 255 255 255 255 255 255
255 255 255 255 255 255 255 255 255 255 255 255 255 255 255 255 255
255 255 255 255 255 255 255 255 255 255 255 255 255 255 255 255 255
255 255 255 255 255 255 255 255 255 255 255 255 255 255 255 255 255
255 255 255 255 255 255 255 255 255 255 255 255 255 255 255 255 255
255 255 255 255 255 255 255 255 255 255 255 255 255 255 255 255 255
255 255 255 255 255 255 255 255 255 255 255 255 255 255 255 255 255
255 255 255 255 255 255 255 255 255 255 255 255 255 255 255 255 255
255 255 255 255 255 255 255 255 255 255 255 255 255 255 255 255 255
255 255 255 255 255 255 255 255 255 255 255 255 255 255 255 255 255
255 255 255 255 255 255 255 255 255 255 255 255 255 255 255 255 255
255 255 255 255 255 255 255 255 255 255 255 255 255 255 255 255 255
255 255 255 255 255 255 255 255 255 255 255 255 255 255 255 255 255
255 255 255 255 255 255 255 255 255 255 255 255 255 0 0 86 0 0 92 0 0
97 0 0 102 0 0 106 0 0 109 0 0 112 0 0 115 0 0 118 0 0 121 0 0 123 0
0 126 0 0 128 0 0 130 0 0 132 0 0 135 0 0 137 0 0 138 0 0 140 0 0 142
0 0 144 0 0 145 0 0 147
0 162 0 0 163 0 0 164 0 0 165 0 0 166 0 0 167 0 0 167 0 0 168 0 0 169
0 0 169 0 0 170 0 0 170 0 0 170 0 0 170 0 0 170 0 0 170 0 0 170 0 0
170 0 0 169 0 0 168 0 0 167 0 0 166 0 0 164 0 0 161 0 0 157 0 0 151 0
255 255 255 255 255 255 255 255 255 255 255 255 255 255 255 255 255
255 255 255 255 255 255 255 255 255 255 255 255 255 255 255 255 255
255 255 255 255 255 255 255 255 255 255 255 255 255 255 255 255 255
255 255 255 255 255 255 255 255 255 255 255 255 255 255 255 255 255
255 255 255 255 255 255 255 255 255 255 255 255 255 255 255 255 255
255 255 255 255 255 255 255 255 255 255 255 255 255 255 255 255 255
255 255 255 255 255 255 255 255 255 255 255 255 255 255 255 255 255
255 255 255 255 255 255 255 255 255 255 255 255 255 255 255 255 255
255 255 255 255 255 255 255 255 255 255 255 255 255 255 255 255 255
255 255 255 255 255 255 255 255 255 255 255 255 255 255 255 255 255
255 255 255 255 255 255 255 255 255 255 255 255 255 255 255 255 255
255 255 255 255 255 255 255 255 255 255 255 255 255 255 255 255 255
255 255 255 255 255 255 255 255 255 255 255 255 255 255 255 255 255
255 255 255 255 255 255 255 255 255 255 255 255 255 255 255 255 255
255 255 255 255 255 255 255 255 255 255 255 255 255 255 255 255 255
255 255 255 255 255 255 255 255 255 255 255 255 255 255 255 255 255
255 255 255 255 255 255 255 255 255 255 255 255 255 255 255 255 255
255 255 255 255 255 255 255 255 255 255 255 255 255 255 255 255 255
255 255 255 255 255 255 255 255 255 255 255 255 255 255 255 255 255
255 255 255 255 255 255 255 255 255 255 255 255 255 255 255 255 255
255 255 255 255 255 255 255 255 255 255 255 255 255 255 255 255 255
255 255 255 255 255 255 255 255 255 255 255 255 255 255 255 255 255
255 255 255 255 255 255 255 255 255 255 255 255 255 255 255 255 255
255 255 255 255 255 255 255 255 255 255 255 255 255 255 255 255 255
255 255 255 255 255 255 255 255 255 255 255 255 255 255 255 255 255
255 255 255 255 255 255 255 255 255 255 255 255 255 255 255 255 255
255 255 255 255 255 0 0 81 0 0 88 0 0 94 0 0 98 0 0 102 0 0 106 0 0
109 0 0 112 0 0 115 0 0 118 0 0 121 0 0 123 0 0 126 0 0 128 0 0 130 0
0 132 0 0 135 0 0 137 0 0 138 0 0 140 0 0 142 0 0 144 0 0 146 0 0 147
0 0 149
0 164 0 0 165 0 0 166 0 0 167 0 0 168 0 0 169 0 0 169 0 0 170 0 0 171
0 0 172 0 0 172 0 0 173 0 0 173 0 0 173 0 0 173 0 0 173 0 0 173 0 0
173 0 0 173 0 0 172 0 0 171 0 0 170 0 0 169 0 0 167 0 0 165 0 0 162 0
0 157 0 0 148 0 255 255 255 255 255 255 255 255 255 255 255 255 255
255 255 255 255 255 255 255 255 255 255 255 255 255 255 255 255 255
255 255 255 255 255 255 255 255 255 255 255 255 255 255 255 255 255
255 255 255 255 255 255 255 255 255 255 255 255 255 255 255 255 255
255 255 255 255 255 255 255 255 255 255 255 255 255 255 255 255 255
255 255 255 255 255 255 255 255 255 255 255 255 255 255 255 255 255
255 255 255 255 255 255 255 255 255 255 255 255 255 255 255 255 255
255 255 255 255 255 255 255 255 255 255 255 255 255 255 255 255 255
255 255 255 255 255 255 255 255 255 255 255 255 255 255 255 255 255
255 255 255 255 255 255 255 255 255 255 255 255 255 255 255 255 255
255 255 255 255 255 255 255 255 255 255 255 255 255 255 255 255 255
255 255 255 255 255 255 255 255 255 255 255 255 255 255 255 255 255
255 255 255 255 255 255 255 255 255 255 255 255 255 255 255 255 255
255 255 255 255 255 255 255 255 255 255 255 255 255 255 255 255 255
255 255 255 255 255 255 255 255 255 255 255 255 255 255 255 255 255
255 255 255 255 255 255 255 255 255 255 255 255 255 255 255 255 255
255 255 255 255 255 255 255 255 255 255 255 255 255 255 255 255 255
255 255 255 255 255 255 255 255 255 255 255 255 255 255 255 255 255
255 255 255 255 255 255 255 255 255 255 255 255 255 255 255 255 255
255 255 255 255 255 255 255 255 255 255 255 255 255 255 255 255 255
255 255 255 255 255 255 255 255 255 255 255 255 255 255 255 255 255
255 255 255 255 255 255 255 255 255 255 255 255 255 255 255 255 255
255 255 255 255 255 255 255 255 255 255 255 255 255 255 255 255 255
255 255 255 255 255 255 255 255 255 255 255 255 255 255 255 255 255
255 255 255 255 255 255 255 255 255 255 255 255 255 255 255 255 255
255 255 255 255 255 255 255 255 255 255 255 255 255 255 0 0 74 0 0 83
0 0 89 0 0 94 0 0 98 0 0 102 0 0 106 0 0 109 0 0 112 0 0 115 0 0 118
0 0 120 0 0 123 0 0 125 0 0 128 0 0 130 0 0 132 0 0 134 0 0 136 0 0
138 0 0 140 0 0 142 0 0 144 0 0 145 0 0 147 0 0 149 0 0 150
0 165 0 0 166 0 0 168 0 0 169 0 0 170 0 0 171 0 0 171 0 0 172 0 0 173
0 0 174 0 0 174 0 0 175 0 0 175 0 0 176 0 0 176 0 0 176 0 0 176 0 0
176 0 0 176 0 0 175 0 0 175 0 0 174 0 0 173 0 0 172 0 0 170 0 0 168 0
0 165 0 0 162 0 0 155 0 255 255 255 255 255 255 255 255 255 255 255
255 255 255 255 255 255 255 255 255 255 255 255 255 255 255 255 255
255 255 255 255 255 255 255 255 255 255 255 255 255 255 255 255 255
255 255 255 255 255 255 255 255 255 255 255 255 255 255 255 255 255
255 255 255 255 255 255 255 255 255 255 255 255 255 255 255 255 255
255 255 255 255 255 255 255 255 255 255 255 255 255 255 255 255 255
255 255 255 255 255 255 255 255 255 255 255 255 255 255 255 255 255
255 255 255 255 255 255 255 255 255 255 255 255 255 255 255 255 255
255 255 255 255 255 255 255 255 255 255 255 255 255 255 255 255 255
255 255 255 255 255 255 255 255 255 255 255 255 255 255 255 255 255
255 255 255 255 255 255 255 255 255 255 255 255 255 255 255 255 255
255 255 255 255 255 255 255 255 255 255 255 255 255 255 255 255 255
255 255 255 255 255 255 255 255 255 255 255 255 255 255 255 255 255
255 255 255 255 255 255 255 255 255 255 255 255 255 255 255 255 255
255 255 255 255 255 255 255 255 255 255 255 255 255 255 255 255 255
255 255 255 255 255 255 255 255 255 255 255 255 255 255 255 255 255
255 255 255 255 255 255 255 255 255 255 255 255 255 255 255 255 255
255 255 255 255 255 255 255 255 255 255 255 255 255 255 255 255 255
255 255 255 255 255 255 255 255 255 255 255 255 255 255 255 255 255
255 255 255 255 255 255 255 255 255 255 255 255 255 255 255 255 255
255 255 255 255 255 255 255 255 255 255 255 255 255 255 255 255 255
255 255 255 255 255 255 255 255 255 255 255 255 255 255 255 255 255
255 255 255 255 255 255 255 255 255 255 255 255 255 255 255 255 255
255 255 255 255 255 255 255 255 255 255 255 255 255 255 255 255 255
255 255 255 255 255 255 255 255 255 255 255 255 255 255 255 255 255
255 255 255 255 255 255 255 255 255 255 0 0 77 0 0 84 0 0 89 0 0 94 0
0 98 0 0 102 0 0 105 0 0 109 0 0 112 0 0 114 0 0 117 0 0 120 0 0 122
0 0 125 0 0 127 0 0 130 0 0 132 0 0 134 0 0 136 0 0 138 0 0 140 0 0
142 0 0 143 0 0 145 0 0 147 0 0 149 0 0 151 0 0 153
0 167 0 0 168 0 0 169 0 0 170 0 0 171 0 0 172 0 0 173 0 0 174 0 0 175
0 0 175 0 0 176 0 0 177 0 0 177 0 0 178 0 0 178 0 0 178 0 0 178 0 0
178 0 0 178 0 0 178 0 0 178 0 0 177 0 0 177 0 0 176 0 0 174 0 0 173 0
0 171 0 0 168 0 0 165 0 0 160 0 0 149 0 255 255 255 255 255 255 255
255 255 255 255 255 255 255 255 255 255 255 255 255 255 255 255 255
255 255 255 255 255 255 255 255 255 255 255 255 255 255 255 255 255
255 255 255 255 255 255 255 255 255 255 255 255 255 255 255 255 255
255 255 255 255 255 255 255 255 255 255 255 255 255 255 255 255 255
255 255 255 255 255 255 255 255 255 255 255 255 255 255 255 255 255
255 255 255 255 255 255 255 255 255 255 255 255 255 255 255 255 255
255 255 255 255 255 255 255 255 255 255 255 255 255 255 255 255 255
255 255 255 255 255 255 255 255 255 255 255 255 255 255 255 255 255
255 255 255 255 255 255 255 255 255 255 255 255 255 255 255 255 255
255 255 255 255 255 255 255 255 255 255 255 255 255 255 255 255 255
255 255 255 255 255 255 255 255 255 255 255 255 255 255 255 255 255
255 255 255 255 255 255 255 255 255 255 255 255 255 255 255 255 255
255 255 255 255 255 255 255 255 255 255 255 255 255 255 255 255 255
255 255 255 255 255 255 255 255 255 255 255 255 255 255 255 255 255
255 255 255 255 255 255 255 255 255 255 255 255 255 255 255 255 255
255 255 255 255 255 255 255 255 255 255 255 255 255 255 255 255 255
255 255 255 255 255 255 255 255 255 255 255 255 255 255 255 255 255
255 255 255 255 255 255 255 255 255 255 255 255 255 255 255 255 255
255 255 255 255 255 255 255 255 255 255 255 255 255 255 255 255 255
255 255 255 255 255 255 255 255 255 255 255 255 255 255 255 255 255
255 255 255 255 255 255 255 255 255 255 255 255 255 255 255 255 255
255 255 255 255 255 255 255 255 255 255 255 255 255 255 255 255 255
255 255 255 255 255 255 255 255 255 255 255 255 255 255 255 255 255
255 255 255 255 255 255 255 255 255 255 255 255 255 255 255 255 255
255 255 0 0 74 0 0 77 0 0 84 0 0 89 0 0 93 0 0 97 0 0 101 0 0 105 0 0
108 0 0 111 0 0 114 0 0 116 0 0 119 0 0 122 0 0 124 0 0 127 0 0 129 0
0 131 0 0 133 0 0 135 0 0 137 0 0 139 0 0 142 0 0 144 0 0 146 0 0 148
0 0 150 0 0 152 0 0 154 0 0 155
0 168 0 0 169 0 0 171 0 0 172 0 0 173 0 0 174 0 0 175 0 0 175 0 0 176
0 0 177 0 0 178 0 0 178 0 0 179 0 0 179 0 0 180 0 0 180 0 0 180 0 0
181 0 0 181 0 0 181 0 0 180 0 0 180 0 0 179 0 0 179 0 0 178 0 0 177 0
0 175 0 0 173 0 0 171 0 0 168 0 0 163 0 0 155 0 255 255 255 255 255
255 255 255 255 255 255 255 255 255 255 255 255 255 255 255 255 255
255 255 255 255 255 255 255 255 255 255 255 255 255 255 255 255 255
255 255 255 255 255 255 255 255 255 255 255 255 255 255 255 255 255
255 255 255 255 255 255 255 255 255 255 255 255 255 255 255 255 255
255 255 255 255 255 255 255 255 255 255 255 255 255 255 255 255 255
255 255 255 255 255 255 255 255 255 255 255 255 255 255 255 255 255
255 255 255 255 255 255 255 255 255 255 255 255 255 255 255 255 255
255 255 255 255 255 255 255 255 255 255 255 255 255 255 255 255 255
255 255 255 255 255 255 255 255 255 255 255 255 255 255 255 255 255
255 255 255 255 255 255 255 255 255 255 255 255 255 255 255 255 255
255 255 255 255 255 255 255 255 255 255 255 255 255 255 255 255 255
255 255 255 255 255 255 255 255 255 255 255 255 255 255 255 255 255
255 255 255 255 255 255 255 255 255 255 255 255 255 255 255 255 255
255 255 255 255 255 255 255 255 255 255 255 255 255 255 255 255 255
255 255 255 255 255 255 255 255 255 255 255 255 255 255 255 255 255
255 255 255 255 255 255 255 255 255 255 255 255 255 255 255 255 255
255 255 255 255 255 255 255 255 255 255 255 255 255 255 255 255 255
255 255 255 255 255 255 255 255 255 255 255 255 255 255 255 255 255
255 255 255 255 255 255 255 255 255 255 255 255 255 255 255 255 255
255 255 255 255 255 255 255 255 255 255 255 255 255 255 255 255 255
255 255 255 255 255 255 255 255 255 255 255 255 255 255 255 255 255
255 255 255 255 255 255 255 255 255 255 255 255 255 255 255 255 255
255 255 255 255 255 255 255 255 255 255 255 255 255 255 255 255 255
255 255 255 255 255 255 255 255 255 255 255 255 255 255 255 0 0 71 0
0 77 0 0 83 0 0 88 0 0 93 0 0 96 0 0 100 0 0 104 0 0 107 0 0 110 0 0
113 0 0 115 0 0 118 0 0 121 0 0 123 0 0 126 0 0 128 0 0 130 0 0 132 0
0 135 0 0 137 0 0 140 0 0 142 0 0 144 0 0 146 0 0 148 0 0 150 0 0 152
0 0 154 0 0 156 0 0 158
0 170 0 0 171 0 0 172 0 0 173 0 0 174 0 0 175 0 0 176 0 0 177 0 0 178
0 0 179 0 0 179 0 0 180 0 0 181 0 0 181 0 0 182 0 0 182 0 0 182 0 0
182 0 0 183 0 0 183 0 0 182 0 0 182 0 0 182 0 0 181 0 0 181 0 0 180 0
0 179 0 0 177 0 0 175 0 0 173 0 0 170 0 0 166 0 0 159 0 255 255 255
255 255 255 255 255 255 255 255 255 255 255 255 255 255 255 255 255
255 255 255 255 255 255 255 255 255 255 255 255 255 255 255 255 255
255 255 255 255 255 255 255 255 255 255 255 255 255 255 255 255 255
255 255 255 255 255 255 255 255 255 255 255 255 255 255 255 255 255
255 255 255 255 255 255 255 255 255 255 255 255 255 255 255 255 255
255 255 255 255 255 255 255 255 255 255 255 255 255 255 255 255 255
255 255 255 255 255 255 255 255 255 255 255 255 255 255 255 255 255
255 255 255 255 255 255 255 255 255 255 255 255 255 255 255 255 255
255 255 255 255 255 255 255 255 255 255 255 255 255 255 255 255 255
255 255 255 255 255 255 255 255 255 255 255 255 255 255 255 255 255
255 255 255 255 255 255 255 255 255 255 255 255 255 255 255 255 255
255 255 255 255 255 255 255 255 255 255 255 255 255 255 255 255 255
255 255 255 255 255 255 255 255 255 255 255 255 255 255 255 255 255
255 255 255 255 255 255 255 255 255 255 255 255 255 255 255 255 255
255 255 255 255 255 255 255 255 255 255 255 255 255 255 255 255 255
255 255 255 255 255 255 255 255 255 255 255 255 255 255 255 255 255
255 255 255 255 255 255 255 255 255 255 255 255 255 255 255 255 255
255 255 255 255 255 255 255 255 255 255 255 255 255 255 255 255 255
255 255 255 255 255 255 255 255 255 255 255 255 255 255 255 255 255
255 255 255 255 255 255 255 255 255 255 255 255 255 255 255 255 255
255 255 255 255 255 255 255 255 255 255 255 255 255 255 255 255 255
255 255 255 255 255 255 255 255 255 255 255 255 255 255 255 255 255
255 255 255 255 255 255 255 255 255 255 255 255 255 255 255 255 255
255 255 255 255 255 255 255 255 255 255 255 0 0 70 0 0 77 0 0 82 0 0
87 0 0 91 0 0 95 0 0 99 0 0 102 0 0 106 0 0 109 0 0 112 0 0 114 0 0
117 0 0 120 0 0 122 0 0 124 0 0 127 0 0 129 0 0 132 0 0 135 0 0 137 0
0 140 0 0 142 0 0 144 0 0 146 0 0 149 0 0 151 0 0 153 0 0 154 0 0 156
0 0 158 0 0 160
0 171 0 0 172 0 0 173 0 0 174 0 0 175 0 0 176 0 0 177 0 0 178 0 0 179
0 0 180 0 0 181 0 0 181 0 0 182 0 0 183 0 0 183 0 0 183 0 0 184 0 0
184 0 0 184 0 0 184 0 0 184 0 0 184 0 0 184 0 0 184 0 0 183 0 0 182 0
0 181 0 0 180 0 0 179 0 0 177 0 0 175 0 0 172 0 0 168 0 0 162 0 255
255 255 255 255 255 255 255 255 255 255 255 255 255 255 255 255 255
255 255 255 255 255 255 255 255 255 255 255 255 255 255 255 255 255
255 255 255 255 255 255 255 255 255 255 255 255 255 255 255 255 255
255 255 255 255 255 255 255 255 255 255 255 255 255 255 255 255 255
255 255 255 255 255 255 255 255 255 255 255 255 255 255 255 255 255
255 255 255 255 255 255 255 255 255 255 255 255 255 255 255 255 255
255 255 255 255 255 255 255 255 255 255 255 255 255 255 255 255 255
255 255 255 255 255 255 255 255 255 255 255 255 255 255 255 255 255
255 255 255 255 255 255 255 255 255 255 255 255 255 255 255 255 255
255 255 255 255 255 255 255 255 255 255 255 255 255 255 255 255 255
255 255 255 255 255 255 255 255 255 255 255 255 255 255 255 255 255
255 255 255 255 255 255 255 255 255 255 255 255 255 255 255 255 255
255 255 255 255 255 255 255 255 255 255 255 255 255 255 255 255 255
255 255 255 255 255 255 255 255 255 255 255 255 255 255 255 255 255
255 255 255 255 255 255 255 255 255 255 255 255 255 255 255 255 255
255 255 255 255 255 255 255 255 255 255 255 255 255 255 255 255 255
255 255 255 255 255 255 255 255 255 255 255 255 255 255 255 255 255
255 255 255 255 255 255 255 255 255 255 255 255 255 255 255 255 255
255 255 255 255 255 255 255 255 255 255 255 255 255 255 255 255 255
255 255 255 255 255 255 255 255 255 255 255 255 255 255 255 255 255
255 255 255 255 255 255 255 255 255 255 255 255 255 255 255 255 255
255 255 255 255 255 255 255 255 255 255 255 255 255 255 255 255 255
255 255 255 255 255 255 255 255 255 255 255 255 255 255 255 255 255
255 255 255 255 255 255 255 0 0 68 0 0 75 0 0 81 0 0 86 0 0 90 0 0 94
0 0 98 0 0 101 0 0 104 0 0 107 0 0 110 0 0 113 0 0 116 0 0 118 0 0
121 0 0 123 0 0 126 0 0 129 0 0 132 0 0 134 0 0 137 0 0 139 0 0 142 0
0 144 0 0 146 0 0 149 0 0 151 0 0 153 0 0 155 0 0 156 0 0 158 0 0 160
0 0 162
0 173 0 0 174 0 0 175 0 0 175 0 0 176 0 0 177 0 0 178 0 0 179 0 0 180
0 0 181 0 0 182 0 0 182 0 0 183 0 0 184 0 0 184 0 0 185 0 0 185 0 0
186 0 0 186 0 0 186 0 0 186 0 0 186 0 0 186 0 0 186 0 0 185 0 0 185 0
0 184 0 0 183 0 0 182 0 0 180 0 0 178 0 0 176 0 0 173 0 0 169 0 0 163
0 0 147 0 255 255 255 255 255 255 255 255 255 255 255 255 255 255 255
255 255 255 255 255 255 255 255 255 255 255 255 255 255 255 255 255
255 255 255 255 255 255 255 255 255 255 255 255 255 255 255 255 255
255 255 255 255 255 255 255 255 255 255 255 255 255 255 255 255 255
255 255 255 255 255 255 255 255 255 255 255 255 255 255 255 255 255
255 255 255 255 255 255 255 255 255 255 255 255 255 255 255 255 255
255 255 255 255 255 255 255 255 255 255 255 255 255 255 255 255 255
255 255 255 255 255 255 255 255 255 255 255 255 255 255 255 255 255
255 255 255 255 255 255 255 255 255 255 255 255 255 255 255 255 255
255 255 255 255 255 255 255 255 255 255 255 255 255 255 255 255 255
255 255 255 255 255 255 255 255 255 255 255 255 255 255 255 255 255
255 255 255 255 255 255 255 255 255 255 255 255 255 255 255 255 255
255 255 255 255 255 255 255 255 255 255 255 255 255 255 255 255 255
255 255 255 255 255 255 255 255 255 255 255 255 255 255 255 255 255
255 255 255 255 255 255 255 255 255 255 255 255 255 255 255 255 255
255 255 255 255 255 255 255 255 255 255 255 255 255 255 255 255 255
255 255 255 255 255 255 255 255 255 255 255 255 255 255 255 255 255
255 255 255 255 255 255 255 255 255 255 255 255 255 255 255 255 255
255 255 255 255 255 255 255 255 255 255 255 255 255 255 255 255 255
255 255 255 255 255 255 255 255 255 255 255 255 255 255 255 255 255
255 255 255 255 255 255 255 255 255 255 255 255 255 255 255 255 255
255 255 255 255 255 255 255 255 255 255 255 255 255 255 255 255 255
255 255 255 255 255 255 255 255 255 255 255 255 255 255 255 0 0 74 0
0 67 0 0 74 0 0 79 0 0 84 0 0 88 0 0 92 0 0 96 0 0 99 0 0 103 0 0 106
0 0 109 0 0 111 0 0 114 0 0 117 0 0 120 0 0 123 0 0 126 0 0 129 0 0
131 0 0 134 0 0 137 0 0 139 0 0 142 0 0 144 0 0 146 0 0 148 0 0 150 0
0 152 0 0 154 0 0 156 0 0 158 0 0 160 0 0 162 0 0 163
0 175 0 0 176 0 0 177 0 0 177 0 0 178 0 0 178 0 0 179 0 0 180 0 0 181
0 0 182 0 0 183 0 0 184 0 0 184 0 0 185 0 0 186 0 0 186 0 0 187 0 0
187 0 0 187 0 0 187 0 0 188 0 0 188 0 0 188 0 0 187 0 0 187 0 0 187 0
0 186 0 0 185 0 0 184 0 0 183 0 0 182 0 0 180 0 0 177 0 0 174 0 0 170
0 0 165 0 0 152 0 255 255 255 255 255 255 255 255 255 255 255 255 255
255 255 255 255 255 255 255 255 255 255 255 255 255 255 255 255 255
255 255 255 255 255 255 255 255 255 255 255 255 255 255 255 255 255
255 255 255 255 255 255 255 255 255 255 255 255 255 255 255 255 255
255 255 255 255 255 255 255 255 255 255 255 255 255 255 255 255 255
255 255 255 255 255 255 255 255 255 255 255 255 255 255 255 255 255
255 255 255 255 255 255 255 255 255 255 255 255 255 255 255 255 255
255 255 255 255 255 255 255 255 255 255 255 255 255 255 255 255 255
255 255 255 255 255 255 255 255 255 255 255 255 255 255 255 255 255
255 255 255 255 255 255 255 255 255 255 255 255 255 255 255 255 255
255 255 255 255 255 255 255 255 255 255 255 255 255 255 255 255 255
255 255 255 255 255 255 255 255 255 255 255 255 255 255 255 255 255
255 255 255 255 255 255 255 255 255 255 255 255 255 255 255 255 255
255 255 255 255 255 255 255 255 255 255 255 255 255 255 255 255 255
255 255 255 255 255 255 255 255 255 255 255 255 255 255 255 255 255
255 255 255 255 255 255 255 255 255 255 255 255 255 255 255 255 255
255 255 255 255 255 255 255 255 255 255 255 255 255 255 255 255 255
255 255 255 255 255 255 255 255 255 255 255 255 255 255 255 255 255
255 255 255 255 255 255 255 255 255 255 255 255 255 255 255 255 255
255 255 255 255 255 255 255 255 255 255 255 255 255 255 255 255 255
255 255 255 255 255 255 255 255 255 255 255 255 255 255 255 255 255
255 255 255 255 255 255 255 255 255 255 255 255 255 255 255 255 255
255 255 255 255 255 255 255 255 255 255 255 0 0 72 0 0 67 0 0 72 0 0
78 0 0 82 0 0 87 0 0 90 0 0 94 0 0 98 0 0 101 0 0 104 0 0 107 0 0 110
0 0 113 0 0 116 0 0 119 0 0 122 0 0 125 0 0 128 0 0 131 0 0 133 0 0
136 0 0 139 0 0 141 0 0 143 0 0 146 0 0 148 0 0 150 0 0 152 0 0 154 0
0 156 0 0 158 0 0 160 0 0 162 0 0 163 0 0 165
0 177 0 0 178 0 0 178 0 0 179 0 0 180 0 0 180 0 0 181 0 0 181 0 0 182
0 0 183 0 0 184 0 0 185 0 0 185 0 0 186 0 0 187 0 0 187 0 0 188 0 0
188 0 0 188 0 0 189 0 0 189 0 0 189 0 0 189 0 0 189 0 0 189 0 0 188 0
0 188 0 0 187 0 0 186 0 0 185 0 0 184 0 0 183 0 0 181 0 0 178 0 0 175
0 0 171 0 0 165 0 0 152 0 255 255 255 255 255 255 255 255 255 255 255
255 255 255 255 255 255 255 255 255 255 255 255 255 255 255 255 255
255 255 255 255 255 255 255 255 255 255 255 255 255 255 255 255 255
255 255 255 255 255 255 255 255 255 255 255 255 255 255 255 255 255
255 255 255 255 255 255 255 255 255 255 255 255 255 255 255 255 255
255 255 255 255 255 255 255 255 255 255 255 255 255 255 255 255 255
255 255 255 255 255 255 255 255 255 255 255 255 255 255 255 255 255
255 255 255 255 255 255 255 255 255 255 255 255 255 255 255 255 255
255 255 255 255 255 255 255 255 255 255 255 255 255 255 255 255 255
255 255 255 255 255 255 255 255 255 255 255 255 255 255 255 255 255
255 255 255 255 255 255 255 255 255 255 255 255 255 255 255 255 255
255 255 255 255 255 255 255 255 255 255 255 255 255 255 255 255 255
255 255 255 255 255 255 255 255 255 255 255 255 255 255 255 255 255
255 255 255 255 255 255 255 255 255 255 255 255 255 255 255 255 255
255 255 255 255 255 255 255 255 255 255 255 255 255 255 255 255 255
255 255 255 255 255 255 255 255 255 255 255 255 255 255 255 255 255
255 255 255 255 255 255 255 255 255 255 255 255 255 255 255 255 255
255 255 255 255 255 255 255 255 255 255 255 255 255 255 255 255 255
255 255 255 255 255 255 255 255 255 255 255 255 255 255 255 255 255
255 255 255 255 255 255 255 255 255 255 255 255 255 255 255 255 255
255 255 255 255 255 255 255 255 255 255 255 255 255 255 255 255 255
255 255 255 255 255 255 255 255 255 255 255 255 255 255 255 255 255
255 255 255 255 255 255 255 0 0 71 0 0 66 0 0 70 0 0 75 0 0 80 0 0 85
0 0 89 0 0 92 0 0 96 0 0 99 0 0 102 0 0 105 0 0 108 0 0 112 0 0 115 0
0 118 0 0 121 0 0 124 0 0 127 0 0 130 0 0 133 0 0 135 0 0 138 0 0 140
0 0 143 0 0 145 0 0 147 0 0 150 0 0 152 0 0 154 0 0 156 0 0 158 0 0
160 0 0 161 0 0 163 0 0 165 0 0 167
0 178 0 0 179 0 0 180 0 0 181 0 0 181 0 0 182 0 0 183 0 0 183 0 0 184
0 0 184 0 0 185 0 0 185 0 0 186 0 0 187 0 0 187 0 0 188 0 0 189 0 0
189 0 0 189 0 0 190 0 0 190 0 0 190 0 0 190 0 0 190 0 0 190 0 0 190 0
0 189 0 0 189 0 0 188 0 0 187 0 0 186 0 0 185 0 0 183 0 0 181 0 0 179
0 0 176 0 0 172 0 0 165 0 0 151 0 255 255 255 255 255 255 255 255 255
255 255 255 255 255 255 255 255 255 255 255 255 255 255 255 255 255
255 255 255 255 255 255 255 255 255 255 255 255 255 255 255 255 255
255 255 255 255 255 255 255 255 255 255 255 255 255 255 255 255 255
255 255 255 255 255 255 255 255 255 255 255 255 255 255 255 255 255
255 255 255 255 255 255 255 255 255 255 255 255 255 255 255 255 255
255 255 255 255 255 255 255 255 255 255 255 255 255 255 255 255 255
255 255 255 255 255 255 255 255 255 255 255 255 255 255 255 255 255
255 255 255 255 255 255 255 255 255 255 255 255 255 255 255 255 255
255 255 255 255 255 255 255 255 255 255 255 255 255 255 255 255 255
255 255 255 255 255 255 255 255 255 255 255 255 255 255 255 255 255
255 255 255 255 255 255 255 255 255 255 255 255 255 255 255 255 255
255 255 255 255 255 255 255 255 255 255 255 255 255 255 255 255 255
255 255 255 255 255 255 255 255 255 255 255 255 255 255 255 255 255
255 255 255 255 255 255 255 255 255 255 255 255 255 255 255 255 255
255 255 255 255 255 255 255 255 255 255 255 255 255 255 255 255 255
255 255 255 255 255 255 255 255 255 255 255 255 255 255 255 255 255
255 255 255 255 255 255 255 255 255 255 255 255 255 255 255 255 255
255 255 255 255 255 255 255 255 255 255 255 255 255 255 255 255 255
255 255 255 255 255 255 255 255 255 255 255 255 255 255 255 255 255
255 255 255 255 255 255 255 255 255 255 255 255 255 255 255 255 255
255 255 255 255 255 255 255 255 255 255 255 255 255 255 255 255 255
255 255 255 0 0 71 0 0 65 0 0 67 0 0 73 0 0 78 0 0 82 0 0 86 0 0 90 0
0 94 0 0 97 0 0 100 0 0 103 0 0 107 0 0 110 0 0 114 0 0 117 0 0 120 0
0 123 0 0 126 0 0 129 0 0 132 0 0 134 0 0 137 0 0 140 0 0 142 0 0 144
0 0 147 0 0 149 0 0 151 0 0 153 0 0 155 0 0 157 0 0 159 0 0 161 0 0
163 0 0 165 0 0 166 0 0 168
0 180 0 0 181 0 0 182 0 0 182 0 0 183 0 0 184 0 0 184 0 0 185 0 0 185
0 0 186 0 0 186 0 0 186 0 0 187 0 0 188 0 0 188 0 0 189 0 0 189 0 0
190 0 0 190 0 0 191 0 0 191 0 0 191 0 0 191 0 0 191 0 0 191 0 0 191 0
0 191 0 0 190 0 0 190 0 0 189 0 0 188 0 0 187 0 0 186 0 0 184 0 0 182
0 0 179 0 0 176 0 0 172 0 0 165 0 255 255 255 255 255 255 255 255 255
255 255 255 255 255 255 255 255 255 255 255 255 255 255 255 255 255
255 255 255 255 255 255 255 255 255 255 255 255 255 255 255 255 255
255 255 255 255 255 255 255 255 255 255 255 255 255 255 255 255 255
255 255 255 255 255 255 255 255 255 255 255 255 255 255 255 255 255
255 255 255 255 255 255 255 255 255 255 255 255 255 255 255 255 255
255 255 255 255 255 255 255 255 255 255 255 255 255 255 255 255 255
255 255 255 255 255 255 255 255 255 255 255 255 255 255 255 255 255
255 255 255 255 255 255 255 255 255 255 255 255 255 255 255 255 255
255 255 255 255 255 255 255 255 255 255 255 255 255 255 255 255 255
255 255 255 255 255 255 255 255 255 255 255 255 255 255 255 255 255
255 255 255 255 255 255 255 255 255 255 255 255 255 255 255 255 255
255 255 255 255 255 255 255 255 255 255 255 255 255 255 255 255 255
255 255 255 255 255 255 255 255 255 255 255 255 255 255 255 255 255
255 255 255 255 255 255 255 255 255 255 255 255 255 255 255 255 255
255 255 255 255 255 255 255 255 255 255 255 255 255 255 255 255 255
255 255 255 255 255 255 255 255 255 255 255 255 255 255 255 255 255
255 255 255 255 255 255 255 255 255 255 255 255 255 255 255 255 255
255 255 255 255 255 255 255 255 255 255 255 255 255 255 255 255 255
255 255 255 255 255 255 255 255 255 255 255 255 255 255 255 255 255
255 255 255 255 255 255 255 255 255 255 255 255 255 255 255 255 255
255 255 255 255 255 255 255 255 255 255 255 255 255 255 255 255 255
255 255 255 0 0 65 0 0 65 0 0 71 0 0 76 0 0 80 0 0 84 0 0 88 0 0 91 0
0 95 0 0 98 0 0 102 0 0 105 0 0 109 0 0 112 0 0 116 0 0 119 0 0 122 0
0 125 0 0 128 0 0 131 0 0 133 0 0 136 0 0 139 0 0 141 0 0 144 0 0 146
0 0 148 0 0 150 0 0 153 0 0 155 0 0 157 0 0 159 0 0 160 0 0 162 0 0
164 0 0 166 0 0 168 0 0 169
0 181 0 0 182 0 0 183 0 0 184 0 0 184 0 0 185 0 0 186 0 0 186 0 0 187
0 0 187 0 0 188 0 0 188 0 0 188 0 0 188 0 0 189 0 0 190 0 0 190 0 0
191 0 0 191 0 0 192 0 0 192 0 0 192 0 0 192 0 0 192 0 0 192 0 0 192 0
0 192 0 0 192 0 0 191 0 0 191 0 0 190 0 0 189 0 0 188 0 0 186 0 0 184
0 0 182 0 0 179 0 0 176 0 0 171 0 0 164 0 255 255 255 255 255 255 255
255 255 255 255 255 255 255 255 255 255 255 255 255 255 255 255 255
255 255 255 255 255 255 255 255 255 255 255 255 255 255 255 255 255
255 255 255 255 255 255 255 255 255 255 255 255 255 255 255 255 255
255 255 255 255 255 255 255 255 255 255 255 255 255 255 255 255 255
255 255 255 255 255 255 255 255 255 255 255 255 255 255 255 255 255
255 255 255 255 255 255 255 255 255 255 255 255 255 255 255 255 255
255 255 255 255 255 255 255 255 255 255 255 255 255 255 255 255 255
255 255 255 255 255 255 255 255 255 255 255 255 255 255 255 255 255
255 255 255 255 255 255 255 255 255 255 255 255 255 255 255 255 255
255 255 255 255 255 255 255 255 255 255 255 255 255 255 255 255 255
255 255 255 255 255 255 255 255 255 255 255 255 255 255 255 255 255
255 255 255 255 255 255 255 255 255 255 255 255 255 255 255 255 255
255 255 255 255 255 255 255 255 255 255 255 255 255 255 255 255 255
255 255 255 255 255 255 255 255 255 255 255 255 255 255 255 255 255
255 255 255 255 255 255 255 255 255 255 255 255 255 255 255 255 255
255 255 255 255 255 255 255 255 255 255 255 255 255 255 255 255 255
255 255 255 255 255 255 255 255 255 255 255 255 255 255 255 255 255
255 255 255 255 255 255 255 255 255 255 255 255 255 255 255 255 255
255 255 255 255 255 255 255 255 255 255 255 255 255 255 255 255 255
255 255 255 255 255 255 255 255 255 255 255 255 255 255 255 255 255
255 255 255 255 255 255 255 255 255 255 255 255 255 255 255 255 0 0
65 0 0 62 0 0 68 0 0 73 0 0 77 0 0 82 0 0 85 0 0 89 0 0 93 0 0 96 0 0
100 0 0 104 0 0 107 0 0 111 0 0 114 0 0 118 0 0 121 0 0 124 0 0 127 0
0 130 0 0 132 0 0 135 0 0 138 0 0 140 0 0 143 0 0 145 0 0 147 0 0 149
0 0 152 0 0 154 0 0 156 0 0 158 0 0 160 0 0 162 0 0 164 0 0 165 0 0
167 0 0 169 0 0 170
0 183 0 0 184 0 0 184 0 0 185 0 0 186 0 0 186 0 0 187 0 0 188 0 0 188
0 0 189 0 0 189 0 0 189 0 0 190 0 0 190 0 0 190 0 0 190 0 0 191 0 0
191 0 0 192 0 0 192 0 0 193 0 0 193 0 0 193 0 0 193 0 0 193 0 0 193 0
0 193 0 0 193 0 0 192 0 0 192 0 0 191 0 0 190 0 0 189 0 0 188 0 0 186
0 0 185 0 0 182 0 0 179 0 0 176 0 0 171 0 0 163 0 255 255 255 255 255
255 255 255 255 255 255 255 255 255 255 255 255 255 255 255 255 255
255 255 255 255 255 255 255 255 255 255 255 255 255 255 255 255 255
255 255 255 255 255 255 255 255 255 255 255 255 255 255 255 255 255
255 255 255 255 255 255 255 255 255 255 255 255 255 255 255 255 255
255 255 255 255 255 255 255 255 255 255 255 255 255 255 255 255 255
255 255 255 255 255 255 255 255 255 255 255 255 255 255 255 255 255
255 255 255 255 255 255 255 255 255 255 255 255 255 255 255 255 255
255 255 255 255 255 255 255 255 255 255 255 255 255 255 255 255 255
255 255 255 255 255 255 255 255 255 255 255 255 255 255 255 255 255
255 255 255 255 255 255 255 255 255 255 255 255 255 255 255 255 255
255 255 255 255 255 255 255 255 255 255 255 255 255 255 255 255 255
255 255 255 255 255 255 255 255 255 255 255 255 255 255 255 255 255
255 255 255 255 255 255 255 255 255 255 255 255 255 255 255 255 255
255 255 255 255 255 255 255 255 255 255 255 255 255 255 255 255 255
255 255 255 255 255 255 255 255 255 255 255 255 255 255 255 255 255
255 255 255 255 255 255 255 255 255 255 255 255 255 255 255 255 255
255 255 255 255 255 255 255 255 255 255 255 255 255 255 255 255 255
255 255 255 255 255 255 255 255 255 255 255 255 255 255 255 255 255
255 255 255 255 255 255 255 255 255 255 255 255 255 255 255 255 255
255 255 255 255 255 255 255 255 255 255 255 255 255 255 255 255 255
255 255 255 255 255 255 255 255 255 255 255 255 0 0 65 0 0 62 0 0 65
0 0 70 0 0 75 0 0 79 0 0 83 0 0 87 0 0 90 0 0 94 0 0 98 0 0 102 0 0
106 0 0 109 0 0 113 0 0 116 0 0 119 0 0 122 0 0 125 0 0 128 0 0 131 0
0 134 0 0 136 0 0 139 0 0 141 0 0 144 0 0 146 0 0 148 0 0 151 0 0 153
0 0 155 0 0 157 0 0 159 0 0 161 0 0 163 0 0 165 0 0 166 0 0 168 0 0
170 0 0 171
0 184 0 0 185 0 0 186 0 0 186 0 0 187 0 0 188 0 0 188 0 0 189 0 0 189
0 0 190 0 0 190 0 0 191 0 0 191 0 0 191 0 0 192 0 0 192 0 0 192 0 0
192 0 0 192 0 0 193 0 0 193 0 0 194 0 0 194 0 0 194 0 0 194 0 0 194 0
0 194 0 0 194 0 0 193 0 0 193 0 0 192 0 0 192 0 0 191 0 0 190 0 0 188
0 0 187 0 0 185 0 0 182 0 0 179 0 0 175 0 0 169 0 0 160 0 255 255 255
255 255 255 255 255 255 255 255 255 255 255 255 255 255 255 255 255
255 255 255 255 255 255 255 255 255 255 255 255 255 255 255 255 255
255 255 255 255 255 255 255 255 255 255 255 255 255 255 255 255 255
255 255 255 255 255 255 255 255 255 255 255 255 255 255 255 255 255
255 255 255 255 255 255 255 255 255 255 255 255 255 255 255 255 255
255 255 255 255 255 255 255 255 255 255 255 255 255 255 255 255 255
255 255 255 255 255 255 255 255 255 255 255 255 255 255 255 255 255
255 255 255 255 255 255 255 255 255 255 255 255 255 255 255 255 255
255 255 255 255 255 255 255 255 255 255 255 255 255 255 255 255 255
255 255 255 255 255 255 255 255 255 255 255 255 255 255 255 255 255
255 255 255 255 255 255 255 255 255 255 255 255 255 255 255 255 255
255 255 255 255 255 255 255 255 255 255 255 255 255 255 255 255 255
255 255 255 255 255 255 255 255 255 255 255 255 255 255 255 255 255
255 255 255 255 255 255 255 255 255 255 255 255 255 255 255 255 255
255 255 255 255 255 255 255 255 255 255 255 255 255 255 255 255 255
255 255 255 255 255 255 255 255 255 255 255 255 255 255 255 255 255
255 255 255 255 255 255 255 255 255 255 255 255 255 255 255 255 255
255 255 255 255 255 255 255 255 255 255 255 255 255 255 255 255 255
255 255 255 255 255 255 255 255 255 255 255 255 255 255 255 255 255
255 255 255 255 255 255 255 255 255 255 255 255 255 255 255 255 255
255 255 255 255 255 255 255 255 0 0 66 0 0 62 0 0 62 0 0 67 0 0 72 0
0 76 0 0 80 0 0 84 0 0 88 0 0 92 0 0 96 0 0 100 0 0 104 0 0 108 0 0
111 0 0 114 0 0 118 0 0 121 0 0 124 0 0 127 0 0 130 0 0 132 0 0 135 0
0 138 0 0 140 0 0 143 0 0 145 0 0 147 0 0 150 0 0 152 0 0 154 0 0 156
0 0 158 0 0 160 0 0 162 0 0 164 0 0 166 0 0 167 0 0 169 0 0 171 0 0
172
0 185 0 0 186 0 0 187 0 0 187 0 0 188 0 0 189 0 0 190 0 0 190 0 0 191
0 0 191 0 0 192 0 0 192 0 0 192 0 0 193 0 0 193 0 0 193 0 0 193 0 0
193 0 0 193 0 0 193 0 0 194 0 0 194 0 0 194 0 0 195 0 0 195 0 0 195 0
0 195 0 0 195 0 0 194 0 0 194 0 0 193 0 0 193 0 0 192 0 0 191 0 0 190
0 0 188 0 0 186 0 0 184 0 0 182 0 0 178 0 0 174 0 0 168 0 0 156 0 255
255 255 255 255 255 255 255 255 255 255 255 255 255 255 255 255 255
255 255 255 255 255 255 255 255 255 255 255 255 255 255 255 255 255
255 255 255 255 255 255 255 255 255 255 255 255 255 255 255 255 255
255 255 255 255 255 255 255 255 255 255 255 255 255 255 255 255 255
255 255 255 255 255 255 255 255 255 255 255 255 255 255 255 255 255
255 255 255 255 255 255 255 255 255 255 255 255 255 255 255 255 255
255 255 255 255 255 255 255 255 255 255 255 255 255 255 255 255 255
255 255 255 255 255 255 255 255 255 255 255 255 255 255 255 255 255
255 255 255 255 255 255 255 255 255 255 255 255 255 255 255 255 255
255 255 255 255 255 255 255 255 255 255 255 255 255 255 255 255 255
255 255 255 255 255 255 255 255 255 255 255 255 255 255 255 255 255
255 255 255 255 255 255 255 255 255 255 255 255 255 255 255 255 255
255 255 255 255 255 255 255 255 255 255 255 255 255 255 255 255 255
255 255 255 255 255 255 255 255 255 255 255 255 255 255 255 255 255
255 255 255 255 255 255 255 255 255 255 255 255 255 255 255 255 255
255 255 255 255 255 255 255 255 255 255 255 255 255 255 255 255 255
255 255 255 255 255 255 255 255 255 255 255 255 255 255 255 255 255
255 255 255 255 255 255 255 255 255 255 255 255 255 255 255 255 255
255 255 255 255 255 255 255 255 255 255 255 255 255 255 255 255 255
255 255 255 255 255 255 255 255 255 255 255 255 255 255 255 255 255
255 255 255 255 0 0 67 0 0 62 0 0 59 0 0 64 0 0 69 0 0 73 0 0 77 0 0
81 0 0 85 0 0 90 0 0 94 0 0 98 0 0 102 0 0 106 0 0 109 0 0 113 0 0
116 0 0 119 0 0 122 0 0 125 0 0 128 0 0 131 0 0 133 0 0 136 0 0 139 0
0 141 0 0 144 0 0 146 0 0 148 0 0 151 0 0 153 0 0 155 0 0 157 0 0 159
0 0 161 0 0 163 0 0 165 0 0 166 0 0 168 0 0 170 0 0 172 0 0 173
0 186 0 0 187 0 0 188 0 0 189 0 0 189 0 0 190 0 0 191 0 0 191 0 0 192
0 0 192 0 0 193 0 0 193 0 0 194 0 0 194 0 0 194 0 0 194 0 0 194 0 0
194 0 0 194 0 0 194 0 0 194 0 0 195 0 0 195 0 0 195 0 0 195 0 0 195 0
0 195 0 0 195 0 0 195 0 0 195 0 0 194 0 0 194 0 0 193 0 0 192 0 0 191
0 0 190 0 0 188 0 0 186 0 0 184 0 0 181 0 0 177 0 0 172 0 0 165 0 255
255 255 255 255 255 255 255 255 255 255 255 255 255 255 255 255 255
255 255 255 255 255 255 255 255 255 255 255 255 255 255 255 255 255
255 255 255 255 255 255 255 255 255 255 255 255 255 255 255 255 255
255 255 255 255 255 255 255 255 255 255 255 255 255 255 255 255 255
255 255 255 255 255 255 255 255 255 255 255 255 255 255 255 255 255
255 255 255 255 255 255 255 255 255 255 255 255 255 255 255 255 255
255 255 255 255 255 255 255 255 255 255 255 255 255 255 255 255 255
255 255 255 255 255 255 255 255 255 255 255 255 255 255 255 255 255
255 255 255 255 255 255 255 255 255 255 255 255 255 255 255 255 255
255 255 255 255 255 255 255 255 255 255 255 255 255 255 255 255 255
255 255 255 255 255 255 255 255 255 255 255 255 255 255 255 255 255
255 255 255 255 255 255 255 255 255 255 255 255 255 255 255 255 255
255 255 255 255 255 255 255 255 255 255 255 255 255 255 255 255 255
255 255 255 255 255 255 255 255 255 255 255 255 255 255 255 255 255
255 255 255 255 255 255 255 255 255 255 255 255 255 255 255 255 255
255 255 255 255 255 255 255 255 255 255 255 255 255 255 255 255 255
255 255 255 255 255 255 255 255 255 255 255 255 255 255 255 255 255
255 255 255 255 255 255 255 255 255 255 255 255 255 255 255 255 255
255 255 255 255 255 255 255 255 255 255 255 255 255 255 255 255 255
255 255 255 255 255 255 255 255 255 255 255 255 255 255 255 255 255
255 255 255 255 0 0 62 0 0 59 0 0 60 0 0 65 0 0 70 0 0 74 0 0 78 0 0
83 0 0 88 0 0 92 0 0 96 0 0 100 0 0 104 0 0 107 0 0 111 0 0 114 0 0
117 0 0 120 0 0 123 0 0 126 0 0 129 0 0 132 0 0 135 0 0 137 0 0 140 0
0 142 0 0 145 0 0 147 0 0 149 0 0 151 0 0 154 0 0 156 0 0 158 0 0 160
0 0 162 0 0 164 0 0 165 0 0 167 0 0 169 0 0 171 0 0 172 0 0 174
0 187 0 0 188 0 0 189 0 0 189 0 0 190 0 0 191 0 0 192 0 0 192 0 0 193
0 0 193 0 0 194 0 0 194 0 0 195 0 0 195 0 0 195 0 0 195 0 0 196 0 0
196 0 0 196 0 0 195 0 0 195 0 0 195 0 0 195 0 0 196 0 0 196 0 0 196 0
0 196 0 0 196 0 0 196 0 0 196 0 0 195 0 0 195 0 0 194 0 0 193 0 0 192
0 0 191 0 0 189 0 0 188 0 0 186 0 0 183 0 0 180 0 0 176 0 0 171 0 0
162 0 255 255 255 255 255 255 255 255 255 255 255 255 255 255 255 255
255 255 255 255 255 255 255 255 255 255 255 255 255 255 255 255 255
255 255 255 255 255 255 255 255 255 255 255 255 255 255 255 255 255
255 255 255 255 255 255 255 255 255 255 255 255 255 255 255 255 255
255 255 255 255 255 255 255 255 255 255 255 255 255 255 255 255 255
255 255 255 255 255 255 255 255 255 255 255 255 255 255 255 255 255
255 255 255 255 255 255 255 255 255 255 255 255 255 255 255 255 255
255 255 255 255 255 255 255 255 255 255 255 255 255 255 255 255 255
255 255 255 255 255 255 255 255 255 255 255 255 255 255 255 255 255
255 255 255 255 255 255 255 255 255 255 255 255 255 255 255 255 255
255 255 255 255 255 255 255 255 255 255 255 255 255 255 255 255 255
255 255 255 255 255 255 255 255 255 255 255 255 255 255 255 255 255
255 255 255 255 255 255 255 255 255 255 255 255 255 255 255 255 255
255 255 255 255 255 255 255 255 255 255 255 255 255 255 255 255 255
255 255 255 255 255 255 255 255 255 255 255 255 255 255 255 255 255
255 255 255 255 255 255 255 255 255 255 255 255 255 255 255 255 255
255 255 255 255 255 255 255 255 255 255 255 255 255 255 255 255 255
255 255 255 255 255 255 255 255 255 255 255 255 255 255 255 255 255
255 255 255 255 255 255 255 255 255 255 255 255 255 255 255 255 255
255 255 255 255 255 255 255 255 255 255 255 255 255 255 255 255 255 0
0 63 0 0 60 0 0 57 0 0 62 0 0 67 0 0 71 0 0 75 0 0 80 0 0 85 0 0 89 0
0 94 0 0 98 0 0 101 0 0 105 0 0 109 0 0 112 0 0 115 0 0 118 0 0 121 0
0 124 0 0 127 0 0 130 0 0 133 0 0 136 0 0 138 0 0 141 0 0 143 0 0 145
0 0 148 0 0 150 0 0 152 0 0 154 0 0 156 0 0 159 0 0 161 0 0 162 0 0
164 0 0 166 0 0 168 0 0 170 0 0 171 0 0 173 0 0 175
0 188 0 0 189 0 0 190 0 0 190 0 0 191 0 0 192 0 0 193 0 0 193 0 0 194
0 0 194 0 0 195 0 0 195 0 0 196 0 0 196 0 0 196 0 0 196 0 0 197 0 0
197 0 0 197 0 0 197 0 0 197 0 0 196 0 0 196 0 0 196 0 0 196 0 0 196 0
0 196 0 0 196 0 0 196 0 0 196 0 0 196 0 0 195 0 0 195 0 0 194 0 0 193
0 0 192 0 0 191 0 0 189 0 0 187 0 0 185 0 0 182 0 0 179 0 0 174 0 0
168 0 0 156 0 255 255 255 255 255 255 255 255 255 255 255 255 255 255
255 255 255 255 255 255 255 255 255 255 255 255 255 255 255 255 255
255 255 255 255 255 255 255 255 255 255 255 255 255 255 255 255 255
255 255 255 255 255 255 255 255 255 255 255 255 255 255 255 255 255
255 255 255 255 255 255 255 255 255 255 255 255 255 255 255 255 255
255 255 255 255 255 255 255 255 255 255 255 255 255 255 255 255 255
255 255 255 255 255 255 255 255 255 255 255 255 255 255 255 255 255
255 255 255 255 255 255 255 255 255 255 255 255 255 255 255 255 255
255 255 255 255 255 255 255 255 255 255 255 255 255 255 255 255 255
255 255 255 255 255 255 255 255 255 255 255 255 255 255 255 255 255
255 255 255 255 255 255 255 255 255 255 255 255 255 255 255 255 255
255 255 255 255 255 255 255 255 255 255 255 255 255 255 255 255 255
255 255 255 255 255 255 255 255 255 255 255 255 255 255 255 255 255
255 255 255 255 255 255 255 255 255 255 255 255 255 255 255 255 255
255 255 255 255 255 255 255 255 255 255 255 255 255 255 255 255 255
255 255 255 255 255 255 255 255 255 255 255 255 255 255 255 255 255
255 255 255 255 255 255 255 255 255 255 255 255 255 255 255 255 255
255 255 255 255 255 255 255 255 255 255 255 255 255 255 255 255 255
255 255 255 255 255 255 255 255 255 255 255 255 255 255 255 255 255
255 255 255 255 255 255 255 255 255 255 255 255 255 0 0 65 0 0 60 0 0
57 0 0 58 0 0 63 0 0 68 0 0 72 0 0 77 0 0 82 0 0 87 0 0 91 0 0 95 0 0
99 0 0 103 0 0 106 0 0 110 0 0 113 0 0 116 0 0 119 0 0 122 0 0 125 0
0 128 0 0 131 0 0 134 0 0 136 0 0 139 0 0 141 0 0 144 0 0 146 0 0 149
0 0 151 0 0 153 0 0 155 0 0 157 0 0 159 0 0 161 0 0 163 0 0 165 0 0
167 0 0 169 0 0 170 0 0 172 0 0 174 0 0 175
0 189 0 0 190 0 0 190 0 0 191 0 0 192 0 0 193 0 0 193 0 0 194 0 0 195
0 0 195 0 0 196 0 0 196 0 0 197 0 0 197 0 0 197 0 0 197 0 0 198 0 0
198 0 0 198 0 0 198 0 0 198 0 0 197 0 0 197 0 0 197 0 0 196 0 0 197 0
0 197 0 0 197 0 0 197 0 0 197 0 0 196 0 0 196 0 0 195 0 0 195 0 0 194
0 0 193 0 0 192 0 0 190 0 0 188 0 0 186 0 0 184 0 0 181 0 0 177 0 0
172 0 0 164 0 255 255 255 255 255 255 255 255 255 255 255 255 255 255
255 255 255 255 255 255 255 255 255 255 255 255 255 255 255 255 255
255 255 255 255 255 255 255 255 255 255 255 255 255 255 255 255 255
255 255 255 255 255 255 255 255 255 255 255 255 255 255 255 255 255
255 255 255 255 255 255 255 255 255 255 255 255 255 255 255 255 255
255 255 255 255 255 255 255 255 255 255 255 255 255 255 255 255 255
255 255 255 255 255 255 255 255 255 255 255 255 255 255 255 255 255
255 255 255 255 255 255 255 255 255 255 255 255 255 255 255 255 255
255 255 255 255 255 255 255 255 255 255 255 255 255 255 255 255 255
255 255 255 255 255 255 255 255 255 255 255 255 255 255 255 255 255
255 255 255 255 255 255 255 255 255 255 255 255 255 255 255 255 255
255 255 255 255 255 255 255 255 255 255 255 255 255 255 255 255 255
255 255 255 255 255 255 255 255 255 255 255 255 255 255 255 255 255
255 255 255 255 255 255 255 255 255 255 255 255 255 255 255 255 255
255 255 255 255 255 255 255 255 255 255 255 255 255 255 255 255 255
255 255 255 255 255 255 255 255 255 255 255 255 255 255 255 255 255
255 255 255 255 255 255 255 255 255 255 255 255 255 255 255 255 255
255 255 255 255 255 255 255 255 255 255 255 255 255 255 255 255 255
255 255 255 255 255 255 255 255 255 255 255 255 255 255 255 255 255
255 255 255 255 255 255 255 255 255 255 255 255 255 0 0 61 0 0 58 0 0
55 0 0 59 0 0 64 0 0 69 0 0 74 0 0 79 0 0 84 0 0 88 0 0 92 0 0 96 0 0
100 0 0 104 0 0 107 0 0 111 0 0 114 0 0 117 0 0 120 0 0 123 0 0 126 0
0 129 0 0 132 0 0 135 0 0 137 0 0 140 0 0 142 0 0 145 0 0 147 0 0 149
0 0 151 0 0 154 0 0 156 0 0 158 0 0 160 0 0 162 0 0 164 0 0 166 0 0
167 0 0 169 0 0 171 0 0 172 0 0 174 0 0 176
0 189 0 0 190 0 0 191 0 0 192 0 0 193 0 0 193 0 0 194 0 0 195 0 0 195
0 0 196 0 0 196 0 0 197 0 0 197 0 0 198 0 0 198 0 0 198 0 0 198 0 0
199 0 0 199 0 0 199 0 0 199 0 0 198 0 0 198 0 0 198 0 0 197 0 0 197 0
0 197 0 0 197 0 0 197 0 0 197 0 0 197 0 0 196 0 0 196 0 0 195 0 0 194
0 0 194 0 0 192 0 0 191 0 0 190 0 0 188 0 0 185 0 0 183 0 0 179 0 0
175 0 0 169 0 0 159 0 255 255 255 255 255 255 255 255 255 255 255 255
255 255 255 255 255 255 255 255 255 255 255 255 255 255 255 255 255
255 255 255 255 255 255 255 255 255 255 255 255 255 255 255 255 255
255 255 255 255 255 255 255 255 255 255 255 255 255 255 255 255 255
255 255 255 255 255 255 255 255 255 255 255 255 255 255 255 255 255
255 255 255 255 255 255 255 255 255 255 255 255 255 255 255 255 255
255 255 255 255 255 255 255 255 255 255 255 255 255 255 255 255 255
255 255 255 255 255 255 255 255 255 255 255 255 255 255 255 255 255
255 255 255 255 255 255 255 255 255 255 255 255 255 255 255 255 255
255 255 255 255 255 255 255 255 255 255 255 255 255 255 255 255 255
255 255 255 255 255 255 255 255 255 255 255 255 255 255 255 255 255
255 255 255 255 255 255 255 255 255 255 255 255 255 255 255 255 255
255 255 255 255 255 255 255 255 255 255 255 255 255 255 255 255 255
255 255 255 255 255 255 255 255 255 255 255 255 255 255 255 255 255
255 255 255 255 255 255 255 255 255 255 255 255 255 255 255 255 255
255 255 255 255 255 255 255 255 255 255 255 255 255 255 255 255 255
255 255 255 255 255 255 255 255 255 255 255 255 255 255 255 255 255
255 255 255 255 255 255 255 255 255 255 255 255 255 255 255 255 255
255 255 255 255 255 255 255 255 255 255 255 255 255 255 255 255 255
255 255 255 255 255 255 255 255 255 0 0 62 0 0 58 0 0 56 0 0 55 0 0
60 0 0 66 0 0 71 0 0 76 0 0 81 0 0 85 0 0 90 0 0 94 0 0 98 0 0 101 0
0 105 0 0 108 0 0 112 0 0 115 0 0 118 0 0 121 0 0 124 0 0 127 0 0 130
0 0 133 0 0 135 0 0 138 0 0 140 0 0 143 0 0 145 0 0 147 0 0 150 0 0
152 0 0 154 0 0 156 0 0 158 0 0 160 0 0 162 0 0 164 0 0 166 0 0 168 0
0 170 0 0 171 0 0 173 0 0 175 0 0 176
0 190 0 0 191 0 0 192 0 0 193 0 0 193 0 0 194 0 0 195 0 0 195 0 0 196
0 0 197 0 0 197 0 0 198 0 0 198 0 0 198 0 0 199 0 0 199 0 0 199 0 0
199 0 0 199 0 0 200 0 0 199 0 0 199 0 0 199 0 0 199 0 0 198 0 0 198 0
0 197 0 0 197 0 0 197 0 0 197 0 0 197 0 0 197 0 0 196 0 0 196 0 0 195
0 0 194 0 0 193 0 0 192 0 0 190 0 0 189 0 0 187 0 0 184 0 0 181 0 0
177 0 0 172 0 0 165 0 255 255 255 255 255 255 255 255 255 255 255 255
255 255 255 255 255 255 255 255 255 255 255 255 255 255 255 255 255
255 255 255 255 255 255 255 255 255 255 255 255 255 255 255 255 255
255 255 255 255 255 255 255 255 255 255 255 255 255 255 255 255 255
255 255 255 255 255 255 255 255 255 255 255 255 255 255 255 255 255
255 255 255 255 255 255 255 255 255 255 255 255 255 255 255 255 255
255 255 255 255 255 255 255 255 255 255 255 255 255 255 255 255 255
255 255 255 255 255 255 255 255 255 255 255 255 255 255 255 255 255
255 255 255 255 255 255 255 255 255 255 255 255 255 255 255 255 255
255 255 255 255 255 255 255 255 255 255 255 255 255 255 255 255 255
255 255 255 255 255 255 255 255 255 255 255 255 255 255 255 255 255
255 255 255 255 255 255 255 255 255 255 255 255 255 255 255 255 255
255 255 255 255 255 255 255 255 255 255 255 255 255 255 255 255 255
255 255 255 255 255 255 255 255 255 255 255 255 255 255 255 255 255
255 255 255 255 255 255 255 255 255 255 255 255 255 255 255 255 255
255 255 255 255 255 255 255 255 255 255 255 255 255 255 255 255 255
255 255 255 255 255 255 255 255 255 255 255 255 255 255 255 255 255
255 255 255 255 255 255 255 255 255 255 255 255 255 255 255 255 255
255 255 255 255 255 255 255 255 255 255 255 255 255 255 255 255 255
255 255 255 255 255 255 255 255 255 0 0 59 0 0 56 0 0 54 0 0 56 0 0
62 0 0 67 0 0 73 0 0 78 0 0 82 0 0 87 0 0 91 0 0 95 0 0 99 0 0 102 0
0 106 0 0 109 0 0 113 0 0 116 0 0 119 0 0 122 0 0 125 0 0 128 0 0 131
0 0 133 0 0 136 0 0 138 0 0 141 0 0 143 0 0 146 0 0 148 0 0 150 0 0
152 0 0 155 0 0 157 0 0 159 0 0 161 0 0 163 0 0 165 0 0 166 0 0 168 0
0 170 0 0 172 0 0 173 0 0 175 0 0 176
0 191 0 0 191 0 0 192 0 0 193 0 0 194 0 0 195 0 0 195 0 0 196 0 0 197
0 0 197 0 0 198 0 0 198 0 0 199 0 0 199 0 0 199 0 0 200 0 0 200 0 0
200 0 0 200 0 0 200 0 0 200 0 0 200 0 0 200 0 0 200 0 0 199 0 0 199 0
0 198 0 0 198 0 0 197 0 0 197 0 0 197 0 0 197 0 0 196 0 0 196 0 0 195
0 0 195 0 0 194 0 0 192 0 0 191 0 0 189 0 0 188 0 0 185 0 0 182 0 0
179 0 0 175 0 0 169 0 0 159 0 255 255 255 255 255 255 255 255 255 255
255 255 255 255 255 255 255 255 255 255 255 255 255 255 255 255 255
255 255 255 255 255 255 255 255 255 255 255 255 255 255 255 255 255
255 255 255 255 255 255 255 255 255 255 255 255 255 255 255 255 255
255 255 255 255 255 255 255 255 255 255 255 255 255 255 255 255 255
255 255 255 255 255 255 255 255 255 255 255 255 255 255 255 255 255
255 255 255 255 255 255 255 255 255 255 255 255 255 255 255 255 255
255 255 255 255 255 255 255 255 255 255 255 255 255 255 255 255 255
255 255 255 255 255 255 255 255 255 255 255 255 255 255 255 255 255
255 255 255 255 255 255 255 255 255 255 255 255 255 255 255 255 255
255 255 255 255 255 255 255 255 255 255 255 255 255 255 255 255 255
255 255 255 255 255 255 255 255 255 255 255 255 255 255 255 255 255
255 255 255 255 255 255 255 255 255 255 255 255 255 255 255 255 255
255 255 255 255 255 255 255 255 255 255 255 255 255 255 255 255 255
255 255 255 255 255 255 255 255 255 255 255 255 255 255 255 255 255
255 255 255 255 255 255 255 255 255 255 255 255 255 255 255 255 255
255 255 255 255 255 255 255 255 255 255 255 255 255 255 255 255 255
255 255 255 255 255 255 255 255 255 255 255 255 255 255 255 255 255
255 255 255 255 255 255 255 255 255 255 255 255 255 255 255 255 255
255 255 255 255 255 0 0 61 0 0 57 0 0 54 0 0 52 0 0 58 0 0 64 0 0 69
0 0 74 0 0 79 0 0 84 0 0 88 0 0 92 0 0 96 0 0 100 0 0 103 0 0 107 0 0
110 0 0 113 0 0 117 0 0 120 0 0 123 0 0 126 0 0 128 0 0 131 0 0 134 0
0 136 0 0 139 0 0 141 0 0 144 0 0 146 0 0 148 0 0 151 0 0 153 0 0 155
0 0 157 0 0 159 0 0 161 0 0 163 0 0 165 0 0 167 0 0 168 0 0 170 0 0
172 0 0 174 0 0 175 0 0 177
0 191 0 0 192 0 0 193 0 0 194 0 0 195 0 0 195 0 0 196 0 0 197 0 0 197
0 0 198 0 0 198 0 0 199 0 0 199 0 0 200 0 0 200 0 0 200 0 0 201 0 0
201 0 0 201 0 0 201 0 0 201 0 0 201 0 0 201 0 0 200 0 0 200 0 0 200 0
0 199 0 0 199 0 0 198 0 0 197 0 0 197 0 0 197 0 0 197 0 0 196 0 0 196
0 0 195 0 0 194 0 0 193 0 0 192 0 0 190 0 0 188 0 0 186 0 0 184 0 0
180 0 0 177 0 0 171 0 0 164 0 255 255 255 255 255 255 255 255 255 255
255 255 255 255 255 255 255 255 255 255 255 255 255 255 255 255 255
255 255 255 255 255 255 255 255 255 255 255 255 255 255 255 255 255
255 255 255 255 255 255 255 255 255 255 255 255 255 255 255 255 255
255 255 255 255 255 255 255 255 255 255 255 255 255 255 255 255 255
255 255 255 255 255 255 255 255 255 255 255 255 255 255 255 255 255
255 255 255 255 255 255 255 255 255 255 255 255 255 255 255 255 255
255 255 255 255 255 255 255 255 255 255 255 255 255 255 255 255 255
255 255 255 255 255 255 255 255 255 255 255 255 255 255 255 255 255
255 255 255 255 255 255 255 255 255 255 255 255 255 255 255 255 255
255 255 255 255 255 255 255 255 255 255 255 255 255 255 255 255 255
255 255 255 255 255 255 255 255 255 255 255 255 255 255 255 255 255
255 255 255 255 255 255 255 255 255 255 255 255 255 255 255 255 255
255 255 255 255 255 255 255 255 255 255 255 255 255 255 255 255 255
255 255 255 255 255 255 255 255 255 255 255 255 255 255 255 255 255
255 255 255 255 255 255 255 255 255 255 255 255 255 255 255 255 255
255 255 255 255 255 255 255 255 255 255 255 255 255 255 255 255 255
255 255 255 255 255 255 255 255 255 255 255 255 255 255 255 255 255
255 255 255 255 255 255 255 255 255 255 255 255 255 255 255 255 255
255 255 255 255 255 0 0 58 0 0 55 0 0 52 0 0 53 0 0 60 0 0 65 0 0 71
0 0 76 0 0 80 0 0 85 0 0 89 0 0 93 0 0 97 0 0 101 0 0 104 0 0 108 0 0
111 0 0 114 0 0 117 0 0 120 0 0 123 0 0 126 0 0 129 0 0 132 0 0 134 0
0 137 0 0 139 0 0 142 0 0 144 0 0 147 0 0 149 0 0 151 0 0 153 0 0 155
0 0 157 0 0 159 0 0 161 0 0 163 0 0 165 0 0 167 0 0 169 0 0 170 0 0
172 0 0 174 0 0 175 0 0 177
0 192 0 0 192 0 0 193 0 0 194 0 0 195 0 0 196 0 0 196 0 0 197 0 0 198
0 0 198 0 0 199 0 0 199 0 0 200 0 0 200 0 0 201 0 0 201 0 0 201 0 0
201 0 0 202 0 0 202 0 0 202 0 0 202 0 0 201 0 0 201 0 0 201 0 0 201 0
0 200 0 0 200 0 0 199 0 0 198 0 0 197 0 0 197 0 0 197 0 0 196 0 0 196
0 0 195 0 0 194 0 0 193 0 0 192 0 0 191 0 0 189 0 0 187 0 0 185 0 0
182 0 0 178 0 0 174 0 0 167 0 0 157 0 255 255 255 255 255 255 255 255
255 255 255 255 255 255 255 255 255 255 255 255 255 255 255 255 255
255 255 255 255 255 255 255 255 255 255 255 255 255 255 255 255 255
255 255 255 255 255 255 255 255 255 255 255 255 255 255 255 255 255
255 255 255 255 255 255 255 255 255 255 255 255 255 255 255 255 255
255 255 255 255 255 255 255 255 255 255 255 255 255 255 255 255 255
255 255 255 255 255 255 255 255 255 255 255 255 255 255 255 255 255
255 255 255 255 255 255 255 255 255 255 255 255 255 255 255 255 255
255 255 255 255 255 255 255 255 255 255 255 255 255 255 255 255 255
255 255 255 255 255 255 255 255 255 255 255 255 255 255 255 255 255
255 255 255 255 255 255 255 255 255 255 255 255 255 255 255 255 255
255 255 255 255 255 255 255 255 255 255 255 255 255 255 255 255 255
255 255 255 255 255 255 255 255 255 255 255 255 255 255 255 255 255
255 255 255 255 255 255 255 255 255 255 255 255 255 255 255 255 255
255 255 255 255 255 255 255 255 255 255 255 255 255 255 255 255 255
255 255 255 255 255 255 255 255 255 255 255 255 255 255 255 255 255
255 255 255 255 255 255 255 255 255 255 255 255 255 255 255 255 255
255 255 255 255 255 255 255 255 255 255 255 255 255 255 255 255 255
255 255 255 255 255 255 255 255 255 255 255 255 255 255 255 255 255
255 0 0 60 0 0 55 0 0 53 0 0 51 0 0 55 0 0 61 0 0 67 0 0 72 0 0 77 0
0 81 0 0 86 0 0 90 0 0 94 0 0 98 0 0 101 0 0 105 0 0 108 0 0 111 0 0
115 0 0 118 0 0 121 0 0 124 0 0 127 0 0 129 0 0 132 0 0 135 0 0 137 0
0 140 0 0 142 0 0 144 0 0 147 0 0 149 0 0 151 0 0 153 0 0 156 0 0 158
0 0 160 0 0 162 0 0 163 0 0 165 0 0 167 0 0 169 0 0 171 0 0 172 0 0
174 0 0 176 0 0 177
0 192 0 0 193 0 0 194 0 0 195 0 0 195 0 0 196 0 0 197 0 0 198 0 0 198
0 0 199 0 0 199 0 0 200 0 0 200 0 0 201 0 0 201 0 0 201 0 0 202 0 0
202 0 0 202 0 0 202 0 0 202 0 0 202 0 0 202 0 0 202 0 0 202 0 0 201 0
0 201 0 0 200 0 0 200 0 0 199 0 0 198 0 0 197 0 0 197 0 0 196 0 0 196
0 0 195 0 0 194 0 0 193 0 0 192 0 0 191 0 0 189 0 0 188 0 0 185 0 0
183 0 0 179 0 0 175 0 0 170 0 0 162 0 255 255 255 255 255 255 255 255
255 255 255 255 255 255 255 255 255 255 255 255 255 255 255 255 255
255 255 255 255 255 255 255 255 255 255 255 255 255 255 255 255 255
255 255 255 255 255 255 255 255 255 255 255 255 255 255 255 255 255
255 255 255 255 255 255 255 255 255 255 255 255 255 255 255 255 255
255 255 255 255 255 255 255 255 255 255 255 255 255 255 255 255 255
255 255 255 255 255 255 255 255 255 255 255 255 255 255 255 255 255
255 255 255 255 255 255 255 255 255 255 255 255 255 255 255 255 255
255 255 255 255 255 255 255 255 255 255 255 255 255 255 255 255 255
255 255 255 255 255 255 255 255 255 255 255 255 255 255 255 255 255
255 255 255 255 255 255 255 255 255 255 255 255 255 255 255 255 255
255 255 255 255 255 255 255 255 255 255 255 255 255 255 255 255 255
255 255 255 255 255 255 255 255 255 255 255 255 255 255 255 255 255
255 255 255 255 255 255 255 255 255 255 255 255 255 255 255 255 255
255 255 255 255 255 255 255 255 255 255 255 255 255 255 255 255 255
255 255 255 255 255 255 255 255 255 255 255 255 255 255 255 255 255
255 255 255 255 255 255 255 255 255 255 255 255 255 255 255 255 255
255 255 255 255 255 255 255 255 255 255 255 255 255 255 255 255 255
255 255 255 255 255 255 255 255 255 255 255 255 255 255 255 255 255
255 0 0 57 0 0 54 0 0 51 0 0 51 0 0 57 0 0 63 0 0 68 0 0 73 0 0 78 0
0 82 0 0 87 0 0 91 0 0 95 0 0 98 0 0 102 0 0 105 0 0 109 0 0 112 0 0
115 0 0 118 0 0 121 0 0 124 0 0 127 0 0 130 0 0 132 0 0 135 0 0 137 0
0 140 0 0 142 0 0 145 0 0 147 0 0 149 0 0 151 0 0 154 0 0 156 0 0 158
0 0 160 0 0 162 0 0 164 0 0 165 0 0 167 0 0 169 0 0 171 0 0 172 0 0
174 0 0 176 0 0 177
0 192 0 0 193 0 0 194 0 0 195 0 0 196 0 0 196 0 0 197 0 0 198 0 0 199
0 0 199 0 0 200 0 0 200 0 0 201 0 0 201 0 0 202 0 0 202 0 0 202 0 0
202 0 0 202 0 0 203 0 0 203 0 0 203 0 0 202 0 0 202 0 0 202 0 0 202 0
0 201 0 0 201 0 0 200 0 0 200 0 0 199 0 0 198 0 0 197 0 0 196 0 0 196
0 0 195 0 0 194 0 0 194 0 0 192 0 0 191 0 0 190 0 0 188 0 0 186 0 0
183 0 0 180 0 0 177 0 0 172 0 0 165 0 0 153 0 255 255 255 255 255 255
255 255 255 255 255 255 255 255 255 255 255 255 255 255 255 255 255
255 255 255 255 255 255 255 255 255 255 255 255 255 255 255 255 255
255 255 255 255 255 255 255 255 255 255 255 255 255 255 255 255 255
255 255 255 255 255 255 255 255 255 255 255 255 255 255 255 255 255
255 255 255 255 255 255 255 255 255 255 255 255 255 255 255 255 255
255 255 255 255 255 255 255 255 255 255 255 255 255 255 255 255 255
255 255 255 255 255 255 255 255 255 255 255 255 255 255 255 255 255
255 255 255 255 255 255 255 255 255 255 255 255 255 255 255 255 255
255 255 255 255 255 255 255 255 255 255 255 255 255 255 255 255 255
255 255 255 255 255 255 255 255 255 255 255 255 255 255 255 255 255
255 255 255 255 255 255 255 255 255 255 255 255 255 255 255 255 255
255 255 255 255 255 255 255 255 255 255 255 255 255 255 255 255 255
255 255 255 255 255 255 255 255 255 255 255 255 255 255 255 255 255
255 255 255 255 255 255 255 255 255 255 255 255 255 255 255 255 255
255 255 255 255 255 255 255 255 255 255 255 255 255 255 255 255 255
255 255 255 255 255 255 255 255 255 255 255 255 255 255 255 255 255
255 255 255 255 255 255 255 255 255 255 255 255 255 255 255 255 255
255 255 255 255 255 255 255 255 255 255 255 255 255 255 0 0 59 0 0 55
0 0 52 0 0 51 0 0 52 0 0 58 0 0 64 0 0 69 0 0 74 0 0 79 0 0 83 0 0 87
0 0 91 0 0 95 0 0 99 0 0 102 0 0 106 0 0 109 0 0 112 0 0 116 0 0 119
0 0 122 0 0 124 0 0 127 0 0 130 0 0 133 0 0 135 0 0 138 0 0 140 0 0
143 0 0 145 0 0 147 0 0 149 0 0 152 0 0 154 0 0 156 0 0 158 0 0 160 0
0 162 0 0 164 0 0 166 0 0 167 0 0 169 0 0 171 0 0 172 0 0 174 0 0 176
0 0 177
0 193 0 0 193 0 0 194 0 0 195 0 0 196 0 0 197 0 0 198 0 0 198 0 0 199
0 0 199 0 0 200 0 0 201 0 0 201 0 0 201 0 0 202 0 0 202 0 0 202 0 0
203 0 0 203 0 0 203 0 0 203 0 0 203 0 0 203 0 0 203 0 0 203 0 0 202 0
0 202 0 0 201 0 0 201 0 0 200 0 0 199 0 0 198 0 0 197 0 0 196 0 0 196
0 0 195 0 0 194 0 0 194 0 0 193 0 0 191 0 0 190 0 0 188 0 0 186 0 0
184 0 0 181 0 0 178 0 0 173 0 0 167 0 0 158 0 255 255 255 255 255 255
255 255 255 255 255 255 255 255 255 255 255 255 255 255 255 255 255
255 255 255 255 255 255 255 255 255 255 255 255 255 255 255 255 255
255 255 255 255 255 255 255 255 255 255 255 255 255 255 255 255 255
255 255 255 255 255 255 255 255 255 255 255 255 255 255 255 255 255
255 255 255 255 255 255 255 255 255 255 255 255 255 255 255 255 255
255 255 255 255 255 255 255 255 255 255 255 255 255 255 255 255 255
255 255 255 255 255 255 255 255 255 255 255 255 255 255 255 255 255
255 255 255 255 255 255 255 255 255 255 255 255 255 255 255 255 255
255 255 255 255 255 255 255 255 255 255 255 255 255 255 255 255 255
255 255 255 255 255 255 255 255 255 255 255 255 255 255 255 255 255
255 255 255 255 255 255 255 255 255 255 255 255 255 255 255 255 255
255 255 255 255 255 255 255 255 255 255 255 255 255 255 255 255 255
255 255 255 255 255 255 255 255 255 255 255 255 255 255 255 255 255
255 255 255 255 255 255 255 255 255 255 255 255 255 255 255 255 255
255 255 255 255 255 255 255 255 255 255 255 255 255 255 255 255 255
255 255 255 255 255 255 255 255 255 255 255 255 255 255 255 255 255
255 255 255 255 255 255 255 255 255 255 255 255 255 255 255 255 255
255 255 255 255 255 255 255 255 255 255 255 255 255 255 0 0 56 0 0 53
0 0 51 0 0 51 0 0 54 0 0 60 0 0 65 0 0 70 0 0 75 0 0 80 0 0 84 0 0 88
0 0 92 0 0 96 0 0 99 0 0 103 0 0 106 0 0 110 0 0 113 0 0 116 0 0 119
0 0 122 0 0 125 0 0 127 0 0 130 0 0 133 0 0 135 0 0 138 0 0 140 0 0
143 0 0 145 0 0 147 0 0 149 0 0 152 0 0 154 0 0 156 0 0 158 0 0 160 0
0 162 0 0 164 0 0 166 0 0 167 0 0 169 0 0 171 0 0 172 0 0 174 0 0 176
0 0 177
0 193 0 0 194 0 0 195 0 0 195 0 0 196 0 0 197 0 0 198 0 0 198 0 0 199
0 0 200 0 0 200 0 0 201 0 0 201 0 0 202 0 0 202 0 0 202 0 0 203 0 0
203 0 0 203 0 0 203 0 0 203 0 0 203 0 0 203 0 0 203 0 0 203 0 0 203 0
0 202 0 0 202 0 0 201 0 0 201 0 0 200 0 0 199 0 0 198 0 0 197 0 0 196
0 0 195 0 0 194 0 0 193 0 0 192 0 0 191 0 0 190 0 0 188 0 0 186 0 0
184 0 0 182 0 0 178 0 0 174 0 0 169 0 0 161 0 255 255 255 255 255 255
255 255 255 255 255 255 255 255 255 255 255 255 255 255 255 255 255
255 255 255 255 255 255 255 255 255 255 255 255 255 255 255 255 255
255 255 255 255 255 255 255 255 255 255 255 255 255 255 255 255 255
255 255 255 255 255 255 255 255 255 255 255 255 255 255 255 255 255
255 255 255 255 255 255 255 255 255 255 255 255 255 255 255 255 255
255 255 255 255 255 255 255 255 255 255 255 255 255 255 255 255 255
255 255 255 255 255 255 255 255 255 255 255 255 255 255 255 255 255
255 255 255 255 255 255 255 255 255 255 255 255 255 255 255 255 255
255 255 255 255 255 255 255 255 255 255 255 255 255 255 255 255 255
255 255 255 255 255 255 255 255 255 255 255 255 255 255 255 255 255
255 255 255 255 255 255 255 255 255 255 255 255 255 255 255 255 255
255 255 255 255 255 255 255 255 255 255 255 255 255 255 255 255 255
255 255 255 255 255 255 255 255 255 255 255 255 255 255 255 255 255
255 255 255 255 255 255 255 255 255 255 255 255 255 255 255 255 255
255 255 255 255 255 255 255 255 255 255 255 255 255 255 255 255 255
255 255 255 255 255 255 255 255 255 255 255 255 255 255 255 255 255
255 255 255 255 255 255 255 255 255 255 255 255 255 255 255 255 255
255 255 255 255 255 255 255 255 255 255 255 255 255 255 0 0 54 0 0 51
0 0 51 0 0 51 0 0 55 0 0 61 0 0 66 0 0 71 0 0 76 0 0 80 0 0 84 0 0 88
0 0 92 0 0 96 0 0 100 0 0 103 0 0 107 0 0 110 0 0 113 0 0 116 0 0 119
0 0 122 0 0 125 0 0 128 0 0 130 0 0 133 0 0 135 0 0 138 0 0 140 0 0
143 0 0 145 0 0 147 0 0 150 0 0 152 0 0 154 0 0 156 0 0 158 0 0 160 0
0 162 0 0 164 0 0 165 0 0 167 0 0 169 0 0 171 0 0 172 0 0 174 0 0 176
0 0 177
0 193 0 0 194 0 0 195 0 0 196 0 0 196 0 0 197 0 0 198 0 0 199 0 0 199
0 0 200 0 0 200 0 0 201 0 0 201 0 0 202 0 0 202 0 0 203 0 0 203 0 0
203 0 0 203 0 0 204 0 0 204 0 0 204 0 0 204 0 0 203 0 0 203 0 0 203 0
0 203 0 0 202 0 0 202 0 0 201 0 0 200 0 0 199 0 0 198 0 0 197 0 0 196
0 0 195 0 0 194 0 0 193 0 0 192 0 0 191 0 0 190 0 0 188 0 0 187 0 0
184 0 0 182 0 0 179 0 0 175 0 0 170 0 0 164 0 0 152 0 255 255 255 255
255 255 255 255 255 255 255 255 255 255 255 255 255 255 255 255 255
255 255 255 255 255 255 255 255 255 255 255 255 255 255 255 255 255
255 255 255 255 255 255 255 255 255 255 255 255 255 255 255 255 255
255 255 255 255 255 255 255 255 255 255 255 255 255 255 255 255 255
255 255 255 255 255 255 255 255 255 255 255 255 255 255 255 255 255
255 255 255 255 255 255 255 255 255 255 255 255 255 255 255 255 255
255 255 255 255 255 255 255 255 255 255 255 255 255 255 255 255 255
255 255 255 255 255 255 255 255 255 255 255 255 255 255 255 255 255
255 255 255 255 255 255 255 255 255 255 255 255 255 255 255 255 255
255 255 255 255 255 255 255 255 255 255 255 255 255 255 255 255 255
255 255 255 255 255 255 255 255 255 255 255 255 255 255 255 255 255
255 255 255 255 255 255 255 255 255 255 255 255 255 255 255 255 255
255 255 255 255 255 255 255 255 255 255 255 255 255 255 255 255 255
255 255 255 255 255 255 255 255 255 255 255 255 255 255 255 255 255
255 255 255 255 255 255 255 255 255 255 255 255 255 255 255 255 255
255 255 255 255 255 255 255 255 255 255 255 255 255 255 255 255 255
255 255 255 255 255 255 255 255 255 255 255 255 255 255 255 255 255
255 255 255 255 255 255 255 255 255 255 0 0 57 0 0 52 0 0 51 0 0 51 0
0 51 0 0 56 0 0 61 0 0 67 0 0 72 0 0 76 0 0 81 0 0 85 0 0 89 0 0 93 0
0 96 0 0 100 0 0 103 0 0 107 0 0 110 0 0 113 0 0 116 0 0 119 0 0 122
0 0 125 0 0 128 0 0 130 0 0 133 0 0 135 0 0 138 0 0 140 0 0 143 0 0
145 0 0 147 0 0 149 0 0 152 0 0 154 0 0 156 0 0 158 0 0 160 0 0 162 0
0 164 0 0 165 0 0 167 0 0 169 0 0 171 0 0 172 0 0 174 0 0 175 0 0 177
0 193 0 0 194 0 0 195 0 0 196 0 0 196 0 0 197 0 0 198 0 0 199 0 0 199
0 0 200 0 0 201 0 0 201 0 0 202 0 0 202 0 0 202 0 0 203 0 0 203 0 0
203 0 0 204 0 0 204 0 0 204 0 0 204 0 0 204 0 0 204 0 0 203 0 0 203 0
0 203 0 0 202 0 0 202 0 0 201 0 0 201 0 0 200 0 0 199 0 0 198 0 0 197
0 0 195 0 0 194 0 0 193 0 0 192 0 0 191 0 0 190 0 0 188 0 0 186 0 0
184 0 0 182 0 0 179 0 0 176 0 0 171 0 0 165 0 0 156 0 255 255 255 255
255 255 255 255 255 255 255 255 255 255 255 255 255 255 255 255 255
255 255 255 255 255 255 255 255 255 255 255 255 255 255 255 255 255
255 255 255 255 255 255 255 255 255 255 255 255 255 255 255 255 255
255 255 255 255 255 255 255 255 255 255 255 255 255 255 255 255 255
255 255 255 255 255 255 255 255 255 255 255 255 255 255 255 255 255
255 255 255 255 255 255 255 255 255 255 255 255 255 255 255 255 255
255 255 255 255 255 255 255 255 255 255 255 255 255 255 255 255 255
255 255 255 255 255 255 255 255 255 255 255 255 255 255 255 255 255
255 255 255 255 255 255 255 255 255 255 255 255 255 255 255 255 255
255 255 255 255 255 255 255 255 255 255 255 255 255 255 255 255 255
255 255 255 255 255 255 255 255 255 255 255 255 255 255 255 255 255
255 255 255 255 255 255 255 255 255 255 255 255 255 255 255 255 255
255 255 255 255 255 255 255 255 255 255 255 255 255 255 255 255 255
255 255 255 255 255 255 255 255 255 255 255 255 255 255 255 255 255
255 255 255 255 255 255 255 255 255 255 255 255 255 255 255 255 255
255 255 255 255 255 255 255 255 255 255 255 255 255 255 255 255 255
255 255 255 255 255 255 255 255 255 255 255 255 255 255 255 255 255
255 255 255 255 255 255 255 255 255 255 0 0 54 0 0 51 0 0 51 0 0 51 0
0 51 0 0 57 0 0 62 0 0 67 0 0 72 0 0 77 0 0 81 0 0 85 0 0 89 0 0 93 0
0 97 0 0 100 0 0 104 0 0 107 0 0 110 0 0 113 0 0 116 0 0 119 0 0 122
0 0 125 0 0 128 0 0 130 0 0 133 0 0 135 0 0 138 0 0 140 0 0 143 0 0
145 0 0 147 0 0 149 0 0 151 0 0 154 0 0 156 0 0 158 0 0 160 0 0 161 0
0 163 0 0 165 0 0 167 0 0 169 0 0 170 0 0 172 0 0 174 0 0 175 0 0 177
0 193 0 0 194 0 0 195 0 0 196 0 0 197 0 0 197 0 0 198 0 0 199 0 0 199
0 0 200 0 0 201 0 0 201 0 0 202 0 0 202 0 0 203 0 0 203 0 0 203 0 0
203 0 0 204 0 0 204 0 0 204 0 0 204 0 0 204 0 0 204 0 0 204 0 0 203 0
0 203 0 0 203 0 0 202 0 0 202 0 0 201 0 0 200 0 0 199 0 0 198 0 0 197
0 0 196 0 0 194 0 0 193 0 0 192 0 0 191 0 0 189 0 0 188 0 0 186 0 0
184 0 0 182 0 0 179 0 0 176 0 0 172 0 0 166 0 0 158 0 255 255 255 255
255 255 255 255 255 255 255 255 255 255 255 255 255 255 255 255 255
255 255 255 255 255 255 255 255 255 255 255 255 255 255 255 255 255
255 255 255 255 255 255 255 255 255 255 255 255 255 255 255 255 255
255 255 255 255 255 255 255 255 255 255 255 255 255 255 255 255 255
255 255 255 255 255 255 255 255 255 255 255 255 255 255 255 255 255
255 255 255 255 255 255 255 255 255 255 255 255 255 255 255 255 255
255 255 255 255 255 255 255 255 255 255 255 255 255 255 255 255 255
255 255 255 255 255 255 255 255 255 255 255 255 255 255 255 255 255
255 255 255 255 255 255 255 255 255 255 255 255 255 255 255 255 255
255 255 255 255 255 255 255 255 255 255 255 255 255 255 255 255 255
255 255 255 255 255 255 255 255 255 255 255 255 255 255 255 255 255
255 255 255 255 255 255 255 255 255 255 255 255 255 255 255 255 255
255 255 255 255 255 255 255 255 255 255 255 255 255 255 255 255 255
255 255 255 255 255 255 255 255 255 255 255 255 255 255 255 255 255
255 255 255 255 255 255 255 255 255 255 255 255 255 255 255 255 255
255 255 255 255 255 255 255 255 255 255 255 255 255 255 255 255 255
255 255 255 255 255 255 255 255 255 255 255 255 255 255 255 255 255
255 255 255 255 255 255 255 255 255 255 0 0 53 0 0 51 0 0 51 0 0 51 0
0 51 0 0 57 0 0 63 0 0 68 0 0 73 0 0 77 0 0 81 0 0 85 0 0 89 0 0 93 0
0 97 0 0 100 0 0 104 0 0 107 0 0 110 0 0 113 0 0 116 0 0 119 0 0 122
0 0 125 0 0 128 0 0 130 0 0 133 0 0 135 0 0 138 0 0 140 0 0 142 0 0
145 0 0 147 0 0 149 0 0 151 0 0 153 0 0 155 0 0 157 0 0 159 0 0 161 0
0 163 0 0 165 0 0 167 0 0 168 0 0 170 0 0 172 0 0 173 0 0 175 0 0 176
0 193 0 0 194 0 0 195 0 0 196 0 0 196 0 0 197 0 0 198 0 0 199 0 0 199
0 0 200 0 0 201 0 0 201 0 0 202 0 0 202 0 0 203 0 0 203 0 0 203 0 0
204 0 0 204 0 0 204 0 0 204 0 0 204 0 0 204 0 0 204 0 0 204 0 0 203 0
0 203 0 0 203 0 0 202 0 0 202 0 0 201 0 0 200 0 0 199 0 0 198 0 0 197
0 0 196 0 0 194 0 0 193 0 0 191 0 0 190 0 0 189 0 0 188 0 0 186 0 0
184 0 0 182 0 0 179 0 0 176 0 0 172 0 0 167 0 0 160 0 0 145 0 255 255
255 255 255 255 255 255 255 255 255 255 255 255 255 255 255 255 255
255 255 255 255 255 255 255 255 255 255 255 255 255 255 255 255 255
255 255 255 255 255 255 255 255 255 255 255 255 255 255 255 255 255
255 255 255 255 255 255 255 255 255 255 255 255 255 255 255 255 255
255 255 255 255 255 255 255 255 255 255 255 255 255 255 255 255 255
255 255 255 255 255 255 255 255 255 255 255 255 255 255 255 255 255
255 255 255 255 255 255 255 255 255 255 255 255 255 255 255 255 255
255 255 255 255 255 255 255 255 255 255 255 255 255 255 255 255 255
255 255 255 255 255 255 255 255 255 255 255 255 255 255 255 255 255
255 255 255 255 255 255 255 255 255 255 255 255 255 255 255 255 255
255 255 255 255 255 255 255 255 255 255 255 255 255 255 255 255 255
255 255 255 255 255 255 255 255 255 255 255 255 255 255 255 255 255
255 255 255 255 255 255 255 255 255 255 255 255 255 255 255 255 255
255 255 255 255 255 255 255 255 255 255 255 255 255 255 255 255 255
255 255 255 255 255 255 255 255 255 255 255 255 255 255 255 255 255
255 255 255 255 255 255 255 255 255 255 255 255 255 255 255 255 255
255 255 255 255 255 255 255 255 255 255 255 255 255 255 255 255 255
255 255 255 255 255 255 0 0 56 0 0 51 0 0 51 0 0 51 0 0 51 0 0 52 0 0
58 0 0 63 0 0 68 0 0 73 0 0 77 0 0 82 0 0 86 0 0 89 0 0 93 0 0 97 0 0
100 0 0 104 0 0 107 0 0 110 0 0 113 0 0 116 0 0 119 0 0 122 0 0 125 0
0 127 0 0 130 0 0 133 0 0 135 0 0 138 0 0 140 0 0 142 0 0 145 0 0 147
0 0 149 0 0 151 0 0 153 0 0 155 0 0 157 0 0 159 0 0 161 0 0 163 0 0
165 0 0 166 0 0 168 0 0 170 0 0 171 0 0 173 0 0 175 0 0 176
0 193 0 0 194 0 0 195 0 0 196 0 0 196 0 0 197 0 0 198 0 0 199 0 0 199
0 0 200 0 0 201 0 0 201 0 0 202 0 0 202 0 0 203 0 0 203 0 0 203 0 0
203 0 0 204 0 0 204 0 0 204 0 0 204 0 0 204 0 0 204 0 0 204 0 0 203 0
0 203 0 0 203 0 0 202 0 0 202 0 0 201 0 0 200 0 0 199 0 0 198 0 0 197
0 0 196 0 0 195 0 0 193 0 0 191 0 0 190 0 0 189 0 0 187 0 0 186 0 0
184 0 0 182 0 0 179 0 0 176 0 0 172 0 0 167 0 0 161 0 0 149 0 255 255
255 255 255 255 255 255 255 255 255 255 255 255 255 255 255 255 255
255 255 255 255 255 255 255 255 255 255 255 255 255 255 255 255 255
255 255 255 255 255 255 255 255 255 255 255 255 255 255 255 255 255
255 255 255 255 255 255 255 255 255 255 255 255 255 255 255 255 255
255 255 255 255 255 255 255 255 255 255 255 255 255 255 255 255 255
255 255 255 255 255 255 255 255 255 255 255 255 255 255 255 255 255
255 255 255 255 255 255 255 255 255 255 255 255 255 255 255 255 255
255 255 255 255 255 255 255 255 255 255 255 255 255 255 255 255 255
255 255 255 255 255 255 255 255 255 255 255 255 255 255 255 255 255
255 255 255 255 255 255 255 255 255 255 255 255 255 255 255 255 255
255 255 255 255 255 255 255 255 255 255 255 255 255 255 255 255 255
255 255 255 255 255 255 255 255 255 255 255 255 255 255 255 255 255
255 255 255 255 255 255 255 255 255 255 255 255 255 255 255 255 255
255 255 255 255 255 255 255 255 255 255 255 255 255 255 255 255 255
255 255 255 255 255 255 255 255 255 255 255 255 255 255 255 255 255
255 255 255 255 255 255 255 255 255 255 255 255 255 255 255 255 255
255 255 255 255 255 255 255 255 255 255 255 255 255 255 255 255 255
255 255 255 255 255 255 0 0 54 0 0 51 0 0 51 0 0 51 0 0 51 0 0 53 0 0
58 0 0 63 0 0 68 0 0 73 0 0 77 0 0 82 0 0 86 0 0 90 0 0 93 0 0 97 0 0
100 0 0 104 0 0 107 0 0 110 0 0 113 0 0 116 0 0 119 0 0 122 0 0 125 0
0 127 0 0 130 0 0 132 0 0 135 0 0 137 0 0 140 0 0 142 0 0 144 0 0 146
0 0 149 0 0 151 0 0 153 0 0 155 0 0 157 0 0 159 0 0 161 0 0 163 0 0
164 0 0 166 0 0 168 0 0 169 0 0 171 0 0 173 0 0 174 0 0 176
0 193 0 0 194 0 0 195 0 0 195 0 0 196 0 0 197 0 0 198 0 0 199 0 0 199
0 0 200 0 0 200 0 0 201 0 0 202 0 0 202 0 0 202 0 0 203 0 0 203 0 0
203 0 0 204 0 0 204 0 0 204 0 0 204 0 0 204 0 0 204 0 0 204 0 0 203 0
0 203 0 0 203 0 0 202 0 0 202 0 0 201 0 0 200 0 0 200 0 0 199 0 0 197
0 0 196 0 0 195 0 0 193 0 0 192 0 0 190 0 0 188 0 0 187 0 0 185 0 0
183 0 0 181 0 0 179 0 0 176 0 0 172 0 0 168 0 0 161 0 0 152 0 255 255
255 255 255 255 255 255 255 255 255 255 255 255 255 255 255 255 255
255 255 255 255 255 255 255 255 255 255 255 255 255 255 255 255 255
255 255 255 255 255 255 255 255 255 255 255 255 255 255 255 255 255
255 255 255 255 255 255 255 255 255 255 255 255 255 255 255 255 255
255 255 255 255 255 255 255 255 255 255 255 255 255 255 255 255 255
255 255 255 255 255 255 255 255 255 255 255 255 255 255 255 255 255
255 255 255 255 255 255 255 255 255 255 255 255 255 255 255 255 255
255 255 255 255 255 255 255 255 255 255 255 255 255 255 255 255 255
255 255 255 255 255 255 255 255 255 255 255 255 255 255 255 255 255
255 255 255 255 255 255 255 255 255 255 255 255 255 255 255 255 255
255 255 255 255 255 255 255 255 255 255 255 255 255 255 255 255 255
255 255 255 255 255 255 255 255 255 255 255 255 255 255 255 255 255
255 255 255 255 255 255 255 255 255 255 255 255 255 255 255 255 255
255 255 255 255 255 255 255 255 255 255 255 255 255 255 255 255 255
255 255 255 255 255 255 255 255 255 255 255 255 255 255 255 255 255
255 255 255 255 255 255 255 255 255 255 255 255 255 255 255 255 255
255 255 255 255 255 255 255 255 255 255 255 255 255 255 255 255 255
255 255 255 255 255 255 0 0 52 0 0 51 0 0 51 0 0 51 0 0 51 0 0 53 0 0
59 0 0 64 0 0 69 0 0 73 0 0 78 0 0 82 0 0 86 0 0 89 0 0 93 0 0 97 0 0
100 0 0 103 0 0 107 0 0 110 0 0 113 0 0 116 0 0 119 0 0 122 0 0 124 0
0 127 0 0 130 0 0 132 0 0 135 0 0 137 0 0 139 0 0 142 0 0 144 0 0 146
0 0 148 0 0 150 0 0 152 0 0 155 0 0 156 0 0 158 0 0 160 0 0 162 0 0
164 0 0 166 0 0 167 0 0 169 0 0 171 0 0 172 0 0 174 0 0 175
0 193 0 0 194 0 0 194 0 0 195 0 0 196 0 0 197 0 0 198 0 0 198 0 0 199
0 0 200 0 0 200 0 0 201 0 0 201 0 0 202 0 0 202 0 0 203 0 0 203 0 0
203 0 0 203 0 0 204 0 0 204 0 0 204 0 0 204 0 0 204 0 0 204 0 0 203 0
0 203 0 0 203 0 0 202 0 0 202 0 0 201 0 0 200 0 0 199 0 0 199 0 0 197
0 0 196 0 0 195 0 0 193 0 0 192 0 0 190 0 0 188 0 0 186 0 0 185 0 0
183 0 0 181 0 0 178 0 0 175 0 0 172 0 0 168 0 0 162 0 0 153 0 255 255
255 255 255 255 255 255 255 255 255 255 255 255 255 255 255 255 255
255 255 255 255 255 255 255 255 255 255 255 255 255 255 255 255 255
255 255 255 255 255 255 255 255 255 255 255 255 255 255 255 255 255
255 255 255 255 255 255 255 255 255 255 255 255 255 255 255 255 255
255 255 255 255 255 255 255 255 255 255 255 255 255 255 255 255 255
255 255 255 255 255 255 255 255 255 255 255 255 255 255 255 255 255
255 255 255 255 255 255 255 255 255 255 255 255 255 255 255 255 255
255 255 255 255 255 255 255 255 255 255 255 255 255 255 255 255 255
255 255 255 255 255 255 255 255 255 255 255 255 255 255 255 255 255
255 255 255 255 255 255 255 255 255 255 255 255 255 255 255 255 255
255 255 255 255 255 255 255 255 255 255 255 255 255 255 255 255 255
255 255 255 255 255 255 255 255 255 255 255 255 255 255 255 255 255
255 255 255 255 255 255 255 255 255 255 255 255 255 255 255 255 255
255 255 255 255 255 255 255 255 255 255 255 255 255 255 255 255 255
255 255 255 255 255 255 255 255 255 255 255 255 255 255 255 255 255
255 255 255 255 255 255 255 255 255 255 255 255 255 255 255 255 255
255 255 255 255 255 255 255 255 255 255 255 255 255 255 255 255 255
255 255 255 255 255 255 0 0 51 0 0 51 0 0 51 0 0 51 0 0 51 0 0 53 0 0
59 0 0 64 0 0 69 0 0 73 0 0 77 0 0 82 0 0 86 0 0 89 0 0 93 0 0 97 0 0
100 0 0 103 0 0 106 0 0 110 0 0 113 0 0 116 0 0 118 0 0 121 0 0 124 0
0 127 0 0 129 0 0 132 0 0 134 0 0 137 0 0 139 0 0 141 0 0 144 0 0 146
0 0 148 0 0 150 0 0 152 0 0 154 0 0 156 0 0 158 0 0 160 0 0 162 0 0
163 0 0 165 0 0 167 0 0 169 0 0 170 0 0 172 0 0 173 0 0 175
0 192 0 0 193 0 0 194 0 0 195 0 0 196 0 0 197 0 0 197 0 0 198 0 0 199
0 0 200 0 0 200 0 0 201 0 0 201 0 0 202 0 0 202 0 0 202 0 0 203 0 0
203 0 0 203 0 0 203 0 0 204 0 0 204 0 0 204 0 0 204 0 0 203 0 0 203 0
0 203 0 0 203 0 0 202 0 0 202 0 0 201 0 0 200 0 0 199 0 0 198 0 0 197
0 0 196 0 0 195 0 0 193 0 0 192 0 0 190 0 0 188 0 0 185 0 0 184 0 0
182 0 0 180 0 0 178 0 0 175 0 0 172 0 0 167 0 0 162 0 0 154 0 255 255
255 255 255 255 255 255 255 255 255 255 255 255 255 255 255 255 255
255 255 255 255 255 255 255 255 255 255 255 255 255 255 255 255 255
255 255 255 255 255 255 255 255 255 255 255 255 255 255 255 255 255
255 255 255 255 255 255 255 255 255 255 255 255 255 255 255 255 255
255 255 255 255 255 255 255 255 255 255 255 255 255 255 255 255 255
255 255 255 255 255 255 255 255 255 255 255 255 255 255 255 255 255
255 255 255 255 255 255 255 255 255 255 255 255 255 255 255 255 255
255 255 255 255 255 255 255 255 255 255 255 255 255 255 255 255 255
255 255 255 255 255 255 255 255 255 255 255 255 255 255 255 255 255
255 255 255 255 255 255 255 255 255 255 255 255 255 255 255 255 255
255 255 255 255 255 255 255 255 255 255 255 255 255 255 255 255 255
255 255 255 255 255 255 255 255 255 255 255 255 255 255 255 255 255
255 255 255 255 255 255 255 255 255 255 255 255 255 255 255 255 255
255 255 255 255 255 255 255 255 255 255 255 255 255 255 255 255 255
255 255 255 255 255 255 255 255 255 255 255 255 255 255 255 255 255
255 255 255 255 255 255 255 255 255 255 255 255 255 255 255 255 255
255 255 255 255 255 255 255 255 255 255 255 255 255 255 255 255 255
255 255 255 255 255 255 0 0 51 0 0 51 0 0 51 0 0 51 0 0 51 0 0 53 0 0
59 0 0 64 0 0 69 0 0 73 0 0 77 0 0 81 0 0 85 0 0 89 0 0 93 0 0 96 0 0
100 0 0 103 0 0 106 0 0 109 0 0 112 0 0 115 0 0 118 0 0 121 0 0 124 0
0 126 0 0 129 0 0 131 0 0 134 0 0 136 0 0 139 0 0 141 0 0 143 0 0 145
0 0 147 0 0 150 0 0 152 0 0 154 0 0 156 0 0 157 0 0 159 0 0 161 0 0
163 0 0 165 0 0 166 0 0 168 0 0 170 0 0 171 0 0 173 0 0 174
0 192 0 0 193 0 0 194 0 0 195 0 0 196 0 0 196 0 0 197 0 0 198 0 0 199
0 0 199 0 0 200 0 0 200 0 0 201 0 0 201 0 0 202 0 0 202 0 0 202 0 0
203 0 0 203 0 0 203 0 0 203 0 0 203 0 0 203 0 0 203 0 0 203 0 0 203 0
0 203 0 0 202 0 0 202 0 0 201 0 0 201 0 0 200 0 0 199 0 0 198 0 0 197
0 0 196 0 0 195 0 0 193 0 0 192 0 0 190 0 0 188 0 0 185 0 0 183 0 0
182 0 0 180 0 0 177 0 0 174 0 0 171 0 0 167 0 0 162 0 0 154 0 0 137 0
255 255 255 255 255 255 255 255 255 255 255 255 255 255 255 255 255
255 255 255 255 255 255 255 255 255 255 255 255 255 255 255 255 255
255 255 255 255 255 255 255 255 255 255 255 255 255 255 255 255 255
255 255 255 255 255 255 255 255 255 255 255 255 255 255 255 255 255
255 255 255 255 255 255 255 255 255 255 255 255 255 255 255 255 255
255 255 255 255 255 255 255 255 255 255 255 255 255 255 255 255 255
255 255 255 255 255 255 255 255 255 255 255 255 255 255 255 255 255
255 255 255 255 255 255 255 255 255 255 255 255 255 255 255 255 255
255 255 255 255 255 255 255 255 255 255 255 255 255 255 255 255 255
255 255 255 255 255 255 255 255 255 255 255 255 255 255 255 255 255
255 255 255 255 255 255 255 255 255 255 255 255 255 255 255 255 255
255 255 255 255 255 255 255 255 255 255 255 255 255 255 255 255 255
255 255 255 255 255 255 255 255 255 255 255 255 255 255 255 255 255
255 255 255 255 255 255 255 255 255 255 255 255 255 255 255 255 255
255 255 255 255 255 255 255 255 255 255 255 255 255 255 255 255 255
255 255 255 255 255 255 255 255 255 255 255 255 255 255 255 255 255
255 255 255 255 255 255 255 255 255 255 255 255 255 255 255 255 255
255 255 0 0 53 0 0 51 0 0 51 0 0 51 0 0 51 0 0 51 0 0 53 0 0 59 0 0
64 0 0 68 0 0 73 0 0 77 0 0 81 0 0 85 0 0 89 0 0 92 0 0 96 0 0 99 0 0
103 0 0 106 0 0 109 0 0 112 0 0 115 0 0 118 0 0 120 0 0 123 0 0 126 0
0 128 0 0 131 0 0 133 0 0 136 0 0 138 0 0 140 0 0 143 0 0 145 0 0 147
0 0 149 0 0 151 0 0 153 0 0 155 0 0 157 0 0 159 0 0 161 0 0 162 0 0
164 0 0 166 0 0 168 0 0 169 0 0 171 0 0 172 0 0 174
0 192 0 0 193 0 0 194 0 0 195 0 0 195 0 0 196 0 0 197 0 0 198 0 0 198
0 0 199 0 0 200 0 0 200 0 0 201 0 0 201 0 0 201 0 0 202 0 0 202 0 0
202 0 0 203 0 0 203 0 0 203 0 0 203 0 0 203 0 0 203 0 0 203 0 0 203 0
0 202 0 0 202 0 0 202 0 0 201 0 0 200 0 0 200 0 0 199 0 0 198 0 0 197
0 0 196 0 0 194 0 0 193 0 0 191 0 0 190 0 0 188 0 0 185 0 0 183 0 0
181 0 0 179 0 0 176 0 0 174 0 0 170 0 0 166 0 0 161 0 0 154 0 0 140 0
255 255 255 255 255 255 255 255 255 255 255 255 255 255 255 255 255
255 255 255 255 255 255 255 255 255 255 255 255 255 255 255 255 255
255 255 255 255 255 255 255 255 255 255 255 255 255 255 255 255 255
255 255 255 255 255 255 255 255 255 255 255 255 255 255 255 255 255
255 255 255 255 255 255 255 255 255 255 255 255 255 255 255 255 255
255 255 255 255 255 255 255 255 255 255 255 255 255 255 255 255 255
255 255 255 255 255 255 255 255 255 255 255 255 255 255 255 255 255
255 255 255 255 255 255 255 255 255 255 255 255 255 255 255 255 255
255 255 255 255 255 255 255 255 255 255 255 255 255 255 255 255 255
255 255 255 255 255 255 255 255 255 255 255 255 255 255 255 255 255
255 255 255 255 255 255 255 255 255 255 255 255 255 255 255 255 255
255 255 255 255 255 255 255 255 255 255 255 255 255 255 255 255 255
255 255 255 255 255 255 255 255 255 255 255 255 255 255 255 255 255
255 255 255 255 255 255 255 255 255 255 255 255 255 255 255 255 255
255 255 255 255 255 255 255 255 255 255 255 255 255 255 255 255 255
255 255 255 255 255 255 255 255 255 255 255 255 255 255 255 255 255
255 255 255 255 255 255 255 255 255 255 255 255 255 255 255 255 255
255 255 0 0 51 0 0 51 0 0 51 0 0 51 0 0 51 0 0 51 0 0 53 0 0 58 0 0
63 0 0 68 0 0 73 0 0 77 0 0 81 0 0 85 0 0 88 0 0 92 0 0 96 0 0 99 0 0
102 0 0 105 0 0 108 0 0 111 0 0 114 0 0 117 0 0 120 0 0 123 0 0 125 0
0 128 0 0 130 0 0 133 0 0 135 0 0 138 0 0 140 0 0 142 0 0 144 0 0 146
0 0 148 0 0 151 0 0 153 0 0 154 0 0 156 0 0 158 0 0 160 0 0 162 0 0
164 0 0 165 0 0 167 0 0 169 0 0 170 0 0 172 0 0 173
0 191 0 0 192 0 0 193 0 0 194 0 0 195 0 0 196 0 0 197 0 0 197 0 0 198
0 0 199 0 0 199 0 0 200 0 0 200 0 0 201 0 0 201 0 0 201 0 0 202 0 0
202 0 0 202 0 0 202 0 0 203 0 0 203 0 0 203 0 0 203 0 0 202 0 0 202 0
0 202 0 0 202 0 0 201 0 0 201 0 0 200 0 0 199 0 0 199 0 0 198 0 0 197
0 0 195 0 0 194 0 0 193 0 0 191 0 0 189 0 0 187 0 0 185 0 0 183 0 0
180 0 0 178 0 0 176 0 0 173 0 0 170 0 0 166 0 0 161 0 0 154 0 0 141 0
255 255 255 255 255 255 255 255 255 255 255 255 255 255 255 255 255
255 255 255 255 255 255 255 255 255 255 255 255 255 255 255 255 255
255 255 255 255 255 255 255 255 255 255 255 255 255 255 255 255 255
255 255 255 255 255 255 255 255 255 255 255 255 255 255 255 255 255
255 255 255 255 255 255 255 255 255 255 255 255 255 255 255 255 255
255 255 255 255 255 255 255 255 255 255 255 255 255 255 255 255 255
255 255 255 255 255 255 255 255 255 255 255 255 255 255 255 255 255
255 255 255 255 255 255 255 255 255 255 255 255 255 255 255 255 255
255 255 255 255 255 255 255 255 255 255 255 255 255 255 255 255 255
255 255 255 255 255 255 255 255 255 255 255 255 255 255 255 255 255
255 255 255 255 255 255 255 255 255 255 255 255 255 255 255 255 255
255 255 255 255 255 255 255 255 255 255 255 255 255 255 255 255 255
255 255 255 255 255 255 255 255 255 255 255 255 255 255 255 255 255
255 255 255 255 255 255 255 255 255 255 255 255 255 255 255 255 255
255 255 255 255 255 255 255 255 255 255 255 255 255 255 255 255 255
255 255 255 255 255 255 255 255 255 255 255 255 255 255 255 255 255
255 255 255 255 255 255 255 255 255 255 255 255 255 255 255 255 255
255 255 0 0 51 0 0 51 0 0 51 0 0 51 0 0 51 0 0 51 0 0 53 0 0 58 0 0
63 0 0 68 0 0 72 0 0 76 0 0 80 0 0 84 0 0 88 0 0 92 0 0 95 0 0 98 0 0
102 0 0 105 0 0 108 0 0 111 0 0 114 0 0 117 0 0 119 0 0 122 0 0 125 0
0 127 0 0 130 0 0 132 0 0 135 0 0 137 0 0 139 0 0 141 0 0 144 0 0 146
0 0 148 0 0 150 0 0 152 0 0 154 0 0 156 0 0 158 0 0 159 0 0 161 0 0
163 0 0 165 0 0 166 0 0 168 0 0 169 0 0 171 0 0 172
0 191 0 0 192 0 0 193 0 0 194 0 0 195 0 0 195 0 0 196 0 0 197 0 0 197
0 0 198 0 0 199 0 0 199 0 0 200 0 0 200 0 0 201 0 0 201 0 0 201 0 0
202 0 0 202 0 0 202 0 0 202 0 0 202 0 0 202 0 0 202 0 0 202 0 0 202 0
0 202 0 0 201 0 0 201 0 0 200 0 0 200 0 0 199 0 0 198 0 0 197 0 0 196
0 0 195 0 0 194 0 0 192 0 0 191 0 0 189 0 0 187 0 0 185 0 0 182 0 0
179 0 0 177 0 0 175 0 0 172 0 0 169 0 0 165 0 0 160 0 0 153 0 0 142 0
255 255 255 255 255 255 255 255 255 255 255 255 255 255 255 255 255
255 255 255 255 255 255 255 255 255 255 255 255 255 255 255 255 255
255 255 255 255 255 255 255 255 255 255 255 255 255 255 255 255 255
255 255 255 255 255 255 255 255 255 255 255 255 255 255 255 255 255
255 255 255 255 255 255 255 255 255 255 255 255 255 255 255 255 255
255 255 255 255 255 255 255 255 255 255 255 255 255 255 255 255 255
255 255 255 255 255 255 255 255 255 255 255 255 255 255 255 255 255
255 255 255 255 255 255 255 255 255 255 255 255 255 255 255 255 255
255 255 255 255 255 255 255 255 255 255 255 255 255 255 255 255 255
255 255 255 255 255 255 255 255 255 255 255 255 255 255 255 255 255
255 255 255 255 255 255 255 255 255 255 255 255 255 255 255 255 255
255 255 255 255 255 255 255 255 255 255 255 255 255 255 255 255 255
255 255 255 255 255 255 255 255 255 255 255 255 255 255 255 255 255
255 255 255 255 255 255 255 255 255 255 255 255 255 255 255 255 255
255 255 255 255 255 255 255 255 255 255 255 255 255 255 255 255 255
255 255 255 255 255 255 255 255 255 255 255 255 255 255 255 255 255
255 255 255 255 255 255 255 255 255 255 255 255 255 255 255 255 255
255 255 0 0 51 0 0 51 0 0 51 0 0 51 0 0 51 0 0 51 0 0 53 0 0 58 0 0
63 0 0 67 0 0 72 0 0 76 0 0 80 0 0 84 0 0 88 0 0 91 0 0 95 0 0 98 0 0
101 0 0 104 0 0 107 0 0 110 0 0 113 0 0 116 0 0 119 0 0 121 0 0 124 0
0 127 0 0 129 0 0 132 0 0 134 0 0 136 0 0 139 0 0 141 0 0 143 0 0 145
0 0 147 0 0 149 0 0 151 0 0 153 0 0 155 0 0 157 0 0 159 0 0 160 0 0
162 0 0 164 0 0 166 0 0 167 0 0 169 0 0 170 0 0 172
0 191 0 0 192 0 0 192 0 0 193 0 0 194 0 0 195 0 0 196 0 0 196 0 0 197
0 0 198 0 0 198 0 0 199 0 0 199 0 0 200 0 0 200 0 0 201 0 0 201 0 0
201 0 0 201 0 0 202 0 0 202 0 0 202 0 0 202 0 0 202 0 0 202 0 0 201 0
0 201 0 0 201 0 0 200 0 0 200 0 0 199 0 0 199 0 0 198 0 0 197 0 0 196
0 0 195 0 0 193 0 0 192 0 0 190 0 0 188 0 0 186 0 0 184 0 0 182 0 0
179 0 0 176 0 0 173 0 0 171 0 0 168 0 0 164 0 0 159 0 0 152 0 0 141 0
255 255 255 255 255 255 255 255 255 255 255 255 255 255 255 255 255
255 255 255 255 255 255 255 255 255 255 255 255 255 255 255 255 255
255 255 255 255 255 255 255 255 255 255 255 255 255 255 255 255 255
255 255 255 255 255 255 255 255 255 255 255 255 255 255 255 255 255
255 255 255 255 255 255 255 255 255 255 255 255 255 255 255 255 255
255 255 255 255 255 255 255 255 255 255 255 255 255 255 255 255 255
255 255 255 255 255 255 255 255 255 255 255 255 255 255 255 255 255
255 255 255 255 255 255 255 255 255 255 255 255 255 255 255 255 255
255 255 255 255 255 255 255 255 255 255 255 255 255 255 255 255 255
255 255 255 255 255 255 255 255 255 255 255 255 255 255 255 255 255
255 255 255 255 255 255 255 255 255 255 255 255 255 255 255 255 255
255 255 255 255 255 255 255 255 255 255 255 255 255 255 255 255 255
255 255 255 255 255 255 255 255 255 255 255 255 255 255 255 255 255
255 255 255 255 255 255 255 255 255 255 255 255 255 255 255 255 255
255 255 255 255 255 255 255 255 255 255 255 255 255 255 255 255 255
255 255 255 255 255 255 255 255 255 255 255 255 255 255 255 255 255
255 255 255 255 255 255 255 255 255 255 255 255 255 255 255 255 255
255 255 0 0 51 0 0 51 0 0 51 0 0 51 0 0 51 0 0 51 0 0 52 0 0 57 0 0
62 0 0 67 0 0 71 0 0 75 0 0 79 0 0 83 0 0 87 0 0 91 0 0 94 0 0 97 0 0
101 0 0 104 0 0 107 0 0 110 0 0 113 0 0 115 0 0 118 0 0 121 0 0 123 0
0 126 0 0 128 0 0 131 0 0 133 0 0 136 0 0 138 0 0 140 0 0 142 0 0 144
0 0 146 0 0 148 0 0 150 0 0 152 0 0 154 0 0 156 0 0 158 0 0 160 0 0
161 0 0 163 0 0 165 0 0 166 0 0 168 0 0 170 0 0 171
0 190 0 0 191 0 0 192 0 0 193 0 0 194 0 0 194 0 0 195 0 0 196 0 0 196
0 0 197 0 0 198 0 0 198 0 0 199 0 0 199 0 0 200 0 0 200 0 0 200 0 0
201 0 0 201 0 0 201 0 0 201 0 0 201 0 0 201 0 0 201 0 0 201 0 0 201 0
0 201 0 0 200 0 0 200 0 0 199 0 0 199 0 0 198 0 0 197 0 0 196 0 0 195
0 0 194 0 0 193 0 0 191 0 0 190 0 0 188 0 0 186 0 0 184 0 0 181 0 0
178 0 0 175 0 0 172 0 0 170 0 0 166 0 0 163 0 0 158 0 0 151 0 0 140 0
255 255 255 255 255 255 255 255 255 255 255 255 255 255 255 255 255
255 255 255 255 255 255 255 255 255 255 255 255 255 255 255 255 255
255 255 255 255 255 255 255 255 255 255 255 255 255 255 255 255 255
255 255 255 255 255 255 255 255 255 255 255 255 255 255 255 255 255
255 255 255 255 255 255 255 255 255 255 255 255 255 255 255 255 255
255 255 255 255 255 255 255 255 255 255 255 255 255 255 255 255 255
255 255 255 255 255 255 255 255 255 255 255 255 255 255 255 255 255
255 255 255 255 255 255 255 255 255 255 255 255 255 255 255 255 255
255 255 255 255 255 255 255 255 255 255 255 255 255 255 255 255 255
255 255 255 255 255 255 255 255 255 255 255 255 255 255 255 255 255
255 255 255 255 255 255 255 255 255 255 255 255 255 255 255 255 255
255 255 255 255 255 255 255 255 255 255 255 255 255 255 255 255 255
255 255 255 255 255 255 255 255 255 255 255 255 255 255 255 255 255
255 255 255 255 255 255 255 255 255 255 255 255 255 255 255 255 255
255 255 255 255 255 255 255 255 255 255 255 255 255 255 255 255 255
255 255 255 255 255 255 255 255 255 255 255 255 255 255 255 255 255
255 255 255 255 255 255 255 255 255 255 255 255 255 255 255 255 255
255 255 0 0 51 0 0 51 0 0 51 0 0 51 0 0 51 0 0 51 0 0 52 0 0 57 0 0
62 0 0 66 0 0 71 0 0 75 0 0 79 0 0 83 0 0 86 0 0 90 0 0 93 0 0 97 0 0
100 0 0 103 0 0 106 0 0 109 0 0 112 0 0 115 0 0 117 0 0 120 0 0 123 0
0 125 0 0 128 0 0 130 0 0 133 0 0 135 0 0 137 0 0 139 0 0 141 0 0 144
0 0 146 0 0 148 0 0 150 0 0 152 0 0 154 0 0 155 0 0 157 0 0 159 0 0
161 0 0 162 0 0 164 0 0 166 0 0 167 0 0 169 0 0 170
0 190 0 0 190 0 0 191 0 0 192 0 0 193 0 0 194 0 0 195 0 0 195 0 0 196
0 0 197 0 0 197 0 0 198 0 0 198 0 0 199 0 0 199 0 0 199 0 0 200 0 0
200 0 0 200 0 0 200 0 0 201 0 0 201 0 0 201 0 0 201 0 0 200 0 0 200 0
0 200 0 0 200 0 0 199 0 0 199 0 0 198 0 0 197 0 0 197 0 0 196 0 0 195
0 0 193 0 0 192 0 0 191 0 0 189 0 0 187 0 0 185 0 0 183 0 0 181 0 0
178 0 0 175 0 0 171 0 0 168 0 0 165 0 0 161 0 0 156 0 0 150 0 0 139 0
255 255 255 255 255 255 255 255 255 255 255 255 255 255 255 255 255
255 255 255 255 255 255 255 255 255 255 255 255 255 255 255 255 255
255 255 255 255 255 255 255 255 255 255 255 255 255 255 255 255 255
255 255 255 255 255 255 255 255 255 255 255 255 255 255 255 255 255
255 255 255 255 255 255 255 255 255 255 255 255 255 255 255 255 255
255 255 255 255 255 255 255 255 255 255 255 255 255 255 255 255 255
255 255 255 255 255 255 255 255 255 255 255 255 255 255 255 255 255
255 255 255 255 255 255 255 255 255 255 255 255 255 255 255 255 255
255 255 255 255 255 255 255 255 127 0 0 255 255 255 255 255 255 255
255 255 255 255 255 255 255 255 255 255 255 255 255 255 255 255 255
255 255 255 255 255 255 255 255 255 255 255 255 255 255 255 255 255
255 255 255 255 255 255 255 255 255 255 255 255 255 255 255 255 255
255 255 255 255 255 255 255 255 255 255 255 255 255 255 255 255 255
255 255 255 255 255 255 255 255 255 255 255 255 255 255 255 255 255
255 255 255 255 255 255 255 255 255 255 255 255 255 255 255 255 255
255 255 255 255 255 255 255 255 255 255 255 255 255 255 255 255 255
255 255 255 255 255 255 255 255 255 255 255 255 255 255 255 255 255
255 0 0 51 0 0 51 0 0 51 0 0 51 0 0 51 0 0 51 0 0 51 0 0 56 0 0 61 0
0 66 0 0 70 0 0 74 0 0 78 0 0 82 0 0 86 0 0 89 0 0 93 0 0 96 0 0 99 0
0 102 0 0 105 0 0 108 0 0 111 0 0 114 0 0 117 0 0 119 0 0 122 0 0 124
0 0 127 0 0 129 0 0 132 0 0 134 0 0 136 0 0 139 0 0 141 0 0 143 0 0
145 0 0 147 0 0 149 0 0 151 0 0 153 0 0 155 0 0 156 0 0 158 0 0 160 0
0 161 0 0 163 0 0 165 0 0 166 0 0 168 0 0 169
0 189 0 0 190 0 0 191 0 0 192 0 0 192 0 0 193 0 0 194 0 0 195 0 0 195
0 0 196 0 0 196 0 0 197 0 0 198 0 0 198 0 0 198 0 0 199 0 0 199 0 0
199 0 0 200 0 0 200 0 0 200 0 0 200 0 0 200 0 0 200 0 0 200 0 0 200 0
0 199 0 0 199 0 0 198 0 0 198 0 0 197 0 0 197 0 0 196 0 0 195 0 0 194
0 0 193 0 0 191 0 0 190 0 0 188 0 0 187 0 0 185 0 0 182 0 0 180 0 0
177 0 0 174 0 0 170 0 0 167 0 0 164 0 0 160 0 0 155 0 0 148 0 0 138 0
255 255 255 255 255 255 255 255 255 255 255 255 255 255 255 255 255
255 255 255 255 255 255 255 255 255 255 255 255 255 255 255 255 255
255 255 255 255 255 255 255 255 255 255 255 255 255 255 255 255 255
255 255 255 255 255 255 255 255 255 255 255 255 255 255 255 255 255
255 255 255 255 255 255 255 255 255 255 255 255 255 255 255 255 255
255 255 255 255 255 255 255 255 255 255 255 255 255 255 255 255 255
255 255 255 255 255 255 255 255 255 115 0 0 120 0 0 123 0 0 126 0 0
129 0 0 131 0 0 134 0 0 136 0 0 138 0 0 139 0 0 141 0 0 143 0 0 144 0
0 145 0 0 146 0 0 147 0 0 148 0 0 149 0 0 149 0 0 150 0 0 150 0 0 149
0 0 147 0 0 255 255 255 255 255 255 255 255 255 255 255 255 255 255
255 255 255 255 255 255 255 255 255 255 255 255 255 255 255 255 255
255 255 255 255 255 255 255 255 255 255 255 255 255 255 255 255 255
255 255 255 255 255 255 255 255 255 255 255 255 255 255 255 255 255
255 255 255 255 255 255 255 255 255 255 255 255 255 255 255 255 255
255 255 255 255 255 255 255 255 255 255 255 255 255 255 255 255 255
255 255 255 255 255 255 255 255 255 255 255 255 0 0 51 0 0 51 0 0 51
0 0 51 0 0 51 0 0 51 0 0 51 0 0 55 0 0 60 0 0 65 0 0 69 0 0 73 0 0 77
0 0 81 0 0 85 0 0 88 0 0 92 0 0 95 0 0 98 0 0 101 0 0 104 0 0 107 0 0
110 0 0 113 0 0 116 0 0 119 0 0 121 0 0 124 0 0 126 0 0 129 0 0 131 0
0 133 0 0 135 0 0 138 0 0 140 0 0 142 0 0 144 0 0 146 0 0 148 0 0 150
0 0 152 0 0 154 0 0 155 0 0 157 0 0 159 0 0 161 0 0 162 0 0 164 0 0
165 0 0 167 0 0 168
0 188 0 0 189 0 0 190 0 0 191 0 0 192 0 0 192 0 0 193 0 0 194 0 0 195
0 0 195 0 0 196 0 0 196 0 0 197 0 0 197 0 0 198 0 0 198 0 0 198 0 0
199 0 0 199 0 0 199 0 0 199 0 0 199 0 0 199 0 0 199 0 0 199 0 0 199 0
0 198 0 0 198 0 0 198 0 0 197 0 0 197 0 0 196 0 0 195 0 0 194 0 0 193
0 0 192 0 0 191 0 0 189 0 0 188 0 0 186 0 0 184 0 0 182 0 0 179 0 0
176 0 0 173 0 0 170 0 0 166 0 0 162 0 0 158 0 0 153 0 0 147 0 0 136 0
255 255 255 255 255 255 255 255 255 255 255 255 255 255 255 255 255
255 255 255 255 255 255 255 255 255 255 255 255 255 255 255 255 255
255 255 255 255 255 255 255 255 255 255 255 255 255 255 255 255 255
255 255 255 255 255 255 255 255 255 255 255 255 255 255 255 255 255
255 255 255 255 255 255 255 255 255 255 255 255 255 255 255 255 255
255 255 255 255 255 255 255 255 255 255 255 106 0 0 112 0 0 117 0 0
120 0 0 123 0 0 126 0 0 129 0 0 131 0 0 133 0 0 136 0 0 138 0 0 139 0
0 141 0 0 143 0 0 145 0 0 146 0 0 148 0 0 149 0 0 151 0 0 152 0 0 153
0 0 154 0 0 155 0 0 156 0 0 157 0 0 157 0 0 158 0 0 158 0 0 158 0 0
158 0 0 157 0 0 156 0 0 152 0 0 255 255 255 255 255 255 255 255 255
255 255 255 255 255 255 255 255 255 255 255 255 255 255 255 255 255
255 255 255 255 255 255 255 255 255 255 255 255 255 255 255 255 255
255 255 255 255 255 255 255 255 255 255 255 255 255 255 255 255 255
255 255 255 255 255 255 255 255 255 255 255 255 255 255 255 255 255
255 255 255 255 255 255 255 255 255 255 255 255 255 255 255 255 255
255 255 0 0 51 0 0 51 0 0 51 0 0 51 0 0 51 0 0 51 0 0 51 0 0 54 0 0
59 0 0 64 0 0 68 0 0 72 0 0 76 0 0 80 0 0 84 0 0 87 0 0 91 0 0 94 0 0
97 0 0 101 0 0 104 0 0 107 0 0 109 0 0 112 0 0 115 0 0 118 0 0 120 0
0 123 0 0 125 0 0 128 0 0 130 0 0 132 0 0 135 0 0 137 0 0 139 0 0 141
0 0 143 0 0 145 0 0 147 0 0 149 0 0 151 0 0 153 0 0 154 0 0 156 0 0
158 0 0 160 0 0 161 0 0 163 0 0 164 0 0 166 0 0 167
0 188 0 0 188 0 0 189 0 0 190 0 0 191 0 0 192 0 0 192 0 0 193 0 0 194
0 0 194 0 0 195 0 0 196 0 0 196 0 0 197 0 0 197 0 0 197 0 0 198 0 0
198 0 0 198 0 0 198 0 0 198 0 0 198 0 0 198 0 0 198 0 0 198 0 0 198 0
0 198 0 0 197 0 0 197 0 0 196 0 0 196 0 0 195 0 0 194 0 0 193 0 0 192
0 0 191 0 0 190 0 0 188 0 0 187 0 0 185 0 0 183 0 0 181 0 0 178 0 0
175 0 0 172 0 0 169 0 0 165 0 0 161 0 0 157 0 0 152 0 0 145 0 0 133 0
255 255 255 255 255 255 255 255 255 255 255 255 255 255 255 255 255
255 255 255 255 255 255 255 255 255 255 255 255 255 255 255 255 255
255 255 255 255 255 255 255 255 255 255 255 255 255 255 255 255 255
255 255 255 255 255 255 255 255 255 255 255 255 255 255 255 255 255
255 255 255 255 255 255 255 255 255 255 255 255 255 255 255 255 255
255 255 105 0 0 110 0 0 114 0 0 118 0 0 121 0 0 124 0 0 126 0 0 129 0
0 131 0 0 133 0 0 136 0 0 138 0 0 140 0 0 142 0 0 143 0 0 145 0 0 147
0 0 149 0 0 150 0 0 152 0 0 153 0 0 154 0 0 156 0 0 157 0 0 158 0 0
159 0 0 160 0 0 161 0 0 162 0 0 163 0 0 163 0 0 164 0 0 164 0 0 164 0
0 164 0 0 164 0 0 163 0 0 162 0 0 160 0 0 255 255 255 255 255 255 255
255 255 255 255 255 255 255 255 255 255 255 255 255 255 255 255 255
255 255 255 255 255 255 255 255 255 255 255 255 255 255 255 255 255
255 255 255 255 255 255 255 255 255 255 255 255 255 255 255 255 255
255 255 255 255 255 255 255 255 255 255 255 255 255 255 255 255 255
255 255 255 255 255 255 255 255 255 255 255 255 0 0 51 0 0 51 0 0 51
0 0 51 0 0 51 0 0 51 0 0 51 0 0 53 0 0 58 0 0 63 0 0 67 0 0 71 0 0 75
0 0 79 0 0 83 0 0 87 0 0 90 0 0 93 0 0 97 0 0 100 0 0 103 0 0 106 0 0
108 0 0 111 0 0 114 0 0 117 0 0 119 0 0 122 0 0 124 0 0 127 0 0 129 0
0 131 0 0 134 0 0 136 0 0 138 0 0 140 0 0 142 0 0 144 0 0 146 0 0 148
0 0 150 0 0 152 0 0 154 0 0 155 0 0 157 0 0 159 0 0 160 0 0 162 0 0
163 0 0 165 0 0 166
0 187 0 0 188 0 0 189 0 0 189 0 0 190 0 0 191 0 0 192 0 0 192 0 0 193
0 0 194 0 0 194 0 0 195 0 0 195 0 0 196 0 0 196 0 0 196 0 0 197 0 0
197 0 0 197 0 0 197 0 0 198 0 0 198 0 0 198 0 0 197 0 0 197 0 0 197 0
0 197 0 0 196 0 0 196 0 0 195 0 0 195 0 0 194 0 0 193 0 0 192 0 0 191
0 0 190 0 0 189 0 0 187 0 0 186 0 0 184 0 0 182 0 0 180 0 0 177 0 0
174 0 0 171 0 0 168 0 0 163 0 0 159 0 0 155 0 0 150 0 0 143 0 0 130 0
255 255 255 255 255 255 255 255 255 255 255 255 255 255 255 255 255
255 255 255 255 255 255 255 255 255 255 255 255 255 255 255 255 255
255 255 255 255 255 255 255 255 255 255 255 255 255 255 255 255 255
255 255 255 255 255 255 255 255 255 255 255 255 255 255 255 255 255
255 255 255 255 255 255 255 255 255 255 100 0 0 106 0 0 110 0 0 114 0
0 117 0 0 120 0 0 123 0 0 125 0 0 128 0 0 130 0 0 133 0 0 135 0 0 137
0 0 139 0 0 141 0 0 143 0 0 145 0 0 146 0 0 148 0 0 150 0 0 151 0 0
153 0 0 154 0 0 156 0 0 157 0 0 159 0 0 160 0 0 161 0 0 162 0 0 163 0
0 164 0 0 165 0 0 166 0 0 167 0 0 168 0 0 168 0 0 169 0 0 169 0 0 169
0 0 169 0 0 169 0 0 169 0 0 168 0 0 166 0 0 164 0 0 255 255 255 255
255 255 255 255 255 255 255 255 255 255 255 255 255 255 255 255 255
255 255 255 255 255 255 255 255 255 255 255 255 255 255 255 255 255
255 255 255 255 255 255 255 255 255 255 255 255 255 255 255 255 255
255 255 255 255 255 255 255 255 255 255 255 255 255 255 255 255 255
255 255 255 255 255 255 0 0 51 0 0 51 0 0 51 0 0 51 0 0 51 0 0 51 0 0
51 0 0 52 0 0 57 0 0 62 0 0 66 0 0 70 0 0 74 0 0 78 0 0 82 0 0 86 0 0
89 0 0 92 0 0 96 0 0 99 0 0 102 0 0 105 0 0 107 0 0 110 0 0 113 0 0
116 0 0 118 0 0 121 0 0 123 0 0 126 0 0 128 0 0 130 0 0 133 0 0 135 0
0 137 0 0 139 0 0 141 0 0 143 0 0 145 0 0 147 0 0 149 0 0 151 0 0 152
0 0 154 0 0 156 0 0 158 0 0 159 0 0 161 0 0 162 0 0 164 0 0 165
0 186 0 0 187 0 0 188 0 0 189 0 0 189 0 0 190 0 0 191 0 0 192 0 0 192
0 0 193 0 0 193 0 0 194 0 0 194 0 0 195 0 0 195 0 0 196 0 0 196 0 0
196 0 0 196 0 0 197 0 0 197 0 0 197 0 0 197 0 0 197 0 0 196 0 0 196 0
0 196 0 0 196 0 0 195 0 0 195 0 0 194 0 0 193 0 0 192 0 0 191 0 0 190
0 0 189 0 0 188 0 0 186 0 0 185 0 0 183 0 0 181 0 0 179 0 0 176 0 0
173 0 0 170 0 0 166 0 0 162 0 0 157 0 0 153 0 0 147 0 0 140 0 0 126 0
92 92 0 92 92 0 92 92 0 92 92 0 92 92 0 92 92 0 92 92 0 92 92 0 92 92
0 92 92 0 92 92 0 92 92 0 92 92 0 92 92 0 92 92 0 92 92 0 92 92 0 92
92 0 92 92 0 92 92 0 92 92 0 92 92 0 92 92 0 93 0 0 100 0 0 104 0 0
108 0 0 112 0 0 115 0 0 118 0 0 121 0 0 124 0 0 126 0 0 129 0 0 131 0
0 133 0 0 135 0 0 138 0 0 140 0 0 142 0 0 143 0 0 145 0 0 147 0 0 149
0 0 150 0 0 152 0 0 154 0 0 155 0 0 157 0 0 158 0 0 160 0 0 161 0 0
162 0 0 163 0 0 165 0 0 166 0 0 167 0 0 168 0 0 169 0 0 170 0 0 170 0
0 171 0 0 172 0 0 172 0 0 173 0 0 173 0 0 173 0 0 173 0 0 173 0 0 173
0 0 172 0 0 171 0 0 169 0 0 165 0 0 92 92 0 92 92 0 92 92 0 92 92 0
92 92 0 92 92 0 92 92 0 92 92 0 92 92 0 92 92 0 92 92 0 92 92 0 92 92
0 92 92 0 92 92 0 92 92 0 92 92 0 92 92 0 92 92 0 92 92 0 92 92 0 92
92 0 92 92 0 0 0 51 0 0 51 0 0 51 0 0 51 0 0 51 0 0 51 0 0 51 0 0 51
0 0 56 0 0 61 0 0 65 0 0 69 0 0 73 0 0 77 0 0 81 0 0 84 0 0 88 0 0 91
0 0 94 0 0 98 0 0 101 0 0 104 0 0 106 0 0 109 0 0 112 0 0 115 0 0 117
0 0 120 0 0 122 0 0 125 0 0 127 0 0 129 0 0 132 0 0 134 0 0 136 0 0
138 0 0 140 0 0 142 0 0 144 0 0 146 0 0 148 0 0 150 0 0 151 0 0 153 0
0 155 0 0 157 0 0 158 0 0 160 0 0 161 0 0 163 0 0 164
0 185 0 0 186 0 0 187 0 0 188 0 0 189 0 0 189 0 0 190 0 0 191 0 0 191
0 0 192 0 0 193 0 0 193 0 0 194 0 0 194 0 0 194 0 0 195 0 0 195 0 0
195 0 0 195 0 0 196 0 0 196 0 0 196 0 0 196 0 0 196 0 0 195 0 0 195 0
0 195 0 0 195 0 0 194 0 0 194 0 0 193 0 0 192 0 0 191 0 0 190 0 0 189
0 0 188 0 0 187 0 0 185 0 0 184 0 0 182 0 0 180 0 0 177 0 0 175 0 0
172 0 0 169 0 0 165 0 0 161 0 0 156 0 0 151 0 0 145 0 0 137 0 0 121 0
94 94 0 94 94 0 94 94 0 94 94 0 94 94 0 94 94 0 94 94 0 94 94 0 94 94
0 94 94 0 94 94 0 94 94 0 94 94 0 94 94 0 94 94 0 94 94 0 94 94 0 94
94 0 94 94 0 94 94 0 94 94 0 92 0 0 98 0 0 102 0 0 106 0 0 110 0 0
113 0 0 116 0 0 119 0 0 122 0 0 124 0 0 127 0 0 129 0 0 131 0 0 134 0
0 136 0 0 138 0 0 140 0 0 142 0 0 144 0 0 146 0 0 147 0 0 149 0 0 151
0 0 152 0 0 154 0 0 156 0 0 157 0 0 159 0 0 160 0 0 162 0 0 163 0 0
164 0 0 165 0 0 167 0 0 168 0 0 169 0 0 170 0 0 171 0 0 172 0 0 173 0
0 174 0 0 174 0 0 175 0 0 176 0 0 176 0 0 176 0 0 177 0 0 177 0 0 177
0 0 177 0 0 176 0 0 175 0 0 174 0 0 172 0 0 169 0 0 94 94 0 94 94 0
94 94 0 94 94 0 94 94 0 94 94 0 94 94 0 94 94 0 94 94 0 94 94 0 94 94
0 94 94 0 94 94 0 94 94 0 94 94 0 94 94 0 94 94 0 94 94 0 94 94 0 94
94 0 94 94 0 0 0 51 0 0 51 0 0 51 0 0 51 0 0 51 0 0 51 0 0 51 0 0 51
0 0 55 0 0 60 0 0 64 0 0 68 0 0 72 0 0 76 0 0 80 0 0 83 0 0 87 0 0 90
0 0 93 0 0 96 0 0 99 0 0 102 0 0 105 0 0 108 0 0 111 0 0 114 0 0 116
0 0 119 0 0 121 0 0 123 0 0 126 0 0 128 0 0 130 0 0 133 0 0 135 0 0
137 0 0 139 0 0 141 0 0 143 0 0 145 0 0 147 0 0 148 0 0 150 0 0 152 0
0 154 0 0 155 0 0 157 0 0 159 0 0 160 0 0 162 0 0 163
0 184 0 0 185 0 0 186 0 0 187 0 0 188 0 0 188 0 0 189 0 0 190 0 0 190
0 0 191 0 0 192 0 0 192 0 0 193 0 0 193 0 0 193 0 0 194 0 0 194 0 0
194 0 0 194 0 0 195 0 0 195 0 0 195 0 0 195 0 0 195 0 0 194 0 0 194 0
0 194 0 0 193 0 0 193 0 0 192 0 0 192 0 0 191 0 0 190 0 0 189 0 0 188
0 0 187 0 0 186 0 0 184 0 0 182 0 0 180 0 0 178 0 0 176 0 0 173 0 0
170 0 0 167 0 0 163 0 0 159 0 0 154 0 0 148 0 0 143 0 0 134 0 95 95 0
95 95 0 95 95 0 96 96 0 96 96 0 96 96 0 96 96 0 96 96 0 96 96 0 96 96
0 96 96 0 96 96 0 96 96 0 96 96 0 96 96 0 96 96 0 96 96 0 96 96 0 96
96 0 96 96 0 89 0 0 95 0 0 99 0 0 103 0 0 107 0 0 110 0 0 113 0 0 116
0 0 119 0 0 122 0 0 124 0 0 127 0 0 129 0 0 131 0 0 133 0 0 136 0 0
138 0 0 140 0 0 142 0 0 144 0 0 145 0 0 147 0 0 149 0 0 151 0 0 152 0
0 154 0 0 156 0 0 157 0 0 159 0 0 160 0 0 162 0 0 163 0 0 164 0 0 166
0 0 167 0 0 168 0 0 170 0 0 171 0 0 172 0 0 173 0 0 174 0 0 175 0 0
176 0 0 176 0 0 177 0 0 178 0 0 178 0 0 179 0 0 179 0 0 180 0 0 180 0
0 180 0 0 180 0 0 180 0 0 179 0 0 178 0 0 177 0 0 175 0 0 172 0 0 96
96 0 96 96 0 96 96 0 96 96 0 96 96 0 96 96 0 96 96 0 96 96 0 96 96 0
96 96 0 96 96 0 96 96 0 96 96 0 96 96 0 96 96 0 96 96 0 96 96 0 96 96
0 96 96 0 96 96 0 0 0 51 0 0 51 0 0 51 0 0 51 0 0 51 0 0 51 0 0 51 0
0 54 0 0 58 0 0 63 0 0 67 0 0 71 0 0 75 0 0 79 0 0 82 0 0 86 0 0 89 0
0 92 0 0 95 0 0 98 0 0 101 0 0 104 0 0 107 0 0 110 0 0 112 0 0 115 0
0 117 0 0 120 0 0 122 0 0 125 0 0 127 0 0 129 0 0 131 0 0 134 0 0 136
0 0 138 0 0 140 0 0 142 0 0 144 0 0 145 0 0 147 0 0 149 0 0 151 0 0
153 0 0 154 0 0 156 0 0 157 0 0 159 0 0 160 0 0 162
0 183 0 0 184 0 0 185 0 0 186 0 0 187 0 0 187 0 0 188 0 0 189 0 0 189
0 0 190 0 0 191 0 0 191 0 0 192 0 0 192 0 0 192 0 0 193 0 0 193 0 0
193 0 0 193 0 0 194 0 0 194 0 0 194 0 0 194 0 0 193 0 0 193 0 0 193 0
0 193 0 0 192 0 0 192 0 0 191 0 0 191 0 0 190 0 0 189 0 0 188 0 0 187
0 0 186 0 0 184 0 0 183 0 0 181 0 0 179 0 0 177 0 0 175 0 0 172 0 0
169 0 0 166 0 0 162 0 0 157 0 0 152 0 0 146 0 0 140 0 0 131 0 97 97 0
97 97 0 97 97 0 97 97 0 97 97 0 97 97 0 97 97 0 97 97 0 97 97 0 97 97
0 97 97 0 97 97 0 97 97 0 97 97 0 97 97 0 97 97 0 97 97 0 97 97 0 85
0 0 91 0 0 96 0 0 100 0 0 104 0 0 107 0 0 110 0 0 113 0 0 116 0 0 119
0 0 121 0 0 124 0 0 126 0 0 129 0 0 131 0 0 133 0 0 135 0 0 137 0 0
139 0 0 141 0 0 143 0 0 145 0 0 147 0 0 149 0 0 151 0 0 152 0 0 154 0
0 156 0 0 157 0 0 159 0 0 160 0 0 162 0 0 163 0 0 165 0 0 166 0 0 167
0 0 169 0 0 170 0 0 171 0 0 172 0 0 173 0 0 174 0 0 175 0 0 176 0 0
177 0 0 178 0 0 179 0 0 180 0 0 180 0 0 181 0 0 182 0 0 182 0 0 182 0
0 183 0 0 183 0 0 183 0 0 183 0 0 182 0 0 182 0 0 181 0 0 179 0 0 177
0 0 174 0 0 98 98 0 98 98 0 98 98 0 98 98 0 98 98 0 98 98 0 98 98 0
98 98 0 98 98 0 98 98 0 98 98 0 98 98 0 98 98 0 98 98 0 98 98 0 97 97
0 97 97 0 97 97 0 0 0 51 0 0 51 0 0 51 0 0 51 0 0 51 0 0 51 0 0 51 0
0 52 0 0 57 0 0 61 0 0 66 0 0 70 0 0 74 0 0 77 0 0 81 0 0 84 0 0 88 0
0 91 0 0 94 0 0 97 0 0 100 0 0 103 0 0 106 0 0 108 0 0 111 0 0 114 0
0 116 0 0 119 0 0 121 0 0 123 0 0 126 0 0 128 0 0 130 0 0 132 0 0 134
0 0 137 0 0 139 0 0 140 0 0 142 0 0 144 0 0 146 0 0 148 0 0 150 0 0
151 0 0 153 0 0 155 0 0 156 0 0 158 0 0 159 0 0 161
0 182 0 0 183 0 0 184 0 0 185 0 0 186 0 0 186 0 0 187 0 0 188 0 0 188
0 0 189 0 0 190 0 0 190 0 0 191 0 0 191 0 0 191 0 0 192 0 0 192 0 0
192 0 0 192 0 0 192 0 0 192 0 0 192 0 0 192 0 0 192 0 0 192 0 0 192 0
0 192 0 0 191 0 0 191 0 0 190 0 0 189 0 0 189 0 0 188 0 0 187 0 0 186
0 0 184 0 0 183 0 0 181 0 0 180 0 0 178 0 0 175 0 0 173 0 0 170 0 0
167 0 0 164 0 0 160 0 0 155 0 0 150 0 0 143 0 0 137 0 0 127 0 99 99 0
99 99 0 99 99 0 99 99 0 99 99 0 99 99 0 99 99 0 99 99 0 99 99 0 99 99
0 99 99 0 99 99 0 99 99 0 99 99 0 99 99 0 99 99 0 81 0 0 87 0 0 92 0
0 97 0 0 100 0 0 104 0 0 107 0 0 110 0 0 113 0 0 116 0 0 118 0 0 121
0 0 123 0 0 126 0 0 128 0 0 130 0 0 133 0 0 135 0 0 137 0 0 139 0 0
141 0 0 143 0 0 145 0 0 146 0 0 148 0 0 150 0 0 152 0 0 153 0 0 155 0
0 157 0 0 158 0 0 160 0 0 161 0 0 163 0 0 164 0 0 166 0 0 167 0 0 168
0 0 170 0 0 171 0 0 172 0 0 173 0 0 175 0 0 176 0 0 177 0 0 178 0 0
179 0 0 180 0 0 180 0 0 181 0 0 182 0 0 183 0 0 183 0 0 184 0 0 184 0
0 185 0 0 185 0 0 185 0 0 185 0 0 185 0 0 185 0 0 184 0 0 184 0 0 183
0 0 181 0 0 178 0 0 174 0 0 99 99 0 99 99 0 99 99 0 99 99 0 99 99 0
99 99 0 99 99 0 99 99 0 99 99 0 99 99 0 99 99 0 99 99 0 99 99 0 99 99
0 99 99 0 99 99 0 0 0 51 0 0 51 0 0 51 0 0 51 0 0 51 0 0 51 0 0 51 0
0 51 0 0 55 0 0 60 0 0 64 0 0 68 0 0 72 0 0 76 0 0 79 0 0 83 0 0 86 0
0 90 0 0 93 0 0 96 0 0 99 0 0 102 0 0 104 0 0 107 0 0 110 0 0 112 0 0
115 0 0 117 0 0 120 0 0 122 0 0 125 0 0 127 0 0 129 0 0 131 0 0 133 0
0 135 0 0 137 0 0 139 0 0 141 0 0 143 0 0 145 0 0 147 0 0 148 0 0 150
0 0 152 0 0 153 0 0 155 0 0 156 0 0 158 0 0 159
0 181 0 0 182 0 0 183 0 0 184 0 0 185 0 0 185 0 0 186 0 0 187 0 0 187
0 0 188 0 0 188 0 0 189 0 0 189 0 0 190 0 0 190 0 0 190 0 0 191 0 0
191 0 0 191 0 0 191 0 0 191 0 0 191 0 0 191 0 0 191 0 0 191 0 0 191 0
0 190 0 0 190 0 0 189 0 0 189 0 0 188 0 0 187 0 0 186 0 0 185 0 0 184
0 0 183 0 0 181 0 0 180 0 0 178 0 0 176 0 0 174 0 0 171 0 0 169 0 0
166 0 0 162 0 0 158 0 0 153 0 0 148 0 0 141 0 0 133 0 0 122 0 100 100
0 100 100 0 100 100 0 100 100 0 100 100 0 100 100 0 100 100 0 100 100
0 100 100 0 100 100 0 100 100 0 100 100 0 100 100 0 100 100 0 74 0 0
82 0 0 88 0 0 92 0 0 96 0 0 100 0 0 103 0 0 107 0 0 110 0 0 112 0 0
115 0 0 118 0 0 120 0 0 123 0 0 125 0 0 127 0 0 130 0 0 132 0 0 134 0
0 136 0 0 138 0 0 140 0 0 142 0 0 144 0 0 146 0 0 148 0 0 149 0 0 151
0 0 153 0 0 155 0 0 156 0 0 158 0 0 159 0 0 161 0 0 162 0 0 164 0 0
165 0 0 167 0 0 168 0 0 169 0 0 171 0 0 172 0 0 173 0 0 174 0 0 176 0
0 177 0 0 178 0 0 179 0 0 180 0 0 181 0 0 182 0 0 183 0 0 183 0 0 184
0 0 185 0 0 185 0 0 186 0 0 186 0 0 187 0 0 187 0 0 187 0 0 187 0 0
187 0 0 187 0 0 187 0 0 186 0 0 185 0 0 184 0 0 182 0 0 179 0 0 173 0
0 101 101 0 101 101 0 101 101 0 101 101 0 101 101 0 101 101 0 101 101
0 101 101 0 101 101 0 101 101 0 101 101 0 101 101 0 101 101 0 101 101
0 0 0 51 0 0 51 0 0 51 0 0 51 0 0 51 0 0 51 0 0 51 0 0 51 0 0 54 0 0
58 0 0 63 0 0 67 0 0 71 0 0 74 0 0 78 0 0 82 0 0 85 0 0 88 0 0 91 0 0
94 0 0 97 0 0 100 0 0 103 0 0 106 0 0 108 0 0 111 0 0 114 0 0 116 0 0
119 0 0 121 0 0 123 0 0 125 0 0 128 0 0 130 0 0 132 0 0 134 0 0 136 0
0 138 0 0 140 0 0 142 0 0 143 0 0 145 0 0 147 0 0 149 0 0 150 0 0 152
0 0 154 0 0 155 0 0 157 0 0 158
0 180 0 0 181 0 0 182 0 0 183 0 0 183 0 0 184 0 0 185 0 0 186 0 0 186
0 0 187 0 0 187 0 0 188 0 0 188 0 0 189 0 0 189 0 0 189 0 0 190 0 0
190 0 0 190 0 0 190 0 0 190 0 0 190 0 0 190 0 0 190 0 0 190 0 0 189 0
0 189 0 0 189 0 0 188 0 0 187 0 0 187 0 0 186 0 0 185 0 0 184 0 0 183
0 0 181 0 0 180 0 0 178 0 0 176 0 0 174 0 0 172 0 0 170 0 0 167 0 0
164 0 0 160 0 0 156 0 0 151 0 0 145 0 0 138 0 0 129 0 0 114 0 102 102
0 102 102 0 102 102 0 102 102 0 102 102 0 102 102 0 102 102 0 102 102
0 102 102 0 102 102 0 102 102 0 102 102 0 102 102 0 77 0 0 83 0 0 88
0 0 92 0 0 96 0 0 100 0 0 103 0 0 106 0 0 109 0 0 112 0 0 114 0 0 117
0 0 120 0 0 122 0 0 124 0 0 127 0 0 129 0 0 131 0 0 133 0 0 135 0 0
137 0 0 139 0 0 141 0 0 143 0 0 145 0 0 147 0 0 149 0 0 150 0 0 152 0
0 154 0 0 155 0 0 157 0 0 159 0 0 160 0 0 162 0 0 163 0 0 165 0 0 166
0 0 168 0 0 169 0 0 170 0 0 172 0 0 173 0 0 174 0 0 175 0 0 177 0 0
178 0 0 179 0 0 180 0 0 181 0 0 182 0 0 183 0 0 184 0 0 185 0 0 185 0
0 186 0 0 187 0 0 187 0 0 188 0 0 188 0 0 189 0 0 189 0 0 189 0 0 189
0 0 189 0 0 189 0 0 189 0 0 188 0 0 188 0 0 186 0 0 185 0 0 182 0 0
179 0 0 102 102 0 102 102 0 102 102 0 102 102 0 102 102 0 102 102 0
102 102 0 102 102 0 102 102 0 102 102 0 102 102 0 102 102 0 102 102 0
0 0 51 0 0 51 0 0 51 0 0 51 0 0 51 0 0 51 0 0 51 0 0 51 0 0 52 0 0 57
0 0 61 0 0 65 0 0 69 0 0 73 0 0 77 0 0 80 0 0 83 0 0 87 0 0 90 0 0 93
0 0 96 0 0 99 0 0 102 0 0 104 0 0 107 0 0 110 0 0 112 0 0 115 0 0 117
0 0 119 0 0 122 0 0 124 0 0 126 0 0 128 0 0 131 0 0 133 0 0 135 0 0
137 0 0 138 0 0 140 0 0 142 0 0 144 0 0 146 0 0 147 0 0 149 0 0 151 0
0 152 0 0 154 0 0 155 0 0 157
0 179 0 0 180 0 0 181 0 0 182 0 0 182 0 0 183 0 0 184 0 0 184 0 0 185
0 0 186 0 0 186 0 0 187 0 0 187 0 0 187 0 0 188 0 0 188 0 0 188 0 0
188 0 0 189 0 0 189 0 0 189 0 0 189 0 0 189 0 0 188 0 0 188 0 0 188 0
0 188 0 0 187 0 0 187 0 0 186 0 0 185 0 0 184 0 0 183 0 0 182 0 0 181
0 0 180 0 0 178 0 0 177 0 0 175 0 0 173 0 0 170 0 0 168 0 0 165 0 0
162 0 0 158 0 0 154 0 0 148 0 0 142 0 0 135 0 0 125 0 103 103 0 103
103 0 103 103 0 103 103 0 103 103 0 103 103 0 103 103 0 103 103 0 103
103 0 103 103 0 103 103 0 103 103 0 71 0 0 78 0 0 83 0 0 88 0 0 92 0
0 95 0 0 99 0 0 102 0 0 105 0 0 108 0 0 111 0 0 113 0 0 116 0 0 119 0
0 121 0 0 123 0 0 126 0 0 128 0 0 130 0 0 132 0 0 134 0 0 136 0 0 138
0 0 140 0 0 142 0 0 144 0 0 146 0 0 148 0 0 150 0 0 151 0 0 153 0 0
155 0 0 156 0 0 158 0 0 159 0 0 161 0 0 163 0 0 164 0 0 166 0 0 167 0
0 168 0 0 170 0 0 171 0 0 172 0 0 174 0 0 175 0 0 176 0 0 177 0 0 179
0 0 180 0 0 181 0 0 182 0 0 183 0 0 184 0 0 185 0 0 186 0 0 186 0 0
187 0 0 188 0 0 189 0 0 189 0 0 190 0 0 190 0 0 191 0 0 191 0 0 191 0
0 191 0 0 191 0 0 191 0 0 191 0 0 190 0 0 190 0 0 189 0 0 187 0 0 185
0 0 182 0 0 176 0 0 104 104 0 104 104 0 104 104 0 104 104 0 104 104 0
104 104 0 104 104 0 104 104 0 104 104 0 104 104 0 104 104 0 104 104 0
0 0 51 0 0 51 0 0 51 0 0 51 0 0 51 0 0 51 0 0 51 0 0 51 0 0 55 0 0 59
0 0 64 0 0 68 0 0 71 0 0 75 0 0 79 0 0 82 0 0 85 0 0 88 0 0 91 0 0 94
0 0 97 0 0 100 0 0 103 0 0 106 0 0 108 0 0 111 0 0 113 0 0 116 0 0
118 0 0 120 0 0 123 0 0 125 0 0 127 0 0 129 0 0 131 0 0 133 0 0 135 0
0 137 0 0 139 0 0 141 0 0 142 0 0 144 0 0 146 0 0 148 0 0 149 0 0 151
0 0 152 0 0 154 0 0 155
0 178 0 0 179 0 0 180 0 0 180 0 0 181 0 0 182 0 0 182 0 0 183 0 0 184
0 0 184 0 0 185 0 0 185 0 0 186 0 0 186 0 0 186 0 0 187 0 0 187 0 0
187 0 0 187 0 0 187 0 0 187 0 0 187 0 0 187 0 0 187 0 0 187 0 0 186 0
0 186 0 0 186 0 0 185 0 0 184 0 0 184 0 0 183 0 0 182 0 0 181 0 0 179
0 0 178 0 0 177 0 0 175 0 0 173 0 0 171 0 0 168 0 0 166 0 0 163 0 0
159 0 0 156 0 0 151 0 0 146 0 0 139 0 0 131 0 0 120 0 104 104 0 104
104 0 104 104 0 104 104 0 104 104 0 105 105 0 105 105 0 105 105 0 105
105 0 105 105 0 105 105 0 71 0 0 77 0 0 83 0 0 87 0 0 91 0 0 94 0 0
98 0 0 101 0 0 104 0 0 107 0 0 110 0 0 112 0 0 115 0 0 117 0 0 120 0
0 122 0 0 125 0 0 127 0 0 129 0 0 131 0 0 133 0 0 135 0 0 137 0 0 139
0 0 141 0 0 143 0 0 145 0 0 147 0 0 149 0 0 150 0 0 152 0 0 154 0 0
155 0 0 157 0 0 159 0 0 160 0 0 162 0 0 163 0 0 165 0 0 166 0 0 168 0
0 169 0 0 170 0 0 172 0 0 173 0 0 174 0 0 176 0 0 177 0 0 178 0 0 179
0 0 180 0 0 181 0 0 183 0 0 184 0 0 185 0 0 185 0 0 186 0 0 187 0 0
188 0 0 189 0 0 190 0 0 190 0 0 191 0 0 191 0 0 192 0 0 192 0 0 192 0
0 193 0 0 193 0 0 193 0 0 193 0 0 192 0 0 192 0 0 191 0 0 190 0 0 189
0 0 187 0 0 185 0 0 180 0 0 106 106 0 106 106 0 106 106 0 106 106 0
106 106 0 106 106 0 106 106 0 106 106 0 105 105 0 105 105 0 105 105 0
0 0 51 0 0 51 0 0 51 0 0 51 0 0 51 0 0 51 0 0 51 0 0 51 0 0 53 0 0 58
0 0 62 0 0 66 0 0 70 0 0 73 0 0 77 0 0 80 0 0 84 0 0 87 0 0 90 0 0 93
0 0 96 0 0 99 0 0 101 0 0 104 0 0 107 0 0 109 0 0 112 0 0 114 0 0 117
0 0 119 0 0 121 0 0 123 0 0 126 0 0 128 0 0 130 0 0 132 0 0 134 0 0
136 0 0 137 0 0 139 0 0 141 0 0 143 0 0 144 0 0 146 0 0 148 0 0 149 0
0 151 0 0 152 0 0 154
0 177 0 0 177 0 0 178 0 0 179 0 0 180 0 0 180 0 0 181 0 0 182 0 0 182
0 0 183 0 0 183 0 0 184 0 0 184 0 0 185 0 0 185 0 0 185 0 0 186 0 0
186 0 0 186 0 0 186 0 0 186 0 0 186 0 0 186 0 0 186 0 0 185 0 0 185 0
0 185 0 0 184 0 0 183 0 0 183 0 0 182 0 0 181 0 0 180 0 0 179 0 0 178
0 0 176 0 0 175 0 0 173 0 0 171 0 0 169 0 0 166 0 0 164 0 0 161 0 0
157 0 0 153 0 0 148 0 0 143 0 0 136 0 0 127 0 0 113 0 106 106 0 106
106 0 106 106 0 106 106 0 106 106 0 106 106 0 106 106 0 106 106 0 106
106 0 70 0 0 71 0 0 77 0 0 82 0 0 86 0 0 90 0 0 93 0 0 97 0 0 100 0 0
103 0 0 106 0 0 109 0 0 111 0 0 114 0 0 116 0 0 119 0 0 121 0 0 123 0
0 126 0 0 128 0 0 130 0 0 132 0 0 134 0 0 136 0 0 138 0 0 140 0 0 142
0 0 144 0 0 146 0 0 147 0 0 149 0 0 151 0 0 153 0 0 154 0 0 156 0 0
158 0 0 159 0 0 161 0 0 162 0 0 164 0 0 165 0 0 167 0 0 168 0 0 170 0
0 171 0 0 172 0 0 174 0 0 175 0 0 176 0 0 177 0 0 179 0 0 180 0 0 181
0 0 182 0 0 183 0 0 184 0 0 185 0 0 186 0 0 187 0 0 188 0 0 189 0 0
190 0 0 190 0 0 191 0 0 192 0 0 192 0 0 193 0 0 193 0 0 194 0 0 194 0
0 194 0 0 194 0 0 194 0 0 194 0 0 194 0 0 193 0 0 193 0 0 192 0 0 191
0 0 189 0 0 187 0 0 183 0 0 175 0 0 107 107 0 107 107 0 107 107 0 107
107 0 107 107 0 107 107 0 107 107 0 107 107 0 107 107 0 0 0 51 0 0 51
0 0 51 0 0 51 0 0 51 0 0 51 0 0 51 0 0 51 0 0 51 0 0 56 0 0 60 0 0 64
0 0 68 0 0 72 0 0 75 0 0 79 0 0 82 0 0 85 0 0 88 0 0 91 0 0 94 0 0 97
0 0 100 0 0 103 0 0 105 0 0 108 0 0 110 0 0 113 0 0 115 0 0 117 0 0
120 0 0 122 0 0 124 0 0 126 0 0 128 0 0 130 0 0 132 0 0 134 0 0 136 0
0 138 0 0 140 0 0 141 0 0 143 0 0 145 0 0 146 0 0 148 0 0 149 0 0 151
0 0 152
0 175 0 0 176 0 0 177 0 0 178 0 0 178 0 0 179 0 0 180 0 0 180 0 0 181
0 0 182 0 0 182 0 0 183 0 0 183 0 0 183 0 0 184 0 0 184 0 0 184 0 0
184 0 0 184 0 0 184 0 0 184 0 0 184 0 0 184 0 0 184 0 0 184 0 0 183 0
0 183 0 0 182 0 0 182 0 0 181 0 0 180 0 0 179 0 0 178 0 0 177 0 0 176
0 0 174 0 0 173 0 0 171 0 0 169 0 0 167 0 0 164 0 0 161 0 0 158 0 0
155 0 0 150 0 0 145 0 0 139 0 0 132 0 0 121 0 107 107 0 107 107 0 107
107 0 107 107 0 107 107 0 107 107 0 107 107 0 107 107 0 107 107 0 68
0 0 70 0 0 76 0 0 81 0 0 85 0 0 89 0 0 92 0 0 95 0 0 99 0 0 102 0 0
104 0 0 107 0 0 110 0 0 112 0 0 115 0 0 117 0 0 120 0 0 122 0 0 124 0
0 126 0 0 129 0 0 131 0 0 133 0 0 135 0 0 137 0 0 139 0 0 141 0 0 143
0 0 144 0 0 146 0 0 148 0 0 150 0 0 151 0 0 153 0 0 155 0 0 156 0 0
158 0 0 160 0 0 161 0 0 163 0 0 164 0 0 166 0 0 167 0 0 169 0 0 170 0
0 171 0 0 173 0 0 174 0 0 175 0 0 177 0 0 178 0 0 179 0 0 180 0 0 181
0 0 183 0 0 184 0 0 185 0 0 186 0 0 187 0 0 188 0 0 189 0 0 189 0 0
190 0 0 191 0 0 192 0 0 192 0 0 193 0 0 194 0 0 194 0 0 195 0 0 195 0
0 195 0 0 196 0 0 196 0 0 196 0 0 196 0 0 195 0 0 195 0 0 194 0 0 193
0 0 192 0 0 191 0 0 188 0 0 185 0 0 179 0 0 109 109 0 109 109 0 109
109 0 109 109 0 109 109 0 109 109 0 109 109 0 109 109 0 109 109 0 0 0
51 0 0 51 0 0 51 0 0 51 0 0 51 0 0 51 0 0 51 0 0 51 0 0 54 0 0 58 0 0
62 0 0 66 0 0 70 0 0 73 0 0 77 0 0 80 0 0 83 0 0 87 0 0 90 0 0 93 0 0
95 0 0 98 0 0 101 0 0 104 0 0 106 0 0 109 0 0 111 0 0 113 0 0 116 0 0
118 0 0 120 0 0 122 0 0 124 0 0 127 0 0 129 0 0 131 0 0 132 0 0 134 0
0 136 0 0 138 0 0 140 0 0 141 0 0 143 0 0 145 0 0 146 0 0 148 0 0 149
0 0 151
0 174 0 0 175 0 0 176 0 0 176 0 0 177 0 0 178 0 0 178 0 0 179 0 0 180
0 0 180 0 0 181 0 0 181 0 0 182 0 0 182 0 0 182 0 0 182 0 0 183 0 0
183 0 0 183 0 0 183 0 0 183 0 0 183 0 0 183 0 0 182 0 0 182 0 0 182 0
0 181 0 0 181 0 0 180 0 0 179 0 0 179 0 0 178 0 0 176 0 0 175 0 0 174
0 0 172 0 0 171 0 0 169 0 0 167 0 0 164 0 0 162 0 0 159 0 0 156 0 0
152 0 0 147 0 0 142 0 0 136 0 0 128 0 0 115 0 108 108 0 108 108 0 108
108 0 109 109 0 109 109 0 109 109 0 109 109 0 109 109 0 67 0 0 69 0 0
75 0 0 79 0 0 84 0 0 87 0 0 91 0 0 94 0 0 97 0 0 100 0 0 103 0 0 106
0 0 108 0 0 111 0 0 113 0 0 116 0 0 118 0 0 121 0 0 123 0 0 125 0 0
127 0 0 129 0 0 131 0 0 133 0 0 135 0 0 137 0 0 139 0 0 141 0 0 143 0
0 145 0 0 147 0 0 148 0 0 150 0 0 152 0 0 154 0 0 155 0 0 157 0 0 159
0 0 160 0 0 162 0 0 163 0 0 165 0 0 166 0 0 168 0 0 169 0 0 170 0 0
172 0 0 173 0 0 174 0 0 176 0 0 177 0 0 178 0 0 180 0 0 181 0 0 182 0
0 183 0 0 184 0 0 185 0 0 186 0 0 187 0 0 188 0 0 189 0 0 190 0 0 191
0 0 192 0 0 192 0 0 193 0 0 194 0 0 194 0 0 195 0 0 195 0 0 196 0 0
196 0 0 197 0 0 197 0 0 197 0 0 197 0 0 197 0 0 196 0 0 196 0 0 195 0
0 195 0 0 193 0 0 192 0 0 190 0 0 187 0 0 182 0 0 110 110 0 110 110 0
110 110 0 110 110 0 110 110 0 110 110 0 110 110 0 110 110 0 0 0 51 0
0 51 0 0 51 0 0 51 0 0 51 0 0 51 0 0 51 0 0 51 0 0 52 0 0 56 0 0 60 0
0 64 0 0 68 0 0 71 0 0 75 0 0 78 0 0 82 0 0 85 0 0 88 0 0 91 0 0 94 0
0 96 0 0 99 0 0 102 0 0 104 0 0 107 0 0 109 0 0 112 0 0 114 0 0 116 0
0 119 0 0 121 0 0 123 0 0 125 0 0 127 0 0 129 0 0 131 0 0 133 0 0 135
0 0 136 0 0 138 0 0 140 0 0 141 0 0 143 0 0 145 0 0 146 0 0 148 0 0
149
0 172 0 0 173 0 0 174 0 0 175 0 0 176 0 0 176 0 0 177 0 0 178 0 0 178
0 0 179 0 0 179 0 0 180 0 0 180 0 0 180 0 0 181 0 0 181 0 0 181 0 0
181 0 0 181 0 0 181 0 0 181 0 0 181 0 0 181 0 0 181 0 0 180 0 0 180 0
0 180 0 0 179 0 0 178 0 0 178 0 0 177 0 0 176 0 0 175 0 0 173 0 0 172
0 0 170 0 0 169 0 0 167 0 0 165 0 0 162 0 0 159 0 0 156 0 0 153 0 0
149 0 0 144 0 0 139 0 0 132 0 0 122 0 0 106 0 110 110 0 110 110 0 110
110 0 110 110 0 110 110 0 110 110 0 110 110 0 66 0 0 68 0 0 73 0 0 78
0 0 82 0 0 86 0 0 89 0 0 93 0 0 96 0 0 99 0 0 102 0 0 104 0 0 107 0 0
109 0 0 112 0 0 114 0 0 117 0 0 119 0 0 121 0 0 124 0 0 126 0 0 128 0
0 130 0 0 132 0 0 134 0 0 136 0 0 138 0 0 140 0 0 142 0 0 144 0 0 145
0 0 147 0 0 149 0 0 151 0 0 152 0 0 154 0 0 156 0 0 157 0 0 159 0 0
160 0 0 162 0 0 163 0 0 165 0 0 166 0 0 168 0 0 169 0 0 171 0 0 172 0
0 173 0 0 175 0 0 176 0 0 177 0 0 179 0 0 180 0 0 181 0 0 182 0 0 183
0 0 184 0 0 186 0 0 187 0 0 188 0 0 189 0 0 190 0 0 190 0 0 191 0 0
192 0 0 193 0 0 194 0 0 194 0 0 195 0 0 196 0 0 196 0 0 197 0 0 197 0
0 197 0 0 198 0 0 198 0 0 198 0 0 198 0 0 198 0 0 198 0 0 197 0 0 196
0 0 196 0 0 195 0 0 193 0 0 191 0 0 188 0 0 184 0 0 112 112 0 112 112
0 112 112 0 112 112 0 112 112 0 112 112 0 112 112 0 0 0 51 0 0 51 0 0
51 0 0 51 0 0 51 0 0 51 0 0 51 0 0 51 0 0 51 0 0 54 0 0 58 0 0 62 0 0
66 0 0 70 0 0 73 0 0 76 0 0 80 0 0 83 0 0 86 0 0 89 0 0 92 0 0 95 0 0
97 0 0 100 0 0 103 0 0 105 0 0 108 0 0 110 0 0 112 0 0 115 0 0 117 0
0 119 0 0 121 0 0 123 0 0 125 0 0 127 0 0 129 0 0 131 0 0 133 0 0 135
0 0 136 0 0 138 0 0 140 0 0 141 0 0 143 0 0 144 0 0 146 0 0 147
0 171 0 0 172 0 0 173 0 0 173 0 0 174 0 0 175 0 0 175 0 0 176 0 0 177
0 0 177 0 0 178 0 0 178 0 0 178 0 0 179 0 0 179 0 0 179 0 0 179 0 0
180 0 0 180 0 0 180 0 0 180 0 0 179 0 0 179 0 0 179 0 0 179 0 0 178 0
0 178 0 0 177 0 0 176 0 0 176 0 0 175 0 0 174 0 0 172 0 0 171 0 0 170
0 0 168 0 0 166 0 0 164 0 0 162 0 0 160 0 0 157 0 0 154 0 0 150 0 0
146 0 0 141 0 0 135 0 0 127 0 0 116 0 111 111 0 111 111 0 111 111 0
111 111 0 111 111 0 111 111 0 111 111 0 64 0 0 67 0 0 72 0 0 76 0 0
80 0 0 84 0 0 88 0 0 91 0 0 94 0 0 97 0 0 100 0 0 103 0 0 105 0 0 108
0 0 110 0 0 113 0 0 115 0 0 118 0 0 120 0 0 122 0 0 124 0 0 126 0 0
128 0 0 131 0 0 133 0 0 135 0 0 136 0 0 138 0 0 140 0 0 142 0 0 144 0
0 146 0 0 147 0 0 149 0 0 151 0 0 153 0 0 154 0 0 156 0 0 158 0 0 159
0 0 161 0 0 162 0 0 164 0 0 165 0 0 167 0 0 168 0 0 170 0 0 171 0 0
172 0 0 174 0 0 175 0 0 176 0 0 178 0 0 179 0 0 180 0 0 181 0 0 182 0
0 184 0 0 185 0 0 186 0 0 187 0 0 188 0 0 189 0 0 190 0 0 191 0 0 192
0 0 193 0 0 193 0 0 194 0 0 195 0 0 196 0 0 196 0 0 197 0 0 197 0 0
198 0 0 198 0 0 198 0 0 199 0 0 199 0 0 199 0 0 199 0 0 199 0 0 198 0
0 198 0 0 197 0 0 197 0 0 195 0 0 194 0 0 192 0 0 189 0 0 185 0 0 113
113 0 113 113 0 113 113 0 113 113 0 113 113 0 113 113 0 113 113 0 0 0
51 0 0 51 0 0 51 0 0 51 0 0 51 0 0 51 0 0 51 0 0 51 0 0 51 0 0 56 0 0
60 0 0 64 0 0 67 0 0 71 0 0 74 0 0 78 0 0 81 0 0 84 0 0 87 0 0 90 0 0
93 0 0 96 0 0 98 0 0 101 0 0 103 0 0 106 0 0 108 0 0 111 0 0 113 0 0
115 0 0 117 0 0 119 0 0 121 0 0 124 0 0 125 0 0 127 0 0 129 0 0 131 0
0 133 0 0 135 0 0 136 0 0 138 0 0 140 0 0 141 0 0 143 0 0 144 0 0 146
0 169 0 0 170 0 0 171 0 0 172 0 0 173 0 0 173 0 0 174 0 0 174 0 0 175
0 0 176 0 0 176 0 0 176 0 0 177 0 0 177 0 0 177 0 0 178 0 0 178 0 0
178 0 0 178 0 0 178 0 0 178 0 0 178 0 0 177 0 0 177 0 0 177 0 0 176 0
0 176 0 0 175 0 0 174 0 0 174 0 0 173 0 0 172 0 0 170 0 0 169 0 0 167
0 0 166 0 0 164 0 0 162 0 0 160 0 0 157 0 0 154 0 0 151 0 0 147 0 0
142 0 0 137 0 0 130 0 0 122 0 0 107 0 112 112 0 112 112 0 112 112 0
112 112 0 112 112 0 67 0 0 64 0 0 65 0 0 70 0 0 75 0 0 79 0 0 82 0 0
86 0 0 89 0 0 92 0 0 95 0 0 98 0 0 101 0 0 104 0 0 106 0 0 109 0 0
111 0 0 114 0 0 116 0 0 118 0 0 120 0 0 123 0 0 125 0 0 127 0 0 129 0
0 131 0 0 133 0 0 135 0 0 137 0 0 139 0 0 141 0 0 142 0 0 144 0 0 146
0 0 148 0 0 150 0 0 151 0 0 153 0 0 155 0 0 156 0 0 158 0 0 159 0 0
161 0 0 162 0 0 164 0 0 165 0 0 167 0 0 168 0 0 170 0 0 171 0 0 173 0
0 174 0 0 175 0 0 177 0 0 178 0 0 179 0 0 180 0 0 181 0 0 183 0 0 184
0 0 185 0 0 186 0 0 187 0 0 188 0 0 189 0 0 190 0 0 191 0 0 192 0 0
193 0 0 194 0 0 194 0 0 195 0 0 196 0 0 197 0 0 197 0 0 198 0 0 198 0
0 199 0 0 199 0 0 199 0 0 200 0 0 200 0 0 200 0 0 200 0 0 200 0 0 199
0 0 199 0 0 198 0 0 197 0 0 196 0 0 195 0 0 193 0 0 190 0 0 186 0 0
175 0 0 115 115 0 115 115 0 115 115 0 115 115 0 115 115 0 0 0 51 0 0
51 0 0 51 0 0 51 0 0 51 0 0 51 0 0 51 0 0 51 0 0 51 0 0 53 0 0 58 0 0
62 0 0 65 0 0 69 0 0 72 0 0 76 0 0 79 0 0 82 0 0 85 0 0 88 0 0 91 0 0
94 0 0 96 0 0 99 0 0 102 0 0 104 0 0 106 0 0 109 0 0 111 0 0 113 0 0
115 0 0 118 0 0 120 0 0 122 0 0 124 0 0 126 0 0 128 0 0 129 0 0 131 0
0 133 0 0 135 0 0 136 0 0 138 0 0 139 0 0 141 0 0 142 0 0 144
0 168 0 0 169 0 0 170 0 0 170 0 0 171 0 0 172 0 0 172 0 0 173 0 0 173
0 0 174 0 0 174 0 0 175 0 0 175 0 0 175 0 0 176 0 0 176 0 0 176 0 0
176 0 0 176 0 0 176 0 0 176 0 0 176 0 0 176 0 0 175 0 0 175 0 0 174 0
0 174 0 0 173 0 0 172 0 0 171 0 0 170 0 0 169 0 0 168 0 0 167 0 0 165
0 0 163 0 0 161 0 0 159 0 0 157 0 0 154 0 0 151 0 0 147 0 0 143 0 0
139 0 0 133 0 0 125 0 0 115 0 113 113 0 113 113 0 114 114 0 114 114 0
114 114 0 65 0 0 63 0 0 63 0 0 68 0 0 73 0 0 77 0 0 81 0 0 84 0 0 87
0 0 91 0 0 94 0 0 96 0 0 99 0 0 102 0 0 105 0 0 107 0 0 110 0 0 112 0
0 114 0 0 117 0 0 119 0 0 121 0 0 123 0 0 125 0 0 127 0 0 129 0 0 131
0 0 133 0 0 135 0 0 137 0 0 139 0 0 141 0 0 143 0 0 145 0 0 146 0 0
148 0 0 150 0 0 151 0 0 153 0 0 155 0 0 156 0 0 158 0 0 160 0 0 161 0
0 163 0 0 164 0 0 166 0 0 167 0 0 168 0 0 170 0 0 171 0 0 173 0 0 174
0 0 175 0 0 177 0 0 178 0 0 179 0 0 180 0 0 182 0 0 183 0 0 184 0 0
185 0 0 186 0 0 187 0 0 188 0 0 189 0 0 190 0 0 191 0 0 192 0 0 193 0
0 194 0 0 195 0 0 196 0 0 196 0 0 197 0 0 198 0 0 198 0 0 199 0 0 199
0 0 200 0 0 200 0 0 200 0 0 200 0 0 201 0 0 201 0 0 201 0 0 200 0 0
200 0 0 200 0 0 199 0 0 198 0 0 197 0 0 195 0 0 193 0 0 191 0 0 186 0
0 177 0 0 116 116 0 116 116 0 116 116 0 116 116 0 116 116 0 0 0 51 0
0 51 0 0 51 0 0 51 0 0 51 0 0 51 0 0 51 0 0 51 0 0 51 0 0 55 0 0 59 0
0 63 0 0 67 0 0 70 0 0 74 0 0 77 0 0 80 0 0 83 0 0 86 0 0 89 0 0 92 0
0 94 0 0 97 0 0 100 0 0 102 0 0 105 0 0 107 0 0 109 0 0 111 0 0 114 0
0 116 0 0 118 0 0 120 0 0 122 0 0 124 0 0 126 0 0 127 0 0 129 0 0 131
0 0 133 0 0 134 0 0 136 0 0 138 0 0 139 0 0 141 0 0 142
0 166 0 0 167 0 0 168 0 0 169 0 0 169 0 0 170 0 0 171 0 0 171 0 0 172
0 0 172 0 0 173 0 0 173 0 0 173 0 0 174 0 0 174 0 0 174 0 0 174 0 0
174 0 0 174 0 0 174 0 0 174 0 0 174 0 0 174 0 0 173 0 0 173 0 0 172 0
0 172 0 0 171 0 0 170 0 0 169 0 0 168 0 0 167 0 0 166 0 0 164 0 0 163
0 0 161 0 0 159 0 0 156 0 0 154 0 0 151 0 0 148 0 0 144 0 0 140 0 0
134 0 0 128 0 0 120 0 0 106 0 115 115 0 115 115 0 115 115 0 115 115 0
65 0 0 62 0 0 61 0 0 66 0 0 71 0 0 75 0 0 79 0 0 82 0 0 86 0 0 89 0 0
92 0 0 95 0 0 97 0 0 100 0 0 103 0 0 105 0 0 108 0 0 110 0 0 113 0 0
115 0 0 117 0 0 119 0 0 121 0 0 124 0 0 126 0 0 128 0 0 130 0 0 132 0
0 134 0 0 136 0 0 137 0 0 139 0 0 141 0 0 143 0 0 145 0 0 146 0 0 148
0 0 150 0 0 152 0 0 153 0 0 155 0 0 156 0 0 158 0 0 160 0 0 161 0 0
163 0 0 164 0 0 166 0 0 167 0 0 169 0 0 170 0 0 171 0 0 173 0 0 174 0
0 175 0 0 177 0 0 178 0 0 179 0 0 180 0 0 182 0 0 183 0 0 184 0 0 185
0 0 186 0 0 187 0 0 188 0 0 189 0 0 190 0 0 191 0 0 192 0 0 193 0 0
194 0 0 195 0 0 196 0 0 196 0 0 197 0 0 198 0 0 198 0 0 199 0 0 200 0
0 200 0 0 200 0 0 201 0 0 201 0 0 201 0 0 201 0 0 201 0 0 201 0 0 201
0 0 201 0 0 200 0 0 199 0 0 199 0 0 197 0 0 196 0 0 194 0 0 191 0 0
187 0 0 177 0 0 118 118 0 118 118 0 118 118 0 118 118 0 0 0 51 0 0 51
0 0 51 0 0 51 0 0 51 0 0 51 0 0 51 0 0 51 0 0 51 0 0 53 0 0 57 0 0 61
0 0 64 0 0 68 0 0 71 0 0 75 0 0 78 0 0 81 0 0 84 0 0 87 0 0 90 0 0 92
0 0 95 0 0 98 0 0 100 0 0 103 0 0 105 0 0 107 0 0 109 0 0 112 0 0 114
0 0 116 0 0 118 0 0 120 0 0 122 0 0 124 0 0 126 0 0 127 0 0 129 0 0
131 0 0 133 0 0 134 0 0 136 0 0 137 0 0 139 0 0 140
0 165 0 0 165 0 0 166 0 0 167 0 0 168 0 0 168 0 0 169 0 0 169 0 0 170
0 0 170 0 0 171 0 0 171 0 0 171 0 0 172 0 0 172 0 0 172 0 0 172 0 0
172 0 0 172 0 0 172 0 0 172 0 0 172 0 0 171 0 0 171 0 0 171 0 0 170 0
0 169 0 0 169 0 0 168 0 0 167 0 0 166 0 0 165 0 0 163 0 0 162 0 0 160
0 0 158 0 0 156 0 0 154 0 0 151 0 0 148 0 0 144 0 0 140 0 0 136 0 0
130 0 0 123 0 0 112 0 116 116 0 116 116 0 116 116 0 116 116 0 64 0 0
61 0 0 60 0 0 64 0 0 69 0 0 73 0 0 77 0 0 80 0 0 84 0 0 87 0 0 90 0 0
93 0 0 96 0 0 98 0 0 101 0 0 103 0 0 106 0 0 108 0 0 111 0 0 113 0 0
115 0 0 117 0 0 120 0 0 122 0 0 124 0 0 126 0 0 128 0 0 130 0 0 132 0
0 134 0 0 136 0 0 138 0 0 139 0 0 141 0 0 143 0 0 145 0 0 147 0 0 148
0 0 150 0 0 152 0 0 153 0 0 155 0 0 157 0 0 158 0 0 160 0 0 161 0 0
163 0 0 164 0 0 166 0 0 167 0 0 169 0 0 170 0 0 171 0 0 173 0 0 174 0
0 175 0 0 177 0 0 178 0 0 179 0 0 181 0 0 182 0 0 183 0 0 184 0 0 185
0 0 186 0 0 187 0 0 188 0 0 190 0 0 191 0 0 191 0 0 192 0 0 193 0 0
194 0 0 195 0 0 196 0 0 197 0 0 197 0 0 198 0 0 199 0 0 199 0 0 200 0
0 200 0 0 201 0 0 201 0 0 201 0 0 202 0 0 202 0 0 202 0 0 202 0 0 202
0 0 202 0 0 201 0 0 201 0 0 200 0 0 199 0 0 198 0 0 196 0 0 194 0 0
191 0 0 187 0 0 176 0 0 119 119 0 119 119 0 119 119 0 119 119 0 0 0
51 0 0 51 0 0 51 0 0 51 0 0 51 0 0 51 0 0 51 0 0 51 0 0 51 0 0 54 0 0
58 0 0 62 0 0 66 0 0 69 0 0 72 0 0 76 0 0 79 0 0 82 0 0 85 0 0 87 0 0
90 0 0 93 0 0 95 0 0 98 0 0 100 0 0 103 0 0 105 0 0 107 0 0 110 0 0
112 0 0 114 0 0 116 0 0 118 0 0 120 0 0 122 0 0 124 0 0 125 0 0 127 0
0 129 0 0 131 0 0 132 0 0 134 0 0 135 0 0 137 0 0 138
0 163 0 0 164 0 0 164 0 0 165 0 0 166 0 0 166 0 0 167 0 0 167 0 0 168
0 0 168 0 0 169 0 0 169 0 0 170 0 0 170 0 0 170 0 0 170 0 0 170 0 0
170 0 0 170 0 0 170 0 0 170 0 0 170 0 0 169 0 0 169 0 0 168 0 0 168 0
0 167 0 0 166 0 0 165 0 0 164 0 0 163 0 0 162 0 0 161 0 0 159 0 0 157
0 0 155 0 0 153 0 0 150 0 0 148 0 0 144 0 0 141 0 0 136 0 0 131 0 0
125 0 0 116 0 0 102 0 117 117 0 117 117 0 117 117 0 117 117 0 61 0 0
59 0 0 62 0 0 67 0 0 71 0 0 75 0 0 78 0 0 82 0 0 85 0 0 88 0 0 91 0 0
94 0 0 96 0 0 99 0 0 101 0 0 104 0 0 106 0 0 109 0 0 111 0 0 113 0 0
116 0 0 118 0 0 120 0 0 122 0 0 124 0 0 126 0 0 128 0 0 130 0 0 132 0
0 134 0 0 136 0 0 138 0 0 140 0 0 141 0 0 143 0 0 145 0 0 147 0 0 148
0 0 150 0 0 152 0 0 153 0 0 155 0 0 157 0 0 158 0 0 160 0 0 161 0 0
163 0 0 164 0 0 166 0 0 167 0 0 169 0 0 170 0 0 171 0 0 173 0 0 174 0
0 175 0 0 177 0 0 178 0 0 179 0 0 180 0 0 182 0 0 183 0 0 184 0 0 185
0 0 186 0 0 187 0 0 188 0 0 190 0 0 191 0 0 192 0 0 192 0 0 193 0 0
194 0 0 195 0 0 196 0 0 197 0 0 198 0 0 198 0 0 199 0 0 200 0 0 200 0
0 201 0 0 201 0 0 202 0 0 202 0 0 202 0 0 202 0 0 202 0 0 203 0 0 202
0 0 202 0 0 202 0 0 202 0 0 201 0 0 200 0 0 199 0 0 198 0 0 196 0 0
194 0 0 191 0 0 186 0 0 120 120 0 120 120 0 120 120 0 120 120 0 0 0
51 0 0 51 0 0 51 0 0 51 0 0 51 0 0 51 0 0 51 0 0 51 0 0 51 0 0 51 0 0
56 0 0 59 0 0 63 0 0 67 0 0 70 0 0 73 0 0 76 0 0 79 0 0 82 0 0 85 0 0
88 0 0 91 0 0 93 0 0 96 0 0 98 0 0 101 0 0 103 0 0 105 0 0 108 0 0
110 0 0 112 0 0 114 0 0 116 0 0 118 0 0 120 0 0 122 0 0 123 0 0 125 0
0 127 0 0 129 0 0 130 0 0 132 0 0 133 0 0 135 0 0 136
0 161 0 0 162 0 0 162 0 0 163 0 0 164 0 0 164 0 0 165 0 0 166 0 0 166
0 0 166 0 0 167 0 0 167 0 0 168 0 0 168 0 0 168 0 0 168 0 0 168 0 0
168 0 0 168 0 0 168 0 0 168 0 0 167 0 0 167 0 0 167 0 0 166 0 0 165 0
0 165 0 0 164 0 0 163 0 0 162 0 0 161 0 0 159 0 0 158 0 0 156 0 0 154
0 0 152 0 0 150 0 0 147 0 0 144 0 0 141 0 0 137 0 0 132 0 0 126 0 0
119 0 0 108 0 118 118 0 118 118 0 118 118 0 118 118 0 60 0 0 59 0 0
59 0 0 64 0 0 68 0 0 72 0 0 76 0 0 79 0 0 83 0 0 86 0 0 89 0 0 92 0 0
94 0 0 97 0 0 100 0 0 102 0 0 105 0 0 107 0 0 109 0 0 112 0 0 114 0 0
116 0 0 118 0 0 120 0 0 122 0 0 124 0 0 126 0 0 128 0 0 130 0 0 132 0
0 134 0 0 136 0 0 138 0 0 140 0 0 141 0 0 143 0 0 145 0 0 147 0 0 148
0 0 150 0 0 152 0 0 153 0 0 155 0 0 157 0 0 158 0 0 160 0 0 161 0 0
163 0 0 164 0 0 166 0 0 167 0 0 169 0 0 170 0 0 171 0 0 173 0 0 174 0
0 175 0 0 177 0 0 178 0 0 179 0 0 180 0 0 182 0 0 183 0 0 184 0 0 185
0 0 186 0 0 187 0 0 188 0 0 189 0 0 191 0 0 191 0 0 192 0 0 193 0 0
194 0 0 195 0 0 196 0 0 197 0 0 198 0 0 198 0 0 199 0 0 200 0 0 200 0
0 201 0 0 201 0 0 202 0 0 202 0 0 202 0 0 203 0 0 203 0 0 203 0 0 203
0 0 203 0 0 203 0 0 202 0 0 202 0 0 201 0 0 200 0 0 199 0 0 198 0 0
196 0 0 194 0 0 191 0 0 186 0 0 122 122 0 122 122 0 122 122 0 122 122
0 0 0 51 0 0 51 0 0 51 0 0 51 0 0 51 0 0 51 0 0 51 0 0 51 0 0 51 0 0
53 0 0 57 0 0 60 0 0 64 0 0 68 0 0 71 0 0 74 0 0 77 0 0 80 0 0 83 0 0
86 0 0 88 0 0 91 0 0 94 0 0 96 0 0 99 0 0 101 0 0 103 0 0 105 0 0 108
0 0 110 0 0 112 0 0 114 0 0 116 0 0 118 0 0 120 0 0 121 0 0 123 0 0
125 0 0 127 0 0 128 0 0 130 0 0 131 0 0 133 0 0 134
0 159 0 0 160 0 0 161 0 0 161 0 0 162 0 0 162 0 0 163 0 0 164 0 0 164
0 0 164 0 0 165 0 0 165 0 0 165 0 0 166 0 0 166 0 0 166 0 0 166 0 0
166 0 0 166 0 0 166 0 0 165 0 0 165 0 0 165 0 0 164 0 0 164 0 0 163 0
0 162 0 0 161 0 0 160 0 0 159 0 0 158 0 0 157 0 0 155 0 0 153 0 0 151
0 0 149 0 0 146 0 0 143 0 0 140 0 0 136 0 0 132 0 0 127 0 0 120 0 0
111 0 0 95 0 119 119 0 119 119 0 119 119 0 60 0 0 58 0 0 57 0 0 62 0
0 66 0 0 70 0 0 74 0 0 77 0 0 80 0 0 84 0 0 87 0 0 89 0 0 92 0 0 95 0
0 98 0 0 100 0 0 103 0 0 105 0 0 107 0 0 110 0 0 112 0 0 114 0 0 116
0 0 119 0 0 121 0 0 123 0 0 125 0 0 127 0 0 129 0 0 131 0 0 133 0 0
135 0 0 137 0 0 139 0 0 140 0 0 142 0 0 144 0 0 146 0 0 147 0 0 149 0
0 151 0 0 152 0 0 154 0 0 155 0 0 157 0 0 158 0 0 160 0 0 161 0 0 163
0 0 164 0 0 166 0 0 167 0 0 168 0 0 170 0 0 171 0 0 173 0 0 174 0 0
175 0 0 177 0 0 178 0 0 179 0 0 180 0 0 182 0 0 183 0 0 184 0 0 185 0
0 186 0 0 187 0 0 188 0 0 189 0 0 190 0 0 191 0 0 192 0 0 193 0 0 194
0 0 195 0 0 196 0 0 197 0 0 198 0 0 198 0 0 199 0 0 200 0 0 200 0 0
201 0 0 201 0 0 202 0 0 202 0 0 203 0 0 203 0 0 203 0 0 203 0 0 203 0
0 203 0 0 203 0 0 203 0 0 203 0 0 202 0 0 201 0 0 201 0 0 199 0 0 198
0 0 196 0 0 194 0 0 190 0 0 185 0 0 123 123 0 123 123 0 123 123 0 0 0
51 0 0 51 0 0 51 0 0 51 0 0 51 0 0 51 0 0 51 0 0 51 0 0 51 0 0 51 0 0
54 0 0 58 0 0 61 0 0 65 0 0 68 0 0 71 0 0 75 0 0 78 0 0 81 0 0 83 0 0
86 0 0 89 0 0 91 0 0 94 0 0 96 0 0 99 0 0 101 0 0 103 0 0 105 0 0 108
0 0 110 0 0 112 0 0 114 0 0 116 0 0 117 0 0 119 0 0 121 0 0 123 0 0
124 0 0 126 0 0 128 0 0 129 0 0 131 0 0 132
0 157 0 0 158 0 0 159 0 0 159 0 0 160 0 0 160 0 0 161 0 0 162 0 0 162
0 0 162 0 0 163 0 0 163 0 0 163 0 0 163 0 0 164 0 0 164 0 0 164 0 0
164 0 0 164 0 0 163 0 0 163 0 0 163 0 0 162 0 0 162 0 0 161 0 0 160 0
0 160 0 0 159 0 0 158 0 0 156 0 0 155 0 0 154 0 0 152 0 0 150 0 0 148
0 0 145 0 0 143 0 0 140 0 0 136 0 0 132 0 0 127 0 0 121 0 0 113 0 0
101 0 120 120 0 120 120 0 121 121 0 59 0 0 57 0 0 56 0 0 59 0 0 64 0
0 68 0 0 71 0 0 75 0 0 78 0 0 81 0 0 84 0 0 87 0 0 90 0 0 93 0 0 95 0
0 98 0 0 101 0 0 103 0 0 106 0 0 108 0 0 111 0 0 113 0 0 115 0 0 117
0 0 120 0 0 122 0 0 124 0 0 126 0 0 128 0 0 130 0 0 132 0 0 134 0 0
136 0 0 137 0 0 139 0 0 141 0 0 143 0 0 145 0 0 146 0 0 148 0 0 150 0
0 151 0 0 153 0 0 154 0 0 156 0 0 157 0 0 159 0 0 160 0 0 162 0 0 163
0 0 165 0 0 166 0 0 167 0 0 169 0 0 170 0 0 171 0 0 172 0 0 174 0 0
175 0 0 176 0 0 178 0 0 179 0 0 180 0 0 181 0 0 183 0 0 184 0 0 185 0
0 186 0 0 187 0 0 188 0 0 189 0 0 190 0 0 191 0 0 192 0 0 193 0 0 194
0 0 195 0 0 196 0 0 197 0 0 198 0 0 198 0 0 199 0 0 200 0 0 200 0 0
201 0 0 201 0 0 202 0 0 202 0 0 203 0 0 203 0 0 203 0 0 204 0 0 204 0
0 204 0 0 204 0 0 204 0 0 203 0 0 203 0 0 202 0 0 202 0 0 201 0 0 199
0 0 198 0 0 196 0 0 193 0 0 190 0 0 183 0 0 125 125 0 125 125 0 125
125 0 0 0 51 0 0 51 0 0 51 0 0 51 0 0 51 0 0 51 0 0 51 0 0 51 0 0 51
0 0 51 0 0 55 0 0 59 0 0 62 0 0 66 0 0 69 0 0 72 0 0 75 0 0 78 0 0 81
0 0 84 0 0 86 0 0 89 0 0 92 0 0 94 0 0 96 0 0 99 0 0 101 0 0 103 0 0
105 0 0 107 0 0 109 0 0 111 0 0 113 0 0 115 0 0 117 0 0 119 0 0 120 0
0 122 0 0 124 0 0 125 0 0 127 0 0 128 0 0 130
0 155 0 0 156 0 0 156 0 0 157 0 0 158 0 0 158 0 0 159 0 0 159 0 0 160
0 0 160 0 0 161 0 0 161 0 0 161 0 0 161 0 0 161 0 0 161 0 0 161 0 0
161 0 0 161 0 0 161 0 0 161 0 0 160 0 0 160 0 0 159 0 0 159 0 0 158 0
0 157 0 0 156 0 0 155 0 0 153 0 0 152 0 0 150 0 0 149 0 0 147 0 0 144
0 0 142 0 0 139 0 0 136 0 0 132 0 0 127 0 0 122 0 0 115 0 0 105 0 121
121 0 121 121 0 122 122 0 59 0 0 57 0 0 56 0 0 57 0 0 61 0 0 65 0 0
69 0 0 73 0 0 76 0 0 79 0 0 82 0 0 85 0 0 88 0 0 91 0 0 94 0 0 96 0 0
99 0 0 102 0 0 104 0 0 107 0 0 109 0 0 112 0 0 114 0 0 116 0 0 118 0
0 120 0 0 123 0 0 125 0 0 127 0 0 129 0 0 131 0 0 133 0 0 134 0 0 136
0 0 138 0 0 140 0 0 142 0 0 143 0 0 145 0 0 147 0 0 149 0 0 150 0 0
152 0 0 153 0 0 155 0 0 156 0 0 158 0 0 159 0 0 161 0 0 162 0 0 164 0
0 165 0 0 166 0 0 168 0 0 169 0 0 170 0 0 172 0 0 173 0 0 174 0 0 175
0 0 177 0 0 178 0 0 179 0 0 180 0 0 181 0 0 182 0 0 184 0 0 185 0 0
186 0 0 187 0 0 188 0 0 189 0 0 190 0 0 191 0 0 192 0 0 193 0 0 194 0
0 195 0 0 196 0 0 197 0 0 197 0 0 198 0 0 199 0 0 200 0 0 200 0 0 201
0 0 201 0 0 202 0 0 202 0 0 203 0 0 203 0 0 204 0 0 204 0 0 204 0 0
204 0 0 204 0 0 204 0 0 204 0 0 203 0 0 203 0 0 202 0 0 202 0 0 201 0
0 199 0 0 198 0 0 195 0 0 193 0 0 189 0 0 181 0 0 126 126 0 126 126 0
126 126 0 0 0 51 0 0 51 0 0 51 0 0 51 0 0 51 0 0 51 0 0 51 0 0 51 0 0
51 0 0 52 0 0 56 0 0 59 0 0 63 0 0 66 0 0 69 0 0 72 0 0 75 0 0 78 0 0
81 0 0 84 0 0 86 0 0 89 0 0 92 0 0 94 0 0 96 0 0 99 0 0 101 0 0 103 0
0 105 0 0 107 0 0 109 0 0 111 0 0 113 0 0 115 0 0 116 0 0 118 0 0 120
0 0 122 0 0 123 0 0 125 0 0 126 0 0 128
0 153 0 0 154 0 0 154 0 0 155 0 0 156 0 0 156 0 0 157 0 0 157 0 0 158
0 0 158 0 0 158 0 0 159 0 0 159 0 0 159 0 0 159 0 0 159 0 0 159 0 0
159 0 0 159 0 0 158 0 0 158 0 0 158 0 0 157 0 0 156 0 0 156 0 0 155 0
0 154 0 0 153 0 0 152 0 0 150 0 0 149 0 0 147 0 0 145 0 0 143 0 0 141
0 0 138 0 0 135 0 0 131 0 0 127 0 0 122 0 0 115 0 0 106 0 0 90 0 123
123 0 123 123 0 59 0 0 57 0 0 55 0 0 54 0 0 58 0 0 63 0 0 66 0 0 70 0
0 73 0 0 77 0 0 80 0 0 83 0 0 86 0 0 89 0 0 92 0 0 95 0 0 98 0 0 100
0 0 103 0 0 105 0 0 108 0 0 110 0 0 113 0 0 115 0 0 117 0 0 119 0 0
121 0 0 123 0 0 125 0 0 127 0 0 129 0 0 131 0 0 133 0 0 135 0 0 137 0
0 139 0 0 141 0 0 142 0 0 144 0 0 146 0 0 147 0 0 149 0 0 151 0 0 152
0 0 154 0 0 155 0 0 157 0 0 158 0 0 160 0 0 161 0 0 163 0 0 164 0 0
166 0 0 167 0 0 168 0 0 170 0 0 171 0 0 172 0 0 173 0 0 175 0 0 176 0
0 177 0 0 178 0 0 179 0 0 180 0 0 181 0 0 182 0 0 183 0 0 184 0 0 186
0 0 187 0 0 188 0 0 189 0 0 190 0 0 191 0 0 192 0 0 193 0 0 194 0 0
195 0 0 196 0 0 196 0 0 197 0 0 198 0 0 199 0 0 199 0 0 200 0 0 201 0
0 201 0 0 202 0 0 202 0 0 203 0 0 203 0 0 204 0 0 204 0 0 204 0 0 204
0 0 204 0 0 204 0 0 204 0 0 204 0 0 203 0 0 203 0 0 202 0 0 201 0 0
200 0 0 199 0 0 197 0 0 195 0 0 192 0 0 187 0 0 177 0 0 128 128 0 128
128 0 0 0 51 0 0 51 0 0 51 0 0 51 0 0 51 0 0 51 0 0 51 0 0 51 0 0 51
0 0 51 0 0 52 0 0 56 0 0 60 0 0 63 0 0 67 0 0 70 0 0 73 0 0 76 0 0 79
0 0 81 0 0 84 0 0 87 0 0 89 0 0 91 0 0 94 0 0 96 0 0 98 0 0 101 0 0
103 0 0 105 0 0 107 0 0 109 0 0 111 0 0 112 0 0 114 0 0 116 0 0 118 0
0 119 0 0 121 0 0 122 0 0 124 0 0 125
0 151 0 0 151 0 0 152 0 0 153 0 0 153 0 0 154 0 0 154 0 0 155 0 0 155
0 0 156 0 0 156 0 0 156 0 0 156 0 0 156 0 0 156 0 0 156 0 0 156 0 0
156 0 0 156 0 0 156 0 0 155 0 0 155 0 0 154 0 0 154 0 0 153 0 0 152 0
0 151 0 0 150 0 0 149 0 0 147 0 0 145 0 0 144 0 0 142 0 0 139 0 0 137
0 0 134 0 0 130 0 0 126 0 0 121 0 0 115 0 0 107 0 0 95 0 124 124 0
124 124 0 124 124 0 56 0 0 55 0 0 54 0 0 56 0 0 60 0 0 64 0 0 68 0 0
71 0 0 75 0 0 78 0 0 81 0 0 85 0 0 88 0 0 91 0 0 93 0 0 96 0 0 99 0 0
101 0 0 104 0 0 106 0 0 109 0 0 111 0 0 113 0 0 116 0 0 118 0 0 120 0
0 122 0 0 124 0 0 126 0 0 128 0 0 130 0 0 132 0 0 134 0 0 136 0 0 138
0 0 139 0 0 141 0 0 143 0 0 145 0 0 146 0 0 148 0 0 150 0 0 151 0 0
153 0 0 154 0 0 156 0 0 157 0 0 159 0 0 160 0 0 162 0 0 163 0 0 165 0
0 166 0 0 167 0 0 169 0 0 170 0 0 171 0 0 173 0 0 174 0 0 175 0 0 176
0 0 177 0 0 179 0 0 180 0 0 181 0 0 182 0 0 183 0 0 184 0 0 185 0 0
186 0 0 187 0 0 188 0 0 189 0 0 190 0 0 191 0 0 192 0 0 193 0 0 194 0
0 194 0 0 195 0 0 196 0 0 197 0 0 198 0 0 199 0 0 199 0 0 200 0 0 201
0 0 201 0 0 202 0 0 202 0 0 203 0 0 203 0 0 204 0 0 204 0 0 204 0 0
204 0 0 204 0 0 204 0 0 204 0 0 204 0 0 204 0 0 203 0 0 203 0 0 202 0
0 201 0 0 200 0 0 198 0 0 197 0 0 194 0 0 191 0 0 185 0 0 129 129 0
129 129 0 129 129 0 0 0 51 0 0 51 0 0 51 0 0 51 0 0 51 0 0 51 0 0 51
0 0 51 0 0 51 0 0 51 0 0 53 0 0 57 0 0 60 0 0 64 0 0 67 0 0 70 0 0 73
0 0 76 0 0 79 0 0 81 0 0 84 0 0 86 0 0 89 0 0 91 0 0 94 0 0 96 0 0 98
0 0 100 0 0 102 0 0 104 0 0 106 0 0 108 0 0 110 0 0 112 0 0 113 0 0
115 0 0 117 0 0 118 0 0 120 0 0 121 0 0 123
0 148 0 0 149 0 0 150 0 0 150 0 0 151 0 0 151 0 0 152 0 0 152 0 0 153
0 0 153 0 0 153 0 0 154 0 0 154 0 0 154 0 0 154 0 0 154 0 0 154 0 0
154 0 0 153 0 0 153 0 0 153 0 0 152 0 0 151 0 0 151 0 0 150 0 0 149 0
0 148 0 0 147 0 0 145 0 0 144 0 0 142 0 0 140 0 0 138 0 0 135 0 0 132
0 0 129 0 0 125 0 0 120 0 0 115 0 0 108 0 0 97 0 124 124 0 125 125 0
125 125 0 56 0 0 55 0 0 53 0 0 53 0 0 57 0 0 61 0 0 65 0 0 69 0 0 73
0 0 76 0 0 80 0 0 83 0 0 86 0 0 89 0 0 92 0 0 95 0 0 97 0 0 100 0 0
102 0 0 105 0 0 107 0 0 110 0 0 112 0 0 114 0 0 116 0 0 119 0 0 121 0
0 123 0 0 125 0 0 127 0 0 129 0 0 131 0 0 133 0 0 135 0 0 136 0 0 138
0 0 140 0 0 142 0 0 143 0 0 145 0 0 147 0 0 149 0 0 150 0 0 152 0 0
153 0 0 155 0 0 156 0 0 158 0 0 159 0 0 161 0 0 162 0 0 164 0 0 165 0
0 166 0 0 168 0 0 169 0 0 170 0 0 172 0 0 173 0 0 174 0 0 175 0 0 177
0 0 178 0 0 179 0 0 180 0 0 181 0 0 182 0 0 183 0 0 184 0 0 185 0 0
186 0 0 187 0 0 188 0 0 189 0 0 190 0 0 191 0 0 191 0 0 192 0 0 193 0
0 194 0 0 195 0 0 196 0 0 197 0 0 198 0 0 198 0 0 199 0 0 200 0 0 200
0 0 201 0 0 202 0 0 202 0 0 203 0 0 203 0 0 204 0 0 204 0 0 204 0 0
204 0 0 204 0 0 205 0 0 205 0 0 204 0 0 204 0 0 204 0 0 203 0 0 203 0
0 202 0 0 201 0 0 200 0 0 198 0 0 196 0 0 193 0 0 189 0 0 183 0 0 130
130 0 130 130 0 130 130 0 0 0 51 0 0 51 0 0 51 0 0 51 0 0 51 0 0 51 0
0 51 0 0 51 0 0 51 0 0 51 0 0 53 0 0 57 0 0 60 0 0 64 0 0 67 0 0 70 0
0 73 0 0 76 0 0 78 0 0 81 0 0 84 0 0 86 0 0 89 0 0 91 0 0 93 0 0 95 0
0 98 0 0 100 0 0 102 0 0 104 0 0 106 0 0 107 0 0 109 0 0 111 0 0 113
0 0 114 0 0 116 0 0 117 0 0 119 0 0 120
0 146 0 0 147 0 0 147 0 0 148 0 0 149 0 0 149 0 0 149 0 0 150 0 0 150
0 0 151 0 0 151 0 0 151 0 0 151 0 0 151 0 0 151 0 0 151 0 0 151 0 0
151 0 0 150 0 0 150 0 0 150 0 0 149 0 0 148 0 0 148 0 0 147 0 0 146 0
0 144 0 0 143 0 0 142 0 0 140 0 0 138 0 0 136 0 0 133 0 0 131 0 0 127
0 0 124 0 0 119 0 0 114 0 0 107 0 0 97 0 125 125 0 126 126 0 126 126
0 56 0 0 54 0 0 53 0 0 52 0 0 54 0 0 58 0 0 63 0 0 67 0 0 71 0 0 74 0
0 78 0 0 81 0 0 84 0 0 87 0 0 90 0 0 93 0 0 96 0 0 98 0 0 101 0 0 103
0 0 106 0 0 108 0 0 110 0 0 113 0 0 115 0 0 117 0 0 119 0 0 121 0 0
123 0 0 125 0 0 127 0 0 129 0 0 131 0 0 133 0 0 135 0 0 137 0 0 139 0
0 140 0 0 142 0 0 144 0 0 146 0 0 147 0 0 149 0 0 151 0 0 152 0 0 154
0 0 155 0 0 157 0 0 158 0 0 160 0 0 161 0 0 163 0 0 164 0 0 165 0 0
167 0 0 168 0 0 170 0 0 171 0 0 172 0 0 173 0 0 175 0 0 176 0 0 177 0
0 178 0 0 179 0 0 180 0 0 181 0 0 183 0 0 184 0 0 185 0 0 186 0 0 187
0 0 188 0 0 188 0 0 189 0 0 190 0 0 191 0 0 192 0 0 193 0 0 193 0 0
194 0 0 195 0 0 196 0 0 197 0 0 197 0 0 198 0 0 199 0 0 200 0 0 200 0
0 201 0 0 201 0 0 202 0 0 203 0 0 203 0 0 203 0 0 204 0 0 204 0 0 204
0 0 204 0 0 205 0 0 205 0 0 205 0 0 204 0 0 204 0 0 204 0 0 203 0 0
202 0 0 202 0 0 200 0 0 199 0 0 197 0 0 195 0 0 192 0 0 187 0 0 179 0
0 132 132 0 132 132 0 132 132 0 0 0 51 0 0 51 0 0 51 0 0 51 0 0 51 0
0 51 0 0 51 0 0 51 0 0 51 0 0 51 0 0 54 0 0 57 0 0 61 0 0 64 0 0 67 0
0 70 0 0 73 0 0 76 0 0 78 0 0 81 0 0 83 0 0 86 0 0 88 0 0 90 0 0 93 0
0 95 0 0 97 0 0 99 0 0 101 0 0 103 0 0 105 0 0 107 0 0 108 0 0 110 0
0 112 0 0 113 0 0 115 0 0 116 0 0 118
0 144 0 0 144 0 0 145 0 0 145 0 0 146 0 0 146 0 0 147 0 0 147 0 0 148
0 0 148 0 0 148 0 0 148 0 0 148 0 0 148 0 0 148 0 0 148 0 0 148 0 0
148 0 0 147 0 0 147 0 0 146 0 0 146 0 0 145 0 0 144 0 0 143 0 0 142 0
0 141 0 0 139 0 0 138 0 0 136 0 0 134 0 0 131 0 0 129 0 0 126 0 0 122
0 0 118 0 0 113 0 0 106 0 0 97 0 126 126 0 126 126 0 127 127 0 127
127 0 54 0 0 53 0 0 52 0 0 51 0 0 56 0 0 61 0 0 65 0 0 69 0 0 72 0 0
76 0 0 79 0 0 82 0 0 85 0 0 88 0 0 91 0 0 94 0 0 97 0 0 99 0 0 102 0
0 104 0 0 107 0 0 109 0 0 111 0 0 113 0 0 116 0 0 118 0 0 120 0 0 122
0 0 124 0 0 126 0 0 128 0 0 130 0 0 132 0 0 134 0 0 136 0 0 137 0 0
139 0 0 141 0 0 143 0 0 144 0 0 146 0 0 148 0 0 149 0 0 151 0 0 153 0
0 154 0 0 156 0 0 157 0 0 159 0 0 160 0 0 162 0 0 163 0 0 164 0 0 166
0 0 167 0 0 168 0 0 170 0 0 171 0 0 172 0 0 174 0 0 175 0 0 176 0 0
177 0 0 178 0 0 180 0 0 181 0 0 182 0 0 183 0 0 184 0 0 185 0 0 186 0
0 187 0 0 188 0 0 189 0 0 190 0 0 191 0 0 191 0 0 192 0 0 193 0 0 194
0 0 194 0 0 195 0 0 196 0 0 196 0 0 197 0 0 198 0 0 199 0 0 199 0 0
200 0 0 201 0 0 201 0 0 202 0 0 202 0 0 203 0 0 203 0 0 204 0 0 204 0
0 204 0 0 204 0 0 205 0 0 205 0 0 205 0 0 204 0 0 204 0 0 204 0 0 203
0 0 203 0 0 202 0 0 201 0 0 200 0 0 198 0 0 196 0 0 194 0 0 190 0 0
185 0 0 133 133 0 133 133 0 133 133 0 133 133 0 0 0 51 0 0 51 0 0 51
0 0 51 0 0 51 0 0 51 0 0 51 0 0 51 0 0 51 0 0 51 0 0 54 0 0 57 0 0 60
0 0 64 0 0 67 0 0 70 0 0 72 0 0 75 0 0 78 0 0 80 0 0 83 0 0 85 0 0 88
0 0 90 0 0 92 0 0 94 0 0 96 0 0 98 0 0 100 0 0 102 0 0 104 0 0 106 0
0 107 0 0 109 0 0 111 0 0 112 0 0 114 0 0 115
0 141 0 0 142 0 0 142 0 0 143 0 0 143 0 0 144 0 0 144 0 0 145 0 0 145
0 0 145 0 0 145 0 0 145 0 0 146 0 0 146 0 0 145 0 0 145 0 0 145 0 0
145 0 0 144 0 0 144 0 0 143 0 0 143 0 0 142 0 0 141 0 0 140 0 0 138 0
0 137 0 0 135 0 0 134 0 0 132 0 0 129 0 0 127 0 0 124 0 0 120 0 0 116
0 0 111 0 0 105 0 0 96 0 0 77 0 127 127 0 127 127 0 128 128 0 54 0 0
52 0 0 51 0 0 51 0 0 53 0 0 58 0 0 62 0 0 66 0 0 70 0 0 74 0 0 77 0 0
80 0 0 83 0 0 86 0 0 89 0 0 92 0 0 95 0 0 97 0 0 100 0 0 102 0 0 105
0 0 107 0 0 110 0 0 112 0 0 114 0 0 116 0 0 118 0 0 121 0 0 123 0 0
125 0 0 127 0 0 129 0 0 130 0 0 132 0 0 134 0 0 136 0 0 138 0 0 140 0
0 141 0 0 143 0 0 145 0 0 146 0 0 148 0 0 150 0 0 151 0 0 153 0 0 154
0 0 156 0 0 157 0 0 159 0 0 160 0 0 162 0 0 163 0 0 165 0 0 166 0 0
167 0 0 169 0 0 170 0 0 171 0 0 173 0 0 174 0 0 175 0 0 176 0 0 178 0
0 179 0 0 180 0 0 181 0 0 182 0 0 183 0 0 184 0 0 185 0 0 186 0 0 187
0 0 188 0 0 189 0 0 190 0 0 191 0 0 192 0 0 192 0 0 193 0 0 194 0 0
195 0 0 195 0 0 196 0 0 197 0 0 197 0 0 198 0 0 198 0 0 199 0 0 200 0
0 200 0 0 201 0 0 202 0 0 202 0 0 203 0 0 203 0 0 203 0 0 204 0 0 204
0 0 204 0 0 204 0 0 205 0 0 205 0 0 204 0 0 204 0 0 204 0 0 204 0 0
203 0 0 202 0 0 202 0 0 200 0 0 199 0 0 197 0 0 195 0 0 192 0 0 188 0
0 182 0 0 134 134 0 134 134 0 134 134 0 0 0 51 0 0 51 0 0 51 0 0 51 0
0 51 0 0 51 0 0 51 0 0 51 0 0 51 0 0 51 0 0 51 0 0 54 0 0 57 0 0 60 0
0 63 0 0 66 0 0 69 0 0 72 0 0 75 0 0 77 0 0 80 0 0 82 0 0 85 0 0 87 0
0 89 0 0 91 0 0 93 0 0 95 0 0 97 0 0 99 0 0 101 0 0 103 0 0 105 0 0
106 0 0 108 0 0 110 0 0 111 0 0 113
0 138 0 0 139 0 0 139 0 0 140 0 0 141 0 0 141 0 0 141 0 0 142 0 0 142
0 0 142 0 0 142 0 0 142 0 0 143 0 0 142 0 0 142 0 0 142 0 0 142 0 0
141 0 0 141 0 0 140 0 0 140 0 0 139 0 0 138 0 0 137 0 0 136 0 0 135 0
0 133 0 0 131 0 0 129 0 0 127 0 0 125 0 0 122 0 0 118 0 0 114 0 0 109
0 0 103 0 0 95 0 0 78 0 128 128 0 128 128 0 128 128 0 54 0 0 52 0 0
51 0 0 51 0 0 51 0 0 56 0 0 60 0 0 64 0 0 68 0 0 72 0 0 75 0 0 78 0 0
81 0 0 84 0 0 87 0 0 90 0 0 93 0 0 96 0 0 98 0 0 101 0 0 103 0 0 106
0 0 108 0 0 110 0 0 113 0 0 115 0 0 117 0 0 119 0 0 121 0 0 123 0 0
125 0 0 127 0 0 129 0 0 131 0 0 133 0 0 135 0 0 136 0 0 138 0 0 140 0
0 142 0 0 143 0 0 145 0 0 147 0 0 148 0 0 150 0 0 152 0 0 153 0 0 155
0 0 156 0 0 158 0 0 159 0 0 161 0 0 162 0 0 164 0 0 165 0 0 166 0 0
168 0 0 169 0 0 170 0 0 172 0 0 173 0 0 174 0 0 175 0 0 177 0 0 178 0
0 179 0 0 180 0 0 181 0 0 182 0 0 183 0 0 184 0 0 185 0 0 186 0 0 187
0 0 188 0 0 189 0 0 190 0 0 191 0 0 192 0 0 193 0 0 194 0 0 194 0 0
195 0 0 196 0 0 196 0 0 197 0 0 198 0 0 198 0 0 199 0 0 199 0 0 200 0
0 200 0 0 201 0 0 201 0 0 202 0 0 202 0 0 203 0 0 203 0 0 204 0 0 204
0 0 204 0 0 204 0 0 204 0 0 204 0 0 204 0 0 204 0 0 204 0 0 204 0 0
203 0 0 203 0 0 202 0 0 201 0 0 200 0 0 198 0 0 196 0 0 194 0 0 191 0
0 186 0 0 177 0 0 136 136 0 136 136 0 136 136 0 0 0 51 0 0 51 0 0 51
0 0 51 0 0 51 0 0 51 0 0 51 0 0 51 0 0 51 0 0 51 0 0 51 0 0 53 0 0 57
0 0 60 0 0 63 0 0 66 0 0 69 0 0 72 0 0 74 0 0 77 0 0 79 0 0 82 0 0 84
0 0 86 0 0 88 0 0 90 0 0 93 0 0 94 0 0 96 0 0 98 0 0 100 0 0 102 0 0
104 0 0 105 0 0 107 0 0 108 0 0 110
0 135 0 0 136 0 0 137 0 0 137 0 0 138 0 0 138 0 0 138 0 0 139 0 0 139
0 0 139 0 0 139 0 0 139 0 0 139 0 0 139 0 0 139 0 0 139 0 0 139 0 0
138 0 0 138 0 0 137 0 0 136 0 0 135 0 0 134 0 0 133 0 0 132 0 0 130 0
0 129 0 0 127 0 0 125 0 0 122 0 0 119 0 0 116 0 0 112 0 0 107 0 0 101
0 0 93 0 0 76 0 129 129 0 129 129 0 129 129 0 129 129 0 52 0 0 51 0 0
51 0 0 51 0 0 53 0 0 58 0 0 62 0 0 66 0 0 69 0 0 73 0 0 76 0 0 79 0 0
83 0 0 85 0 0 88 0 0 91 0 0 94 0 0 96 0 0 99 0 0 101 0 0 104 0 0 106
0 0 109 0 0 111 0 0 113 0 0 115 0 0 117 0 0 120 0 0 122 0 0 124 0 0
126 0 0 128 0 0 129 0 0 131 0 0 133 0 0 135 0 0 137 0 0 139 0 0 140 0
0 142 0 0 144 0 0 145 0 0 147 0 0 149 0 0 150 0 0 152 0 0 153 0 0 155
0 0 157 0 0 158 0 0 160 0 0 161 0 0 162 0 0 164 0 0 165 0 0 167 0 0
168 0 0 169 0 0 171 0 0 172 0 0 173 0 0 174 0 0 176 0 0 177 0 0 178 0
0 179 0 0 180 0 0 181 0 0 182 0 0 184 0 0 185 0 0 186 0 0 187 0 0 188
0 0 189 0 0 189 0 0 190 0 0 191 0 0 192 0 0 193 0 0 194 0 0 195 0 0
195 0 0 196 0 0 197 0 0 197 0 0 198 0 0 198 0 0 199 0 0 199 0 0 200 0
0 200 0 0 201 0 0 201 0 0 201 0 0 202 0 0 202 0 0 203 0 0 203 0 0 204
0 0 204 0 0 204 0 0 204 0 0 204 0 0 204 0 0 204 0 0 204 0 0 204 0 0
203 0 0 203 0 0 202 0 0 201 0 0 200 0 0 199 0 0 197 0 0 195 0 0 192 0
0 189 0 0 183 0 0 137 137 0 137 137 0 137 137 0 137 137 0 0 0 51 0 0
51 0 0 51 0 0 51 0 0 51 0 0 51 0 0 51 0 0 51 0 0 51 0 0 51 0 0 51 0 0
53 0 0 56 0 0 59 0 0 62 0 0 65 0 0 68 0 0 71 0 0 73 0 0 76 0 0 78 0 0
81 0 0 83 0 0 85 0 0 87 0 0 89 0 0 91 0 0 93 0 0 95 0 0 97 0 0 99 0 0
101 0 0 102 0 0 104 0 0 105 0 0 107
0 133 0 0 133 0 0 134 0 0 134 0 0 135 0 0 135 0 0 135 0 0 136 0 0 136
0 0 136 0 0 136 0 0 136 0 0 136 0 0 136 0 0 136 0 0 135 0 0 135 0 0
135 0 0 134 0 0 133 0 0 132 0 0 131 0 0 130 0 0 129 0 0 128 0 0 126 0
0 124 0 0 122 0 0 119 0 0 117 0 0 113 0 0 109 0 0 105 0 0 99 0 0 90 0
0 68 0 130 130 0 130 130 0 130 130 0 130 130 0 52 0 0 51 0 0 51 0 0
51 0 0 51 0 0 55 0 0 59 0 0 63 0 0 67 0 0 71 0 0 74 0 0 77 0 0 80 0 0
83 0 0 86 0 0 89 0 0 92 0 0 95 0 0 97 0 0 100 0 0 102 0 0 105 0 0 107
0 0 109 0 0 111 0 0 114 0 0 116 0 0 118 0 0 120 0 0 122 0 0 124 0 0
126 0 0 128 0 0 130 0 0 132 0 0 134 0 0 135 0 0 137 0 0 139 0 0 141 0
0 142 0 0 144 0 0 146 0 0 147 0 0 149 0 0 151 0 0 152 0 0 154 0 0 155
0 0 157 0 0 158 0 0 160 0 0 161 0 0 163 0 0 164 0 0 165 0 0 167 0 0
168 0 0 169 0 0 171 0 0 172 0 0 173 0 0 174 0 0 176 0 0 177 0 0 178 0
0 179 0 0 180 0 0 182 0 0 183 0 0 184 0 0 185 0 0 186 0 0 187 0 0 188
0 0 189 0 0 190 0 0 191 0 0 191 0 0 192 0 0 193 0 0 194 0 0 195 0 0
195 0 0 196 0 0 197 0 0 197 0 0 198 0 0 199 0 0 199 0 0 200 0 0 200 0
0 201 0 0 201 0 0 201 0 0 202 0 0 202 0 0 202 0 0 203 0 0 203 0 0 203
0 0 204 0 0 204 0 0 204 0 0 204 0 0 204 0 0 204 0 0 204 0 0 204 0 0
203 0 0 203 0 0 202 0 0 202 0 0 201 0 0 199 0 0 198 0 0 196 0 0 194 0
0 191 0 0 186 0 0 179 0 0 138 138 0 138 138 0 138 138 0 138 138 0 0 0
51 0 0 51 0 0 51 0 0 51 0 0 51 0 0 51 0 0 51 0 0 51 0 0 51 0 0 51 0 0
51 0 0 52 0 0 56 0 0 59 0 0 62 0 0 65 0 0 67 0 0 70 0 0 73 0 0 75 0 0
77 0 0 80 0 0 82 0 0 84 0 0 86 0 0 88 0 0 90 0 0 92 0 0 94 0 0 96 0 0
97 0 0 99 0 0 101 0 0 102 0 0 104
0 129 0 0 130 0 0 131 0 0 131 0 0 131 0 0 132 0 0 132 0 0 132 0 0 133
0 0 133 0 0 133 0 0 133 0 0 133 0 0 132 0 0 132 0 0 132 0 0 131 0 0
131 0 0 130 0 0 129 0 0 128 0 0 127 0 0 126 0 0 124 0 0 123 0 0 121 0
0 119 0 0 116 0 0 114 0 0 110 0 0 106 0 0 102 0 0 96 0 0 87 0 131 131
0 131 131 0 131 131 0 131 131 0 131 131 0 131 131 0 51 0 0 51 0 0 51
0 0 51 0 0 52 0 0 57 0 0 61 0 0 65 0 0 68 0 0 72 0 0 75 0 0 78 0 0 81
0 0 84 0 0 87 0 0 90 0 0 93 0 0 95 0 0 98 0 0 100 0 0 103 0 0 105 0 0
107 0 0 110 0 0 112 0 0 114 0 0 116 0 0 118 0 0 120 0 0 122 0 0 124 0
0 126 0 0 128 0 0 130 0 0 132 0 0 134 0 0 136 0 0 137 0 0 139 0 0 141
0 0 143 0 0 144 0 0 146 0 0 148 0 0 149 0 0 151 0 0 152 0 0 154 0 0
155 0 0 157 0 0 158 0 0 160 0 0 161 0 0 163 0 0 164 0 0 166 0 0 167 0
0 168 0 0 170 0 0 171 0 0 172 0 0 173 0 0 175 0 0 176 0 0 177 0 0 178
0 0 179 0 0 181 0 0 182 0 0 183 0 0 184 0 0 185 0 0 186 0 0 187 0 0
188 0 0 189 0 0 190 0 0 191 0 0 192 0 0 192 0 0 193 0 0 194 0 0 195 0
0 196 0 0 196 0 0 197 0 0 198 0 0 198 0 0 199 0 0 199 0 0 200 0 0 200
0 0 201 0 0 201 0 0 202 0 0 202 0 0 202 0 0 202 0 0 203 0 0 203 0 0
203 0 0 203 0 0 204 0 0 204 0 0 204 0 0 204 0 0 204 0 0 204 0 0 204 0
0 203 0 0 203 0 0 202 0 0 202 0 0 201 0 0 200 0 0 198 0 0 197 0 0 195
0 0 192 0 0 188 0 0 183 0 0 139 139 0 139 139 0 139 139 0 139 139 0
139 139 0 139 139 0 0 0 51 0 0 51 0 0 51 0 0 51 0 0 51 0 0 51 0 0 51
0 0 51 0 0 51 0 0 51 0 0 51 0 0 55 0 0 58 0 0 61 0 0 64 0 0 66 0 0 69
0 0 72 0 0 74 0 0 76 0 0 79 0 0 81 0 0 83 0 0 85 0 0 87 0 0 89 0 0 91
0 0 93 0 0 94 0 0 96 0 0 98 0 0 99 0 0 101
0 126 0 0 127 0 0 127 0 0 128 0 0 128 0 0 129 0 0 129 0 0 129 0 0 129
0 0 129 0 0 129 0 0 129 0 0 129 0 0 129 0 0 128 0 0 128 0 0 127 0 0
127 0 0 126 0 0 125 0 0 124 0 0 123 0 0 121 0 0 120 0 0 118 0 0 116 0
0 113 0 0 110 0 0 107 0 0 103 0 0 98 0 0 92 0 0 83 0 132 132 0 132
132 0 132 132 0 132 132 0 132 132 0 132 132 0 51 0 0 51 0 0 51 0 0 51
0 0 51 0 0 54 0 0 58 0 0 62 0 0 66 0 0 69 0 0 73 0 0 76 0 0 79 0 0 82
0 0 85 0 0 88 0 0 91 0 0 93 0 0 96 0 0 98 0 0 101 0 0 103 0 0 106 0 0
108 0 0 110 0 0 112 0 0 115 0 0 117 0 0 119 0 0 121 0 0 123 0 0 125 0
0 127 0 0 129 0 0 131 0 0 132 0 0 134 0 0 136 0 0 138 0 0 139 0 0 141
0 0 143 0 0 145 0 0 146 0 0 148 0 0 149 0 0 151 0 0 153 0 0 154 0 0
156 0 0 157 0 0 159 0 0 160 0 0 161 0 0 163 0 0 164 0 0 166 0 0 167 0
0 168 0 0 170 0 0 171 0 0 172 0 0 173 0 0 175 0 0 176 0 0 177 0 0 178
0 0 179 0 0 181 0 0 182 0 0 183 0 0 184 0 0 185 0 0 186 0 0 187 0 0
188 0 0 189 0 0 190 0 0 191 0 0 192 0 0 192 0 0 193 0 0 194 0 0 195 0
0 196 0 0 196 0 0 197 0 0 198 0 0 198 0 0 199 0 0 200 0 0 200 0 0 201
0 0 201 0 0 201 0 0 202 0 0 202 0 0 202 0 0 203 0 0 203 0 0 203 0 0
203 0 0 203 0 0 203 0 0 203 0 0 204 0 0 204 0 0 204 0 0 204 0 0 203 0
0 203 0 0 203 0 0 202 0 0 202 0 0 201 0 0 200 0 0 199 0 0 197 0 0 195
0 0 193 0 0 190 0 0 186 0 0 179 0 0 141 141 0 141 141 0 141 141 0 141
141 0 141 141 0 141 141 0 0 0 51 0 0 51 0 0 51 0 0 51 0 0 51 0 0 51 0
0 51 0 0 51 0 0 51 0 0 51 0 0 51 0 0 54 0 0 57 0 0 60 0 0 62 0 0 65 0
0 68 0 0 70 0 0 73 0 0 75 0 0 77 0 0 79 0 0 82 0 0 84 0 0 86 0 0 87 0
0 89 0 0 91 0 0 93 0 0 94 0 0 96 0 0 97
0 123 0 0 123 0 0 124 0 0 124 0 0 125 0 0 125 0 0 125 0 0 125 0 0 125
0 0 126 0 0 125 0 0 125 0 0 125 0 0 125 0 0 124 0 0 124 0 0 123 0 0
122 0 0 121 0 0 120 0 0 119 0 0 118 0 0 116 0 0 114 0 0 112 0 0 110 0
0 107 0 0 104 0 0 100 0 0 95 0 0 88 0 0 77 0 132 132 0 132 132 0 133
133 0 133 133 0 133 133 0 133 133 0 52 0 0 51 0 0 51 0 0 51 0 0 51 0
0 51 0 0 55 0 0 59 0 0 63 0 0 67 0 0 71 0 0 74 0 0 77 0 0 80 0 0 83 0
0 86 0 0 89 0 0 91 0 0 94 0 0 97 0 0 99 0 0 101 0 0 104 0 0 106 0 0
108 0 0 111 0 0 113 0 0 115 0 0 117 0 0 119 0 0 121 0 0 123 0 0 125 0
0 127 0 0 129 0 0 131 0 0 133 0 0 134 0 0 136 0 0 138 0 0 140 0 0 141
0 0 143 0 0 145 0 0 146 0 0 148 0 0 150 0 0 151 0 0 153 0 0 154 0 0
156 0 0 157 0 0 159 0 0 160 0 0 162 0 0 163 0 0 164 0 0 166 0 0 167 0
0 168 0 0 170 0 0 171 0 0 172 0 0 174 0 0 175 0 0 176 0 0 177 0 0 178
0 0 180 0 0 181 0 0 182 0 0 183 0 0 184 0 0 185 0 0 186 0 0 187 0 0
188 0 0 189 0 0 190 0 0 191 0 0 192 0 0 193 0 0 193 0 0 194 0 0 195 0
0 196 0 0 196 0 0 197 0 0 198 0 0 198 0 0 199 0 0 200 0 0 200 0 0 201
0 0 201 0 0 202 0 0 202 0 0 202 0 0 203 0 0 203 0 0 203 0 0 203 0 0
203 0 0 203 0 0 203 0 0 203 0 0 203 0 0 203 0 0 203 0 0 203 0 0 203 0
0 203 0 0 203 0 0 202 0 0 202 0 0 201 0 0 200 0 0 199 0 0 198 0 0 196
0 0 194 0 0 191 0 0 188 0 0 183 0 0 170 0 0 142 142 0 142 142 0 142
142 0 142 142 0 142 142 0 142 142 0 0 0 51 0 0 51 0 0 51 0 0 51 0 0
51 0 0 51 0 0 51 0 0 51 0 0 51 0 0 51 0 0 51 0 0 52 0 0 55 0 0 58 0 0
61 0 0 64 0 0 66 0 0 69 0 0 71 0 0 74 0 0 76 0 0 78 0 0 80 0 0 82 0 0
84 0 0 86 0 0 87 0 0 89 0 0 91 0 0 92 0 0 94
0 119 0 0 120 0 0 120 0 0 121 0 0 121 0 0 121 0 0 121 0 0 122 0 0 122
0 0 122 0 0 121 0 0 121 0 0 121 0 0 121 0 0 120 0 0 119 0 0 119 0 0
118 0 0 117 0 0 115 0 0 114 0 0 112 0 0 111 0 0 108 0 0 106 0 0 103 0
0 100 0 0 95 0 0 90 0 0 83 0 0 68 0 133 133 0 133 133 0 133 133 0 133
133 0 133 133 0 134 134 0 134 134 0 51 0 0 51 0 0 51 0 0 51 0 0 51 0
0 52 0 0 57 0 0 61 0 0 65 0 0 68 0 0 72 0 0 75 0 0 78 0 0 81 0 0 84 0
0 87 0 0 89 0 0 92 0 0 95 0 0 97 0 0 100 0 0 102 0 0 104 0 0 107 0 0
109 0 0 111 0 0 113 0 0 115 0 0 117 0 0 119 0 0 121 0 0 123 0 0 125 0
0 127 0 0 129 0 0 131 0 0 133 0 0 135 0 0 136 0 0 138 0 0 140 0 0 142
0 0 143 0 0 145 0 0 147 0 0 148 0 0 150 0 0 151 0 0 153 0 0 154 0 0
156 0 0 157 0 0 159 0 0 160 0 0 162 0 0 163 0 0 164 0 0 166 0 0 167 0
0 168 0 0 170 0 0 171 0 0 172 0 0 174 0 0 175 0 0 176 0 0 177 0 0 178
0 0 180 0 0 181 0 0 182 0 0 183 0 0 184 0 0 185 0 0 186 0 0 187 0 0
188 0 0 189 0 0 190 0 0 191 0 0 192 0 0 193 0 0 193 0 0 194 0 0 195 0
0 196 0 0 197 0 0 197 0 0 198 0 0 199 0 0 199 0 0 200 0 0 200 0 0 201
0 0 201 0 0 202 0 0 202 0 0 202 0 0 203 0 0 203 0 0 203 0 0 203 0 0
203 0 0 203 0 0 203 0 0 203 0 0 203 0 0 203 0 0 203 0 0 203 0 0 203 0
0 203 0 0 202 0 0 202 0 0 202 0 0 201 0 0 200 0 0 199 0 0 198 0 0 196
0 0 195 0 0 192 0 0 189 0 0 185 0 0 178 0 0 143 143 0 143 143 0 143
143 0 143 143 0 143 143 0 143 143 0 143 143 0 0 0 51 0 0 51 0 0 51 0
0 51 0 0 51 0 0 51 0 0 51 0 0 51 0 0 51 0 0 51 0 0 51 0 0 51 0 0 54 0
0 57 0 0 60 0 0 62 0 0 65 0 0 67 0 0 70 0 0 72 0 0 74 0 0 76 0 0 78 0
0 80 0 0 82 0 0 84 0 0 86 0 0 87 0 0 89 0 0 90
0 116 0 0 116 0 0 116 0 0 117 0 0 117 0 0 117 0 0 117 0 0 118 0 0 118
0 0 117 0 0 117 0 0 117 0 0 117 0 0 116 0 0 115 0 0 115 0 0 114 0 0
113 0 0 111 0 0 110 0 0 108 0 0 107 0 0 104 0 0 102 0 0 99 0 0 95 0 0
91 0 0 85 0 0 76 0 134 134 0 134 134 0 134 134 0 134 134 0 134 134 0
134 134 0 134 134 0 134 134 0 51 0 0 51 0 0 51 0 0 51 0 0 51 0 0 51 0
0 54 0 0 58 0 0 62 0 0 66 0 0 69 0 0 72 0 0 76 0 0 79 0 0 82 0 0 85 0
0 87 0 0 90 0 0 93 0 0 95 0 0 98 0 0 100 0 0 102 0 0 105 0 0 107 0 0
109 0 0 111 0 0 114 0 0 116 0 0 118 0 0 120 0 0 122 0 0 124 0 0 126 0
0 128 0 0 129 0 0 131 0 0 133 0 0 135 0 0 137 0 0 138 0 0 140 0 0 142
0 0 143 0 0 145 0 0 147 0 0 148 0 0 150 0 0 151 0 0 153 0 0 154 0 0
156 0 0 157 0 0 159 0 0 160 0 0 162 0 0 163 0 0 165 0 0 166 0 0 167 0
0 169 0 0 170 0 0 171 0 0 172 0 0 174 0 0 175 0 0 176 0 0 177 0 0 178
0 0 180 0 0 181 0 0 182 0 0 183 0 0 184 0 0 185 0 0 186 0 0 187 0 0
188 0 0 189 0 0 190 0 0 191 0 0 192 0 0 193 0 0 193 0 0 194 0 0 195 0
0 196 0 0 197 0 0 197 0 0 198 0 0 199 0 0 199 0 0 200 0 0 200 0 0 201
0 0 201 0 0 202 0 0 202 0 0 203 0 0 203 0 0 203 0 0 203 0 0 203 0 0
204 0 0 204 0 0 204 0 0 204 0 0 203 0 0 203 0 0 203 0 0 203 0 0 203 0
0 202 0 0 202 0 0 202 0 0 201 0 0 201 0 0 200 0 0 199 0 0 198 0 0 197
0 0 195 0 0 193 0 0 190 0 0 187 0 0 181 0 0 168 0 0 144 144 0 144 144
0 144 144 0 144 144 0 144 144 0 144 144 0 144 144 0 144 144 0 0 0 51
0 0 51 0 0 51 0 0 51 0 0 51 0 0 51 0 0 51 0 0 51 0 0 51 0 0 51 0 0 51
0 0 52 0 0 55 0 0 58 0 0 61 0 0 63 0 0 65 0 0 68 0 0 70 0 0 72 0 0 74
0 0 76 0 0 78 0 0 80 0 0 82 0 0 83 0 0 85 0 0 87
0 112 0 0 112 0 0 112 0 0 113 0 0 113 0 0 113 0 0 113 0 0 113 0 0 113
0 0 113 0 0 113 0 0 112 0 0 112 0 0 111 0 0 110 0 0 110 0 0 108 0 0
107 0 0 106 0 0 104 0 0 102 0 0 100 0 0 97 0 0 94 0 0 90 0 0 85 0 0
78 0 0 65 0 134 134 0 135 135 0 135 135 0 135 135 0 135 135 0 135 135
0 135 135 0 135 135 0 135 135 0 51 0 0 51 0 0 51 0 0 51 0 0 51 0 0 51
0 0 55 0 0 59 0 0 63 0 0 67 0 0 70 0 0 73 0 0 76 0 0 79 0 0 82 0 0 85
0 0 88 0 0 91 0 0 93 0 0 96 0 0 98 0 0 100 0 0 103 0 0 105 0 0 107 0
0 110 0 0 112 0 0 114 0 0 116 0 0 118 0 0 120 0 0 122 0 0 124 0 0 126
0 0 128 0 0 130 0 0 131 0 0 133 0 0 135 0 0 137 0 0 138 0 0 140 0 0
142 0 0 144 0 0 145 0 0 147 0 0 148 0 0 150 0 0 151 0 0 153 0 0 155 0
0 156 0 0 157 0 0 159 0 0 160 0 0 162 0 0 163 0 0 165 0 0 166 0 0 167
0 0 169 0 0 170 0 0 171 0 0 172 0 0 174 0 0 175 0 0 176 0 0 177 0 0
178 0 0 180 0 0 181 0 0 182 0 0 183 0 0 184 0 0 185 0 0 186 0 0 187 0
0 188 0 0 189 0 0 190 0 0 191 0 0 192 0 0 193 0 0 193 0 0 194 0 0 195
0 0 196 0 0 196 0 0 197 0 0 198 0 0 199 0 0 199 0 0 200 0 0 200 0 0
201 0 0 201 0 0 202 0 0 202 0 0 203 0 0 203 0 0 203 0 0 203 0 0 204 0
0 204 0 0 204 0 0 204 0 0 204 0 0 204 0 0 203 0 0 203 0 0 203 0 0 202
0 0 202 0 0 202 0 0 202 0 0 201 0 0 201 0 0 200 0 0 199 0 0 198 0 0
197 0 0 195 0 0 193 0 0 191 0 0 188 0 0 183 0 0 176 0 0 145 145 0 145
145 0 145 145 0 145 145 0 145 145 0 145 145 0 145 145 0 145 145 0 146
146 0 0 0 51 0 0 51 0 0 51 0 0 51 0 0 51 0 0 51 0 0 51 0 0 51 0 0 51
0 0 51 0 0 51 0 0 51 0 0 53 0 0 56 0 0 59 0 0 61 0 0 63 0 0 66 0 0 68
0 0 70 0 0 72 0 0 74 0 0 76 0 0 78 0 0 79 0 0 81 0 0 83
0 107 0 0 108 0 0 108 0 0 108 0 0 109 0 0 109 0 0 109 0 0 109 0 0 108
0 0 108 0 0 108 0 0 107 0 0 107 0 0 106 0 0 105 0 0 104 0 0 103 0 0
101 0 0 99 0 0 97 0 0 95 0 0 92 0 0 89 0 0 84 0 0 78 0 0 69 0 135 135
0 135 135 0 135 135 0 135 135 0 136 136 0 136 136 0 136 136 0 136 136
0 136 136 0 136 136 0 136 136 0 51 0 0 51 0 0 51 0 0 51 0 0 51 0 0 52
0 0 56 0 0 60 0 0 64 0 0 67 0 0 71 0 0 74 0 0 77 0 0 80 0 0 83 0 0 86
0 0 88 0 0 91 0 0 94 0 0 96 0 0 98 0 0 101 0 0 103 0 0 105 0 0 108 0
0 110 0 0 112 0 0 114 0 0 116 0 0 118 0 0 120 0 0 122 0 0 124 0 0 126
0 0 128 0 0 130 0 0 132 0 0 133 0 0 135 0 0 137 0 0 139 0 0 140 0 0
142 0 0 144 0 0 145 0 0 147 0 0 148 0 0 150 0 0 152 0 0 153 0 0 155 0
0 156 0 0 157 0 0 159 0 0 160 0 0 162 0 0 163 0 0 165 0 0 166 0 0 167
0 0 168 0 0 170 0 0 171 0 0 172 0 0 174 0 0 175 0 0 176 0 0 177 0 0
178 0 0 179 0 0 181 0 0 182 0 0 183 0 0 184 0 0 185 0 0 186 0 0 187 0
0 188 0 0 189 0 0 190 0 0 191 0 0 192 0 0 192 0 0 193 0 0 194 0 0 195
0 0 196 0 0 196 0 0 197 0 0 198 0 0 199 0 0 199 0 0 200 0 0 200 0 0
201 0 0 201 0 0 202 0 0 202 0 0 203 0 0 203 0 0 203 0 0 203 0 0 204 0
0 204 0 0 204 0 0 204 0 0 204 0 0 204 0 0 204 0 0 203 0 0 203 0 0 203
0 0 202 0 0 202 0 0 201 0 0 201 0 0 200 0 0 200 0 0 199 0 0 198 0 0
197 0 0 195 0 0 194 0 0 191 0 0 189 0 0 185 0 0 179 0 0 146 146 0 147
147 0 147 147 0 147 147 0 147 147 0 147 147 0 147 147 0 147 147 0 147
147 0 147 147 0 147 147 0 0 0 51 0 0 51 0 0 51 0 0 51 0 0 51 0 0 51 0
0 51 0 0 51 0 0 51 0 0 51 0 0 51 0 0 51 0 0 54 0 0 56 0 0 59 0 0 61 0
0 63 0 0 66 0 0 68 0 0 70 0 0 72 0 0 73 0 0 75 0 0 77 0 0 78
0 103 0 0 103 0 0 103 0 0 104 0 0 104 0 0 104 0 0 104 0 0 104 0 0 103
0 0 103 0 0 102 0 0 102 0 0 101 0 0 100 0 0 99 0 0 98 0 0 96 0 0 94 0
0 92 0 0 89 0 0 86 0 0 82 0 0 77 0 0 69 0 136 136 0 136 136 0 136 136
0 136 136 0 136 136 0 136 136 0 136 136 0 136 136 0 137 137 0 137 137
0 137 137 0 137 137 0 51 0 0 51 0 0 51 0 0 51 0 0 51 0 0 51 0 0 53 0
0 57 0 0 61 0 0 65 0 0 68 0 0 72 0 0 75 0 0 78 0 0 81 0 0 83 0 0 86 0
0 89 0 0 91 0 0 94 0 0 96 0 0 99 0 0 101 0 0 104 0 0 106 0 0 108 0 0
110 0 0 112 0 0 114 0 0 116 0 0 118 0 0 120 0 0 122 0 0 124 0 0 126 0
0 128 0 0 130 0 0 132 0 0 133 0 0 135 0 0 137 0 0 139 0 0 140 0 0 142
0 0 144 0 0 145 0 0 147 0 0 148 0 0 150 0 0 152 0 0 153 0 0 155 0 0
156 0 0 157 0 0 159 0 0 160 0 0 162 0 0 163 0 0 164 0 0 166 0 0 167 0
0 168 0 0 170 0 0 171 0 0 172 0 0 173 0 0 175 0 0 176 0 0 177 0 0 178
0 0 179 0 0 180 0 0 182 0 0 183 0 0 184 0 0 185 0 0 186 0 0 187 0 0
188 0 0 189 0 0 190 0 0 191 0 0 192 0 0 192 0 0 193 0 0 194 0 0 195 0
0 196 0 0 196 0 0 197 0 0 198 0 0 198 0 0 199 0 0 200 0 0 200 0 0 201
0 0 201 0 0 202 0 0 202 0 0 203 0 0 203 0 0 203 0 0 203 0 0 204 0 0
204 0 0 204 0 0 204 0 0 204 0 0 204 0 0 204 0 0 204 0 0 203 0 0 203 0
0 202 0 0 202 0 0 201 0 0 201 0 0 200 0 0 199 0 0 199 0 0 198 0 0 197
0 0 195 0 0 194 0 0 192 0 0 189 0 0 186 0 0 182 0 0 174 0 0 148 148 0
148 148 0 148 148 0 148 148 0 148 148 0 148 148 0 148 148 0 148 148 0
148 148 0 148 148 0 148 148 0 148 148 0 0 0 51 0 0 51 0 0 51 0 0 51 0
0 51 0 0 51 0 0 51 0 0 51 0 0 51 0 0 51 0 0 51 0 0 51 0 0 54 0 0 56 0
0 58 0 0 61 0 0 63 0 0 65 0 0 67 0 0 69 0 0 71 0 0 72 0 0 74
0 98 0 0 98 0 0 98 0 0 98 0 0 99 0 0 98 0 0 98 0 0 98 0 0 98 0 0 97 0
0 96 0 0 96 0 0 95 0 0 93 0 0 92 0 0 90 0 0 88 0 0 86 0 0 83 0 0 79 0
0 74 0 0 67 0 136 136 0 136 136 0 136 136 0 137 137 0 137 137 0 137
137 0 137 137 0 137 137 0 137 137 0 137 137 0 137 137 0 137 137 0 138
138 0 138 138 0 51 0 0 51 0 0 51 0 0 51 0 0 51 0 0 51 0 0 54 0 0 58 0
0 62 0 0 66 0 0 69 0 0 72 0 0 75 0 0 78 0 0 81 0 0 84 0 0 87 0 0 89 0
0 92 0 0 94 0 0 97 0 0 99 0 0 102 0 0 104 0 0 106 0 0 108 0 0 110 0 0
112 0 0 115 0 0 117 0 0 119 0 0 121 0 0 123 0 0 124 0 0 126 0 0 128 0
0 130 0 0 132 0 0 134 0 0 135 0 0 137 0 0 139 0 0 140 0 0 142 0 0 144
0 0 145 0 0 147 0 0 148 0 0 150 0 0 152 0 0 153 0 0 155 0 0 156 0 0
157 0 0 159 0 0 160 0 0 162 0 0 163 0 0 164 0 0 166 0 0 167 0 0 168 0
0 170 0 0 171 0 0 172 0 0 173 0 0 175 0 0 176 0 0 177 0 0 178 0 0 179
0 0 180 0 0 181 0 0 183 0 0 184 0 0 185 0 0 186 0 0 187 0 0 188 0 0
189 0 0 190 0 0 190 0 0 191 0 0 192 0 0 193 0 0 194 0 0 195 0 0 195 0
0 196 0 0 197 0 0 198 0 0 198 0 0 199 0 0 200 0 0 200 0 0 201 0 0 201
0 0 202 0 0 202 0 0 202 0 0 203 0 0 203 0 0 203 0 0 204 0 0 204 0 0
204 0 0 204 0 0 204 0 0 204 0 0 204 0 0 204 0 0 203 0 0 203 0 0 203 0
0 202 0 0 201 0 0 201 0 0 200 0 0 199 0 0 198 0 0 198 0 0 197 0 0 195
0 0 194 0 0 192 0 0 190 0 0 187 0 0 183 0 0 177 0 0 149 149 0 149 149
0 149 149 0 149 149 0 149 149 0 149 149 0 149 149 0 149 149 0 149 149
0 149 149 0 149 149 0 149 149 0 149 149 0 149 149 0 0 0 51 0 0 51 0 0
51 0 0 51 0 0 51 0 0 51 0 0 51 0 0 51 0 0 51 0 0 51 0 0 51 0 0 51 0 0
53 0 0 55 0 0 58 0 0 60 0 0 62 0 0 64 0 0 66 0 0 68 0 0 69
0 92 0 0 93 0 0 93 0 0 93 0 0 93 0 0 93 0 0 92 0 0 92 0 0 91 0 0 91 0
0 90 0 0 89 0 0 87 0 0 86 0 0 84 0 0 82 0 0 79 0 0 75 0 0 71 0 0 64 0
137 137 0 137 137 0 137 137 0 137 137 0 137 137 0 137 137 0 137 137 0
138 138 0 138 138 0 138 138 0 138 138 0 138 138 0 138 138 0 138 138 0
138 138 0 51 0 0 51 0 0 51 0 0 51 0 0 51 0 0 51 0 0 51 0 0 55 0 0 59
0 0 63 0 0 66 0 0 70 0 0 73 0 0 76 0 0 79 0 0 82 0 0 84 0 0 87 0 0 90
0 0 92 0 0 95 0 0 97 0 0 99 0 0 102 0 0 104 0 0 106 0 0 108 0 0 111 0
0 113 0 0 115 0 0 117 0 0 119 0 0 121 0 0 123 0 0 125 0 0 126 0 0 128
0 0 130 0 0 132 0 0 134 0 0 135 0 0 137 0 0 139 0 0 140 0 0 142 0 0
144 0 0 145 0 0 147 0 0 148 0 0 150 0 0 151 0 0 153 0 0 154 0 0 156 0
0 157 0 0 159 0 0 160 0 0 162 0 0 163 0 0 164 0 0 166 0 0 167 0 0 168
0 0 170 0 0 171 0 0 172 0 0 173 0 0 174 0 0 176 0 0 177 0 0 178 0 0
179 0 0 180 0 0 181 0 0 182 0 0 183 0 0 185 0 0 186 0 0 187 0 0 188 0
0 188 0 0 189 0 0 190 0 0 191 0 0 192 0 0 193 0 0 194 0 0 195 0 0 195
0 0 196 0 0 197 0 0 198 0 0 198 0 0 199 0 0 199 0 0 200 0 0 201 0 0
201 0 0 202 0 0 202 0 0 202 0 0 203 0 0 203 0 0 203 0 0 204 0 0 204 0
0 204 0 0 204 0 0 204 0 0 204 0 0 204 0 0 204 0 0 203 0 0 203 0 0 203
0 0 202 0 0 202 0 0 201 0 0 200 0 0 199 0 0 198 0 0 197 0 0 196 0 0
195 0 0 194 0 0 192 0 0 190 0 0 187 0 0 184 0 0 179 0 0 170 0 0 150
150 0 150 150 0 150 150 0 150 150 0 150 150 0 150 150 0 150 150 0 150
150 0 150 150 0 150 150 0 150 150 0 150 150 0 150 150 0 150 150 0 150
150 0 0 0 51 0 0 51 0 0 51 0 0 51 0 0 51 0 0 51 0 0 51 0 0 51 0 0 51
0 0 51 0 0 51 0 0 51 0 0 52 0 0 54 0 0 56 0 0 58 0 0 60 0 0 62 0 0 64
0 86 0 0 87 0 0 87 0 0 87 0 0 86 0 0 86 0 0 86 0 0 85 0 0 84 0 0 83 0
0 82 0 0 80 0 0 79 0 0 76 0 0 74 0 0 70 0 0 65 0 0 57 0 137 137 0 137
137 0 138 138 0 138 138 0 138 138 0 138 138 0 138 138 0 138 138 0 138
138 0 138 138 0 138 138 0 139 139 0 139 139 0 139 139 0 139 139 0 139
139 0 139 139 0 51 0 0 51 0 0 51 0 0 51 0 0 51 0 0 51 0 0 52 0 0 56 0
0 60 0 0 64 0 0 67 0 0 70 0 0 73 0 0 76 0 0 79 0 0 82 0 0 85 0 0 87 0
0 90 0 0 93 0 0 95 0 0 97 0 0 100 0 0 102 0 0 104 0 0 106 0 0 109 0 0
111 0 0 113 0 0 115 0 0 117 0 0 119 0 0 121 0 0 123 0 0 125 0 0 126 0
0 128 0 0 130 0 0 132 0 0 134 0 0 135 0 0 137 0 0 139 0 0 140 0 0 142
0 0 144 0 0 145 0 0 147 0 0 148 0 0 150 0 0 151 0 0 153 0 0 154 0 0
156 0 0 157 0 0 159 0 0 160 0 0 161 0 0 163 0 0 164 0 0 166 0 0 167 0
0 168 0 0 169 0 0 171 0 0 172 0 0 173 0 0 174 0 0 176 0 0 177 0 0 178
0 0 179 0 0 180 0 0 181 0 0 182 0 0 183 0 0 184 0 0 185 0 0 186 0 0
187 0 0 188 0 0 189 0 0 190 0 0 191 0 0 192 0 0 193 0 0 194 0 0 194 0
0 195 0 0 196 0 0 197 0 0 197 0 0 198 0 0 199 0 0 199 0 0 200 0 0 200
0 0 201 0 0 201 0 0 202 0 0 202 0 0 203 0 0 203 0 0 203 0 0 203 0 0
204 0 0 204 0 0 204 0 0 204 0 0 204 0 0 204 0 0 204 0 0 203 0 0 203 0
0 203 0 0 202 0 0 202 0 0 201 0 0 200 0 0 199 0 0 198 0 0 197 0 0 196
0 0 195 0 0 194 0 0 192 0 0 190 0 0 188 0 0 185 0 0 180 0 0 174 0 0
151 151 0 151 151 0 151 151 0 151 151 0 151 151 0 151 151 0 151 151 0
151 151 0 151 151 0 151 151 0 151 151 0 151 151 0 151 151 0 151 151 0
151 151 0 151 151 0 151 151 0 0 0 51 0 0 51 0 0 51 0 0 51 0 0 51 0 0
51 0 0 51 0 0 51 0 0 51 0 0 51 0 0 51 0 0 51 0 0 51 0 0 52 0 0 54 0 0
56 0 0 58
0 80 0 0 80 0 0 80 0 0 79 0 0 79 0 0 78 0 0 78 0 0 77 0 0 76 0 0 74 0
0 72 0 0 70 0 0 67 0 0 63 0 0 57 0 138 138 0 138 138 0 138 138 0 138
138 0 138 138 0 138 138 0 138 138 0 138 138 0 139 139 0 139 139 0 139
139 0 139 139 0 139 139 0 139 139 0 139 139 0 139 139 0 140 140 0 140
140 0 140 140 0 140 140 0 51 0 0 51 0 0 51 0 0 51 0 0 51 0 0 51 0 0
53 0 0 57 0 0 61 0 0 64 0 0 68 0 0 71 0 0 74 0 0 77 0 0 80 0 0 82 0 0
85 0 0 88 0 0 90 0 0 93 0 0 95 0 0 98 0 0 100 0 0 102 0 0 104 0 0 107
0 0 109 0 0 111 0 0 113 0 0 115 0 0 117 0 0 119 0 0 121 0 0 123 0 0
125 0 0 127 0 0 128 0 0 130 0 0 132 0 0 134 0 0 135 0 0 137 0 0 139 0
0 140 0 0 142 0 0 144 0 0 145 0 0 147 0 0 148 0 0 150 0 0 151 0 0 153
0 0 154 0 0 156 0 0 157 0 0 159 0 0 160 0 0 161 0 0 163 0 0 164 0 0
165 0 0 167 0 0 168 0 0 169 0 0 171 0 0 172 0 0 173 0 0 174 0 0 175 0
0 177 0 0 178 0 0 179 0 0 180 0 0 181 0 0 182 0 0 183 0 0 184 0 0 185
0 0 186 0 0 187 0 0 188 0 0 189 0 0 190 0 0 191 0 0 192 0 0 193 0 0
193 0 0 194 0 0 195 0 0 196 0 0 196 0 0 197 0 0 198 0 0 198 0 0 199 0
0 200 0 0 200 0 0 201 0 0 201 0 0 202 0 0 202 0 0 202 0 0 203 0 0 203
0 0 203 0 0 204 0 0 204 0 0 204 0 0 204 0 0 204 0 0 204 0 0 204 0 0
203 0 0 203 0 0 203 0 0 202 0 0 202 0 0 201 0 0 200 0 0 199 0 0 198 0
0 197 0 0 196 0 0 195 0 0 194 0 0 192 0 0 190 0 0 188 0 0 185 0 0 181
0 0 176 0 0 152 152 0 152 152 0 152 152 0 152 152 0 152 152 0 152 152
0 152 152 0 152 152 0 152 152 0 152 152 0 152 152 0 152 152 0 152 152
0 152 152 0 152 152 0 152 152 0 152 152 0 152 152 0 152 152 0 153 153
0 0 0 51 0 0 51 0 0 51 0 0 51 0 0 51 0 0 51 0 0 51 0 0 51 0 0 51 0 0
51 0 0 51 0 0 51 0 0 51 0 0 52
0 72 0 0 71 0 0 71 0 0 71 0 0 70 0 0 69 0 0 68 0 0 66 0 0 64 0 0 61 0
0 58 0 0 52 0 138 138 0 138 138 0 138 138 0 138 138 0 139 139 0 139
139 0 139 139 0 139 139 0 139 139 0 139 139 0 139 139 0 139 139 0 139
139 0 140 140 0 140 140 0 140 140 0 140 140 0 140 140 0 140 140 0 140
140 0 140 140 0 140 140 0 51 0 0 51 0 0 51 0 0 51 0 0 51 0 0 51 0 0
51 0 0 54 0 0 58 0 0 61 0 0 65 0 0 68 0 0 71 0 0 74 0 0 77 0 0 80 0 0
83 0 0 85 0 0 88 0 0 91 0 0 93 0 0 95 0 0 98 0 0 100 0 0 102 0 0 105
0 0 107 0 0 109 0 0 111 0 0 113 0 0 115 0 0 117 0 0 119 0 0 121 0 0
123 0 0 125 0 0 127 0 0 128 0 0 130 0 0 132 0 0 134 0 0 135 0 0 137 0
0 139 0 0 140 0 0 142 0 0 144 0 0 145 0 0 147 0 0 148 0 0 150 0 0 151
0 0 153 0 0 154 0 0 156 0 0 157 0 0 158 0 0 160 0 0 161 0 0 163 0 0
164 0 0 165 0 0 167 0 0 168 0 0 169 0 0 170 0 0 172 0 0 173 0 0 174 0
0 175 0 0 176 0 0 177 0 0 179 0 0 180 0 0 181 0 0 182 0 0 183 0 0 184
0 0 185 0 0 186 0 0 187 0 0 188 0 0 189 0 0 190 0 0 191 0 0 192 0 0
192 0 0 193 0 0 194 0 0 195 0 0 196 0 0 196 0 0 197 0 0 198 0 0 198 0
0 199 0 0 199 0 0 200 0 0 201 0 0 201 0 0 201 0 0 202 0 0 202 0 0 203
0 0 203 0 0 203 0 0 203 0 0 204 0 0 204 0 0 204 0 0 204 0 0 204 0 0
204 0 0 203 0 0 203 0 0 203 0 0 202 0 0 202 0 0 201 0 0 200 0 0 200 0
0 199 0 0 197 0 0 196 0 0 195 0 0 193 0 0 192 0 0 190 0 0 188 0 0 185
0 0 182 0 0 177 0 0 169 0 0 153 153 0 153 153 0 153 153 0 153 153 0
153 153 0 153 153 0 153 153 0 153 153 0 153 153 0 153 153 0 153 153 0
153 153 0 153 153 0 153 153 0 154 154 0 154 154 0 154 154 0 154 154 0
154 154 0 154 154 0 154 154 0 154 154 0 0 0 51 0 0 51 0 0 51 0 0 51 0
0 51 0 0 51 0 0 51 0 0 51 0 0 51 0 0 51 0 0 51
0 61 0 0 61 0 0 60 0 0 59 0 0 58 0 0 56 0 0 53 0 0 51 0 138 138 0 138
138 0 139 139 0 139 139 0 139 139 0 139 139 0 139 139 0 139 139 0 139
139 0 139 139 0 139 139 0 140 140 0 140 140 0 140 140 0 140 140 0 140
140 0 140 140 0 140 140 0 140 140 0 141 141 0 141 141 0 141 141 0 141
141 0 141 141 0 141 141 0 141 141 0 51 0 0 51 0 0 51 0 0 51 0 0 51 0
0 51 0 0 51 0 0 55 0 0 58 0 0 62 0 0 65 0 0 69 0 0 72 0 0 75 0 0 78 0
0 80 0 0 83 0 0 86 0 0 88 0 0 91 0 0 93 0 0 96 0 0 98 0 0 100 0 0 103
0 0 105 0 0 107 0 0 109 0 0 111 0 0 113 0 0 115 0 0 117 0 0 119 0 0
121 0 0 123 0 0 125 0 0 126 0 0 128 0 0 130 0 0 132 0 0 134 0 0 135 0
0 137 0 0 139 0 0 140 0 0 142 0 0 143 0 0 145 0 0 147 0 0 148 0 0 150
0 0 151 0 0 153 0 0 154 0 0 155 0 0 157 0 0 158 0 0 160 0 0 161 0 0
162 0 0 164 0 0 165 0 0 166 0 0 168 0 0 169 0 0 170 0 0 171 0 0 173 0
0 174 0 0 175 0 0 176 0 0 177 0 0 178 0 0 179 0 0 181 0 0 182 0 0 183
0 0 184 0 0 185 0 0 186 0 0 187 0 0 188 0 0 189 0 0 189 0 0 190 0 0
191 0 0 192 0 0 193 0 0 194 0 0 195 0 0 195 0 0 196 0 0 197 0 0 197 0
0 198 0 0 199 0 0 199 0 0 200 0 0 200 0 0 201 0 0 201 0 0 202 0 0 202
0 0 202 0 0 203 0 0 203 0 0 203 0 0 203 0 0 204 0 0 204 0 0 204 0 0
204 0 0 203 0 0 203 0 0 203 0 0 203 0 0 202 0 0 202 0 0 201 0 0 201 0
0 200 0 0 199 0 0 198 0 0 196 0 0 195 0 0 193 0 0 192 0 0 190 0 0 188
0 0 186 0 0 182 0 0 178 0 0 172 0 0 154 154 0 154 154 0 154 154 0 154
154 0 154 154 0 154 154 0 154 154 0 154 154 0 154 154 0 154 154 0 154
154 0 154 154 0 155 155 0 155 155 0 155 155 0 155 155 0 155 155 0 155
155 0 155 155 0 155 155 0 155 155 0 155 155 0 155 155 0 155 155 0 155
155 0 155 155 0 0 0 51 0 0 51 0 0 51 0 0 51 0 0 51 0 0 51 0 0 51
0 51 0 0 51 0 0 51 0 138 138 0 139 139 0 139 139 0 139 139 0 139 139
0 139 139 0 139 139 0 139 139 0 139 139 0 139 139 0 140 140 0 140 140
0 140 140 0 140 140 0 140 140 0 140 140 0 140 140 0 140 140 0 141 141
0 141 141 0 141 141 0 141 141 0 141 141 0 141 141 0 141 141 0 141 141
0 141 141 0 142 142 0 142 142 0 142 142 0 142 142 0 51 0 0 51 0 0 51
0 0 51 0 0 51 0 0 51 0 0 51 0 0 55 0 0 59 0 0 62 0 0 66 0 0 69 0 0 72
0 0 75 0 0 78 0 0 81 0 0 83 0 0 86 0 0 89 0 0 91 0 0 93 0 0 96 0 0 98
0 0 100 0 0 103 0 0 105 0 0 107 0 0 109 0 0 111 0 0 113 0 0 115 0 0
117 0 0 119 0 0 121 0 0 123 0 0 125 0 0 126 0 0 128 0 0 130 0 0 132 0
0 133 0 0 135 0 0 137 0 0 138 0 0 140 0 0 142 0 0 143 0 0 145 0 0 146
0 0 148 0 0 149 0 0 151 0 0 152 0 0 154 0 0 155 0 0 157 0 0 158 0 0
159 0 0 161 0 0 162 0 0 164 0 0 165 0 0 166 0 0 167 0 0 169 0 0 170 0
0 171 0 0 172 0 0 174 0 0 175 0 0 176 0 0 177 0 0 178 0 0 179 0 0 180
0 0 181 0 0 182 0 0 183 0 0 184 0 0 185 0 0 186 0 0 187 0 0 188 0 0
189 0 0 190 0 0 191 0 0 192 0 0 193 0 0 193 0 0 194 0 0 195 0 0 196 0
0 196 0 0 197 0 0 198 0 0 198 0 0 199 0 0 200 0 0 200 0 0 201 0 0 201
0 0 201 0 0 202 0 0 202 0 0 203 0 0 203 0 0 203 0 0 203 0 0 203 0 0
203 0 0 203 0 0 203 0 0 203 0 0 203 0 0 203 0 0 203 0 0 202 0 0 202 0
0 201 0 0 201 0 0 200 0 0 199 0 0 198 0 0 196 0 0 195 0 0 193 0 0 191
0 0 190 0 0 188 0 0 186 0 0 183 0 0 179 0 0 173 0 0 155 155 0 155 155
0 155 155 0 155 155 0 155 155 0 155 155 0 155 155 0 155 155 0 155 155
0 155 155 0 155 155 0 156 156 0 156 156 0 156 156 0 156 156 0 156 156
0 156 156 0 156 156 0 156 156 0 156 156 0 156 156 0 156 156 0 156 156
0 156 156 0 156 156 0 156 156 0 156 156 0 156 156 0 156 156 0 156 156
0 156 156 0 0 0 51 0 0 51
139 139 0 139 139 0 139 139 0 139 139 0 139 139 0 139 139 0 139 139 0
140 140 0 140 140 0 140 140 0 140 140 0 140 140 0 140 140 0 140 140 0
140 140 0 140 140 0 141 141 0 141 141 0 141 141 0 141 141 0 141 141 0
141 141 0 141 141 0 141 141 0 142 142 0 142 142 0 142 142 0 142 142 0
142 142 0 142 142 0 142 142 0 142 142 0 143 143 0 51 0 0 51 0 0 51 0
0 51 0 0 51 0 0 51 0 0 51 0 0 52 0 0 56 0 0 59 0 0 63 0 0 66 0 0 69 0
0 72 0 0 75 0 0 78 0 0 81 0 0 84 0 0 86 0 0 89 0 0 91 0 0 94 0 0 96 0
0 98 0 0 100 0 0 103 0 0 105 0 0 107 0 0 109 0 0 111 0 0 113 0 0 115
0 0 117 0 0 119 0 0 121 0 0 123 0 0 125 0 0 126 0 0 128 0 0 130 0 0
132 0 0 133 0 0 135 0 0 137 0 0 138 0 0 140 0 0 142 0 0 143 0 0 145 0
0 146 0 0 148 0 0 149 0 0 151 0 0 152 0 0 154 0 0 155 0 0 157 0 0 158
0 0 159 0 0 161 0 0 162 0 0 163 0 0 165 0 0 166 0 0 167 0 0 168 0 0
170 0 0 171 0 0 172 0 0 173 0 0 174 0 0 176 0 0 177 0 0 178 0 0 179 0
0 180 0 0 181 0 0 182 0 0 183 0 0 184 0 0 185 0 0 186 0 0 187 0 0 188
0 0 189 0 0 190 0 0 191 0 0 192 0 0 192 0 0 193 0 0 194 0 0 195 0 0
195 0 0 196 0 0 197 0 0 197 0 0 198 0 0 199 0 0 199 0 0 200 0 0 200 0
0 201 0 0 201 0 0 202 0 0 202 0 0 202 0 0 203 0 0 203 0 0 203 0 0 203
0 0 203 0 0 203 0 0 203 0 0 203 0 0 203 0 0 203 0 0 202 0 0 202 0 0
202 0 0 201 0 0 200 0 0 200 0 0 199 0 0 198 0 0 197 0 0 195 0 0 194 0
0 192 0 0 190 0 0 188 0 0 186 0 0 183 0 0 179 0 0 175 0 0 166 0 0 156
156 0 156 156 0 156 156 0 156 156 0 156 156 0 156 156 0 156 156 0 156
156 0 156 156 0 156 156 0 157 157 0 157 157 0 157 157 0 157 157 0 157
157 0 157 157 0 157 157 0 157 157 0 157 157 0 157 157 0 157 157 0 157
157 0 157 157 0 157 157 0 157 157 0 157 157 0 157 157 0 157 157 0 157
157 0 157 157 0 157 157 0 157 157 0
139 139 0 140 140 0 140 140 0 140 140 0 140 140 0 140 140 0 140 140 0
140 140 0 140 140 0 140 140 0 141 141 0 141 141 0 141 141 0 141 141 0
141 141 0 141 141 0 141 141 0 141 141 0 142 142 0 142 142 0 142 142 0
142 142 0 142 142 0 142 142 0 142 142 0 142 142 0 142 142 0 143 143 0
143 143 0 143 143 0 143 143 0 143 143 0 143 143 0 51 0 0 51 0 0 51 0
0 51 0 0 51 0 0 51 0 0 51 0 0 53 0 0 56 0 0 60 0 0 63 0 0 67 0 0 70 0
0 73 0 0 76 0 0 78 0 0 81 0 0 84 0 0 86 0 0 89 0 0 91 0 0 94 0 0 96 0
0 98 0 0 101 0 0 103 0 0 105 0 0 107 0 0 109 0 0 111 0 0 113 0 0 115
0 0 117 0 0 119 0 0 121 0 0 123 0 0 124 0 0 126 0 0 128 0 0 130 0 0
132 0 0 133 0 0 135 0 0 137 0 0 138 0 0 140 0 0 141 0 0 143 0 0 145 0
0 146 0 0 148 0 0 149 0 0 151 0 0 152 0 0 153 0 0 155 0 0 156 0 0 158
0 0 159 0 0 160 0 0 162 0 0 163 0 0 164 0 0 166 0 0 167 0 0 168 0 0
169 0 0 171 0 0 172 0 0 173 0 0 174 0 0 175 0 0 176 0 0 178 0 0 179 0
0 180 0 0 181 0 0 182 0 0 183 0 0 184 0 0 185 0 0 186 0 0 187 0 0 188
0 0 189 0 0 190 0 0 190 0 0 191 0 0 192 0 0 193 0 0 194 0 0 194 0 0
195 0 0 196 0 0 196 0 0 197 0 0 198 0 0 198 0 0 199 0 0 199 0 0 200 0
0 200 0 0 201 0 0 201 0 0 202 0 0 202 0 0 202 0 0 202 0 0 203 0 0 203
0 0 203 0 0 203 0 0 203 0 0 203 0 0 203 0 0 203 0 0 202 0 0 202 0 0
202 0 0 201 0 0 200 0 0 200 0 0 199 0 0 198 0 0 197 0 0 195 0 0 194 0
0 192 0 0 190 0 0 188 0 0 185 0 0 183 0 0 180 0 0 175 0 0 168 0 0 157
157 0 157 157 0 157 157 0 157 157 0 157 157 0 157 157 0 157 157 0 157
157 0 157 157 0 157 157 0 158 158 0 158 158 0 158 158 0 158 158 0 158
158 0 158 158 0 158 158 0 158 158 0 158 158 0 158 158 0 158 158 0 158
158 0 158 158 0 158 158 0 158 158 0 158 158 0 158 158 0 158 158 0 158
158 0 158 158 0 158 158 0 158 158 0
140 140 0 140 140 0 140 140 0 140 140 0 141 141 0 141 141 0 141 141 0
141 141 0 141 141 0 141 141 0 141 141 0 141 141 0 141 141 0 142 142 0
142 142 0 142 142 0 142 142 0 142 142 0 142 142 0 142 142 0 142 142 0
143 143 0 143 143 0 143 143 0 143 143 0 143 143 0 143 143 0 143 143 0
143 143 0 144 144 0 144 144 0 144 144 0 144 144 0 51 0 0 51 0 0 51 0
0 51 0 0 51 0 0 51 0 0 51 0 0 53 0 0 57 0 0 60 0 0 64 0 0 67 0 0 70 0
0 73 0 0 76 0 0 79 0 0 81 0 0 84 0 0 86 0 0 89 0 0 91 0 0 94 0 0 96 0
0 98 0 0 101 0 0 103 0 0 105 0 0 107 0 0 109 0 0 111 0 0 113 0 0 115
0 0 117 0 0 119 0 0 121 0 0 123 0 0 124 0 0 126 0 0 128 0 0 130 0 0
131 0 0 133 0 0 135 0 0 136 0 0 138 0 0 140 0 0 141 0 0 143 0 0 144 0
0 146 0 0 147 0 0 149 0 0 150 0 0 152 0 0 153 0 0 155 0 0 156 0 0 157
0 0 159 0 0 160 0 0 161 0 0 163 0 0 164 0 0 165 0 0 167 0 0 168 0 0
169 0 0 170 0 0 172 0 0 173 0 0 174 0 0 175 0 0 176 0 0 177 0 0 178 0
0 179 0 0 180 0 0 182 0 0 183 0 0 184 0 0 185 0 0 186 0 0 186 0 0 187
0 0 188 0 0 189 0 0 190 0 0 191 0 0 192 0 0 193 0 0 193 0 0 194 0 0
195 0 0 195 0 0 196 0 0 197 0 0 197 0 0 198 0 0 199 0 0 199 0 0 200 0
0 200 0 0 201 0 0 201 0 0 201 0 0 202 0 0 202 0 0 202 0 0 202 0 0 203
0 0 203 0 0 203 0 0 203 0 0 203 0 0 203 0 0 202 0 0 202 0 0 202 0 0
201 0 0 201 0 0 200 0 0 200 0 0 199 0 0 198 0 0 197 0 0 195 0 0 194 0
0 192 0 0 190 0 0 188 0 0 185 0 0 183 0 0 180 0 0 176 0 0 170 0 0 158
158 0 158 158 0 158 158 0 158 158 0 158 158 0 158 158 0 158 158 0 158
158 0 158 158 0 158 158 0 158 158 0 159 159 0 159 159 0 159 159 0 159
159 0 159 159 0 159 159 0 159 159 0 159 159 0 159 159 0 159 159 0 159
159 0 159 159 0 159 159 0 159 159 0 159 159 0 159 159 0 159 159 0 159
159 0 159 159 0 159 159 0 159 159 0
141 141 0 141 141 0 141 141 0 141 141 0 141 141 0 141 141 0 141 141 0
142 142 0 142 142 0 142 142 0 142 142 0 142 142 0 142 142 0 142 142 0
142 142 0 142 142 0 143 143 0 143 143 0 143 143 0 143 143 0 143 143 0
143 143 0 143 143 0 143 143 0 144 144 0 144 144 0 144 144 0 144 144 0
144 144 0 144 144 0 144 144 0 144 144 0 51 0 0 51 0 0 51 0 0 51 0 0
51 0 0 51 0 0 51 0 0 51 0 0 54 0 0 57 0 0 61 0 0 64 0 0 67 0 0 70 0 0
73 0 0 76 0 0 79 0 0 81 0 0 84 0 0 87 0 0 89 0 0 91 0 0 94 0 0 96 0 0
98 0 0 101 0 0 103 0 0 105 0 0 107 0 0 109 0 0 111 0 0 113 0 0 115 0
0 117 0 0 119 0 0 121 0 0 122 0 0 124 0 0 126 0 0 128 0 0 130 0 0 131
0 0 133 0 0 135 0 0 136 0 0 138 0 0 139 0 0 141 0 0 143 0 0 144 0 0
146 0 0 147 0 0 149 0 0 150 0 0 152 0 0 153 0 0 154 0 0 156 0 0 157 0
0 159 0 0 160 0 0 161 0 0 163 0 0 164 0 0 165 0 0 166 0 0 168 0 0 169
0 0 170 0 0 171 0 0 172 0 0 174 0 0 175 0 0 176 0 0 177 0 0 178 0 0
179 0 0 180 0 0 181 0 0 182 0 0 183 0 0 184 0 0 185 0 0 186 0 0 187 0
0 188 0 0 189 0 0 190 0 0 191 0 0 191 0 0 192 0 0 193 0 0 194 0 0 194
0 0 195 0 0 196 0 0 196 0 0 197 0 0 198 0 0 198 0 0 199 0 0 199 0 0
200 0 0 200 0 0 201 0 0 201 0 0 201 0 0 202 0 0 202 0 0 202 0 0 202 0
0 202 0 0 202 0 0 202 0 0 202 0 0 202 0 0 202 0 0 202 0 0 202 0 0 201
0 0 201 0 0 200 0 0 199 0 0 199 0 0 198 0 0 197 0 0 195 0 0 194 0 0
192 0 0 190 0 0 188 0 0 186 0 0 183 0 0 180 0 0 176 0 0 171 0 0 160 0
0 159 159 0 159 159 0 159 159 0 159 159 0 159 159 0 159 159 0 159 159
0 159 159 0 159 159 0 159 159 0 159 159 0 160 160 0 160 160 0 160 160
0 160 160 0 160 160 0 160 160 0 160 160 0 160 160 0 160 160 0 160 160
0 160 160 0 160 160 0 160 160 0 160 160 0 160 160 0 160 160 0 160 160
0 160 160 0 160 160 0 160 160 0
141 141 0 141 141 0 142 142 0 142 142 0 142 142 0 142 142 0 142 142 0
142 142 0 142 142 0 142 142 0 143 143 0 143 143 0 143 143 0 143 143 0
143 143 0 143 143 0 143 143 0 143 143 0 143 143 0 144 144 0 144 144 0
144 144 0 144 144 0 144 144 0 144 144 0 144 144 0 144 144 0 145 145 0
145 145 0 145 145 0 145 145 0 145 145 0 51 0 0 51 0 0 51 0 0 51 0 0
51 0 0 51 0 0 51 0 0 51 0 0 54 0 0 58 0 0 61 0 0 64 0 0 67 0 0 70 0 0
73 0 0 76 0 0 79 0 0 82 0 0 84 0 0 87 0 0 89 0 0 91 0 0 94 0 0 96 0 0
98 0 0 101 0 0 103 0 0 105 0 0 107 0 0 109 0 0 111 0 0 113 0 0 115 0
0 117 0 0 119 0 0 120 0 0 122 0 0 124 0 0 126 0 0 128 0 0 129 0 0 131
0 0 133 0 0 134 0 0 136 0 0 138 0 0 139 0 0 141 0 0 142 0 0 144 0 0
145 0 0 147 0 0 148 0 0 150 0 0 151 0 0 153 0 0 154 0 0 156 0 0 157 0
0 158 0 0 160 0 0 161 0 0 162 0 0 164 0 0 165 0 0 166 0 0 167 0 0 169
0 0 170 0 0 171 0 0 172 0 0 173 0 0 174 0 0 175 0 0 177 0 0 178 0 0
179 0 0 180 0 0 181 0 0 182 0 0 183 0 0 184 0 0 185 0 0 186 0 0 187 0
0 188 0 0 188 0 0 189 0 0 190 0 0 191 0 0 192 0 0 193 0 0 193 0 0 194
0 0 195 0 0 195 0 0 196 0 0 197 0 0 197 0 0 198 0 0 198 0 0 199 0 0
199 0 0 200 0 0 200 0 0 201 0 0 201 0 0 201 0 0 201 0 0 202 0 0 202 0
0 202 0 0 202 0 0 202 0 0 202 0 0 202 0 0 202 0 0 202 0 0 201 0 0 201
0 0 200 0 0 200 0 0 199 0 0 198 0 0 198 0 0 196 0 0 195 0 0 194 0 0
192 0 0 190 0 0 188 0 0 186 0 0 183 0 0 179 0 0 176 0 0 171 0 0 163 0
0 160 160 0 160 160 0 160 160 0 160 160 0 160 160 0 160 160 0 160 160
0 160 160 0 160 160 0 160 160 0 160 160 0 160 160 0 160 160 0 161 161
0 161 161 0 161 161 0 161 161 0 161 161 0 161 161 0 161 161 0 161 161
0 161 161 0 161 161 0 161 161 0 161 161 0 161 161 0 161 161 0 161 161
0 161 161 0 161 161 0 161 161 0
142 142 0 142 142 0 142 142 0 142 142 0 142 142 0 143 143 0 143 143 0
143 143 0 143 143 0 143 143 0 143 143 0 143 143 0 143 143 0 143 143 0
144 144 0 144 144 0 144 144 0 144 144 0 144 144 0 144 144 0 144 144 0
144 144 0 145 145 0 145 145 0 145 145 0 145 145 0 145 145 0 145 145 0
145 145 0 145 145 0 146 146 0 146 146 0 51 0 0 51 0 0 51 0 0 51 0 0
51 0 0 51 0 0 51 0 0 51 0 0 54 0 0 58 0 0 61 0 0 64 0 0 68 0 0 71 0 0
73 0 0 76 0 0 79 0 0 82 0 0 84 0 0 87 0 0 89 0 0 91 0 0 94 0 0 96 0 0
98 0 0 100 0 0 103 0 0 105 0 0 107 0 0 109 0 0 111 0 0 113 0 0 115 0
0 117 0 0 118 0 0 120 0 0 122 0 0 124 0 0 126 0 0 127 0 0 129 0 0 131
0 0 133 0 0 134 0 0 136 0 0 137 0 0 139 0 0 141 0 0 142 0 0 144 0 0
145 0 0 147 0 0 148 0 0 150 0 0 151 0 0 152 0 0 154 0 0 155 0 0 157 0
0 158 0 0 159 0 0 161 0 0 162 0 0 163 0 0 164 0 0 166 0 0 167 0 0 168
0 0 169 0 0 171 0 0 172 0 0 173 0 0 174 0 0 175 0 0 176 0 0 177 0 0
178 0 0 179 0 0 180 0 0 181 0 0 182 0 0 183 0 0 184 0 0 185 0 0 186 0
0 187 0 0 188 0 0 189 0 0 190 0 0 191 0 0 191 0 0 192 0 0 193 0 0 194
0 0 194 0 0 195 0 0 196 0 0 196 0 0 197 0 0 197 0 0 198 0 0 198 0 0
199 0 0 199 0 0 200 0 0 200 0 0 201 0 0 201 0 0 201 0 0 201 0 0 202 0
0 202 0 0 202 0 0 202 0 0 202 0 0 202 0 0 201 0 0 201 0 0 201 0 0 201
0 0 200 0 0 200 0 0 199 0 0 198 0 0 197 0 0 196 0 0 195 0 0 194 0 0
192 0 0 191 0 0 188 0 0 186 0 0 183 0 0 180 0 0 176 0 0 172 0 0 165 0
0 161 161 0 161 161 0 161 161 0 161 161 0 161 161 0 161 161 0 161 161
0 161 161 0 161 161 0 161 161 0 161 161 0 161 161 0 161 161 0 161 161
0 162 162 0 162 162 0 162 162 0 162 162 0 162 162 0 162 162 0 162 162
0 162 162 0 162 162 0 162 162 0 162 162 0 162 162 0 162 162 0 162 162
0 162 162 0 162 162 0 162 162 0
143 143 0 143 143 0 143 143 0 143 143 0 143 143 0 143 143 0 143 143 0
143 143 0 143 143 0 144 144 0 144 144 0 144 144 0 144 144 0 144 144 0
144 144 0 144 144 0 144 144 0 145 145 0 145 145 0 145 145 0 145 145 0
145 145 0 145 145 0 145 145 0 145 145 0 146 146 0 146 146 0 146 146 0
146 146 0 146 146 0 146 146 0 146 146 0 51 0 0 51 0 0 51 0 0 51 0 0
51 0 0 51 0 0 51 0 0 51 0 0 55 0 0 58 0 0 61 0 0 65 0 0 68 0 0 71 0 0
74 0 0 76 0 0 79 0 0 82 0 0 84 0 0 87 0 0 89 0 0 91 0 0 94 0 0 96 0 0
98 0 0 100 0 0 103 0 0 105 0 0 107 0 0 109 0 0 111 0 0 113 0 0 115 0
0 116 0 0 118 0 0 120 0 0 122 0 0 124 0 0 125 0 0 127 0 0 129 0 0 131
0 0 132 0 0 134 0 0 136 0 0 137 0 0 139 0 0 140 0 0 142 0 0 143 0 0
145 0 0 146 0 0 148 0 0 149 0 0 151 0 0 152 0 0 154 0 0 155 0 0 156 0
0 158 0 0 159 0 0 160 0 0 162 0 0 163 0 0 164 0 0 165 0 0 167 0 0 168
0 0 169 0 0 170 0 0 171 0 0 172 0 0 174 0 0 175 0 0 176 0 0 177 0 0
178 0 0 179 0 0 180 0 0 181 0 0 182 0 0 183 0 0 184 0 0 185 0 0 186 0
0 187 0 0 188 0 0 188 0 0 189 0 0 190 0 0 191 0 0 192 0 0 192 0 0 193
0 0 194 0 0 195 0 0 195 0 0 196 0 0 196 0 0 197 0 0 198 0 0 198 0 0
199 0 0 199 0 0 199 0 0 200 0 0 200 0 0 200 0 0 201 0 0 201 0 0 201 0
0 201 0 0 201 0 0 201 0 0 201 0 0 201 0 0 201 0 0 201 0 0 201 0 0 200
0 0 200 0 0 199 0 0 199 0 0 198 0 0 197 0 0 196 0 0 195 0 0 194 0 0
192 0 0 190 0 0 188 0 0 186 0 0 183 0 0 180 0 0 176 0 0 172 0 0 166 0
0 162 162 0 162 162 0 162 162 0 162 162 0 162 162 0 162 162 0 162 162
0 162 162 0 162 162 0 162 162 0 162 162 0 162 162 0 162 162 0 162 162
0 162 162 0 162 162 0 163 163 0 163 163 0 163 163 0 163 163 0 163 163
0 163 163 0 163 163 0 163 163 0 163 163 0 163 163 0 163 163 0 163 163
0 163 163 0 163 163 0 163 163 0
143 143 0 143 143 0 143 143 0 143 143 0 144 144 0 144 144 0 144 144 0
144 144 0 144 144 0 144 144 0 144 144 0 144 144 0 145 145 0 145 145 0
145 145 0 145 145 0 145 145 0 145 145 0 145 145 0 145 145 0 146 146 0
146 146 0 146 146 0 146 146 0 146 146 0 146 146 0 146 146 0 146 146 0
147 147 0 147 147 0 147 147 0 51 0 0 51 0 0 51 0 0 51 0 0 51 0 0 51 0
0 51 0 0 51 0 0 51 0 0 55 0 0 58 0 0 62 0 0 65 0 0 68 0 0 71 0 0 74 0
0 76 0 0 79 0 0 82 0 0 84 0 0 87 0 0 89 0 0 91 0 0 94 0 0 96 0 0 98 0
0 100 0 0 102 0 0 104 0 0 107 0 0 109 0 0 111 0 0 112 0 0 114 0 0 116
0 0 118 0 0 120 0 0 122 0 0 124 0 0 125 0 0 127 0 0 129 0 0 130 0 0
132 0 0 134 0 0 135 0 0 137 0 0 138 0 0 140 0 0 142 0 0 143 0 0 145 0
0 146 0 0 148 0 0 149 0 0 150 0 0 152 0 0 153 0 0 155 0 0 156 0 0 157
0 0 159 0 0 160 0 0 161 0 0 162 0 0 164 0 0 165 0 0 166 0 0 167 0 0
169 0 0 170 0 0 171 0 0 172 0 0 173 0 0 174 0 0 175 0 0 177 0 0 178 0
0 179 0 0 180 0 0 181 0 0 182 0 0 183 0 0 184 0 0 184 0 0 185 0 0 186
0 0 187 0 0 188 0 0 189 0 0 190 0 0 190 0 0 191 0 0 192 0 0 193 0 0
193 0 0 194 0 0 195 0 0 195 0 0 196 0 0 197 0 0 197 0 0 198 0 0 198 0
0 199 0 0 199 0 0 199 0 0 200 0 0 200 0 0 200 0 0 200 0 0 201 0 0 201
0 0 201 0 0 201 0 0 201 0 0 201 0 0 201 0 0 201 0 0 200 0 0 200 0 0
199 0 0 199 0 0 198 0 0 198 0 0 197 0 0 196 0 0 195 0 0 194 0 0 192 0
0 190 0 0 188 0 0 186 0 0 184 0 0 180 0 0 177 0 0 172 0 0 166 0 0 154
0 0 163 163 0 163 163 0 163 163 0 163 163 0 163 163 0 163 163 0 163
163 0 163 163 0 163 163 0 163 163 0 163 163 0 163 163 0 163 163 0 163
163 0 163 163 0 163 163 0 163 163 0 163 163 0 164 164 0 164 164 0 164
164 0 164 164 0 164 164 0 164 164 0 164 164 0 164 164 0 164 164 0 164
164 0 164 164 0 164 164 0
144 144 0 144 144 0 144 144 0 144 144 0 144 144 0 144 144 0 144 144 0
145 145 0 145 145 0 145 145 0 145 145 0 145 145 0 145 145 0 145 145 0
145 145 0 146 146 0 146 146 0 146 146 0 146 146 0 146 146 0 146 146 0
146 146 0 146 146 0 147 147 0 147 147 0 147 147 0 147 147 0 147 147 0
147 147 0 147 147 0 147 147 0 51 0 0 51 0 0 51 0 0 51 0 0 51 0 0 51 0
0 51 0 0 51 0 0 51 0 0 55 0 0 58 0 0 62 0 0 65 0 0 68 0 0 71 0 0 74 0
0 76 0 0 79 0 0 82 0 0 84 0 0 87 0 0 89 0 0 91 0 0 94 0 0 96 0 0 98 0
0 100 0 0 102 0 0 104 0 0 106 0 0 108 0 0 110 0 0 112 0 0 114 0 0 116
0 0 118 0 0 120 0 0 122 0 0 123 0 0 125 0 0 127 0 0 128 0 0 130 0 0
132 0 0 133 0 0 135 0 0 137 0 0 138 0 0 140 0 0 141 0 0 143 0 0 144 0
0 146 0 0 147 0 0 149 0 0 150 0 0 151 0 0 153 0 0 154 0 0 156 0 0 157
0 0 158 0 0 160 0 0 161 0 0 162 0 0 163 0 0 165 0 0 166 0 0 167 0 0
168 0 0 169 0 0 171 0 0 172 0 0 173 0 0 174 0 0 175 0 0 176 0 0 177 0
0 178 0 0 179 0 0 180 0 0 181 0 0 182 0 0 183 0 0 184 0 0 185 0 0 186
0 0 187 0 0 188 0 0 188 0 0 189 0 0 190 0 0 191 0 0 192 0 0 192 0 0
193 0 0 194 0 0 194 0 0 195 0 0 196 0 0 196 0 0 197 0 0 197 0 0 198 0
0 198 0 0 198 0 0 199 0 0 199 0 0 200 0 0 200 0 0 200 0 0 200 0 0 200
0 0 200 0 0 201 0 0 200 0 0 200 0 0 200 0 0 200 0 0 200 0 0 200 0 0
199 0 0 199 0 0 198 0 0 197 0 0 197 0 0 196 0 0 195 0 0 193 0 0 192 0
0 190 0 0 188 0 0 186 0 0 184 0 0 181 0 0 177 0 0 172 0 0 166 0 0 157
0 0 163 163 0 163 163 0 164 164 0 164 164 0 164 164 0 164 164 0 164
164 0 164 164 0 164 164 0 164 164 0 164 164 0 164 164 0 164 164 0 164
164 0 164 164 0 164 164 0 164 164 0 164 164 0 164 164 0 164 164 0 164
164 0 165 165 0 165 165 0 165 165 0 165 165 0 165 165 0 165 165 0 165
165 0 165 165 0 165 165 0
144 144 0 144 144 0 145 145 0 145 145 0 145 145 0 145 145 0 145 145 0
145 145 0 145 145 0 145 145 0 146 146 0 146 146 0 146 146 0 146 146 0
146 146 0 146 146 0 146 146 0 146 146 0 147 147 0 147 147 0 147 147 0
147 147 0 147 147 0 147 147 0 147 147 0 147 147 0 148 148 0 148 148 0
148 148 0 148 148 0 148 148 0 51 0 0 51 0 0 51 0 0 51 0 0 51 0 0 51 0
0 51 0 0 51 0 0 52 0 0 55 0 0 59 0 0 62 0 0 65 0 0 68 0 0 71 0 0 74 0
0 76 0 0 79 0 0 82 0 0 84 0 0 86 0 0 89 0 0 91 0 0 93 0 0 96 0 0 98 0
0 100 0 0 102 0 0 104 0 0 106 0 0 108 0 0 110 0 0 112 0 0 114 0 0 116
0 0 118 0 0 119 0 0 121 0 0 123 0 0 125 0 0 126 0 0 128 0 0 130 0 0
131 0 0 133 0 0 135 0 0 136 0 0 138 0 0 139 0 0 141 0 0 142 0 0 144 0
0 145 0 0 147 0 0 148 0 0 150 0 0 151 0 0 152 0 0 154 0 0 155 0 0 157
0 0 158 0 0 159 0 0 160 0 0 162 0 0 163 0 0 164 0 0 165 0 0 167 0 0
168 0 0 169 0 0 170 0 0 171 0 0 172 0 0 173 0 0 175 0 0 176 0 0 177 0
0 178 0 0 179 0 0 180 0 0 181 0 0 182 0 0 183 0 0 184 0 0 184 0 0 185
0 0 186 0 0 187 0 0 188 0 0 189 0 0 190 0 0 190 0 0 191 0 0 192 0 0
192 0 0 193 0 0 194 0 0 194 0 0 195 0 0 196 0 0 196 0 0 197 0 0 197 0
0 198 0 0 198 0 0 198 0 0 199 0 0 199 0 0 199 0 0 200 0 0 200 0 0 200
0 0 200 0 0 200 0 0 200 0 0 200 0 0 200 0 0 200 0 0 199 0 0 199 0 0
199 0 0 198 0 0 198 0 0 197 0 0 196 0 0 195 0 0 194 0 0 193 0 0 192 0
0 190 0 0 188 0 0 186 0 0 184 0 0 181 0 0 177 0 0 173 0 0 167 0 0 159
0 0 164 164 0 164 164 0 164 164 0 164 164 0 164 164 0 165 165 0 165
165 0 165 165 0 165 165 0 165 165 0 165 165 0 165 165 0 165 165 0 165
165 0 165 165 0 165 165 0 165 165 0 165 165 0 165 165 0 165 165 0 165
165 0 165 165 0 165 165 0 165 165 0 166 166 0 166 166 0 166 166 0 166
166 0 166 166 0 166 166 0
145 145 0 145 145 0 145 145 0 145 145 0 145 145 0 145 145 0 146 146 0
146 146 0 146 146 0 146 146 0 146 146 0 146 146 0 146 146 0 146 146 0
147 147 0 147 147 0 147 147 0 147 147 0 147 147 0 147 147 0 147 147 0
147 147 0 148 148 0 148 148 0 148 148 0 148 148 0 148 148 0 148 148 0
148 148 0 149 149 0 149 149 0 51 0 0 51 0 0 51 0 0 51 0 0 51 0 0 51 0
0 51 0 0 51 0 0 52 0 0 55 0 0 59 0 0 62 0 0 65 0 0 68 0 0 71 0 0 74 0
0 76 0 0 79 0 0 81 0 0 84 0 0 86 0 0 89 0 0 91 0 0 93 0 0 95 0 0 98 0
0 100 0 0 102 0 0 104 0 0 106 0 0 108 0 0 110 0 0 112 0 0 114 0 0 116
0 0 117 0 0 119 0 0 121 0 0 123 0 0 124 0 0 126 0 0 128 0 0 130 0 0
131 0 0 133 0 0 134 0 0 136 0 0 138 0 0 139 0 0 141 0 0 142 0 0 144 0
0 145 0 0 146 0 0 148 0 0 149 0 0 151 0 0 152 0 0 153 0 0 155 0 0 156
0 0 157 0 0 159 0 0 160 0 0 161 0 0 163 0 0 164 0 0 165 0 0 166 0 0
167 0 0 169 0 0 170 0 0 171 0 0 172 0 0 173 0 0 174 0 0 175 0 0 176 0
0 177 0 0 178 0 0 179 0 0 180 0 0 181 0 0 182 0 0 183 0 0 184 0 0 185
0 0 186 0 0 187 0 0 187 0 0 188 0 0 189 0 0 190 0 0 191 0 0 191 0 0
192 0 0 193 0 0 193 0 0 194 0 0 195 0 0 195 0 0 196 0 0 196 0 0 197 0
0 197 0 0 197 0 0 198 0 0 198 0 0 199 0 0 199 0 0 199 0 0 199 0 0 199
0 0 199 0 0 200 0 0 200 0 0 199 0 0 199 0 0 199 0 0 199 0 0 199 0 0
198 0 0 198 0 0 197 0 0 197 0 0 196 0 0 195 0 0 194 0 0 193 0 0 191 0
0 190 0 0 188 0 0 186 0 0 183 0 0 181 0 0 177 0 0 173 0 0 167 0 0 159
0 0 165 165 0 165 165 0 165 165 0 165 165 0 165 165 0 165 165 0 165
165 0 165 165 0 166 166 0 166 166 0 166 166 0 166 166 0 166 166 0 166
166 0 166 166 0 166 166 0 166 166 0 166 166 0 166 166 0 166 166 0 166
166 0 166 166 0 166 166 0 166 166 0 166 166 0 166 166 0 166 166 0 167
167 0 167 167 0 167 167 0
145 145 0 145 145 0 146 146 0 146 146 0 146 146 0 146 146 0 146 146 0
146 146 0 146 146 0 147 147 0 147 147 0 147 147 0 147 147 0 147 147 0
147 147 0 147 147 0 147 147 0 148 148 0 148 148 0 148 148 0 148 148 0
148 148 0 148 148 0 148 148 0 148 148 0 149 149 0 149 149 0 149 149 0
149 149 0 149 149 0 149 149 0 51 0 0 51 0 0 51 0 0 51 0 0 51 0 0 51 0
0 51 0 0 51 0 0 52 0 0 55 0 0 59 0 0 62 0 0 65 0 0 68 0 0 71 0 0 73 0
0 76 0 0 79 0 0 81 0 0 84 0 0 86 0 0 89 0 0 91 0 0 93 0 0 95 0 0 97 0
0 100 0 0 102 0 0 104 0 0 106 0 0 108 0 0 110 0 0 112 0 0 113 0 0 115
0 0 117 0 0 119 0 0 121 0 0 122 0 0 124 0 0 126 0 0 128 0 0 129 0 0
131 0 0 132 0 0 134 0 0 136 0 0 137 0 0 139 0 0 140 0 0 142 0 0 143 0
0 145 0 0 146 0 0 148 0 0 149 0 0 150 0 0 152 0 0 153 0 0 154 0 0 156
0 0 157 0 0 158 0 0 160 0 0 161 0 0 162 0 0 163 0 0 165 0 0 166 0 0
167 0 0 168 0 0 169 0 0 170 0 0 171 0 0 173 0 0 174 0 0 175 0 0 176 0
0 177 0 0 178 0 0 179 0 0 180 0 0 181 0 0 182 0 0 183 0 0 184 0 0 184
0 0 185 0 0 186 0 0 187 0 0 188 0 0 189 0 0 189 0 0 190 0 0 191 0 0
191 0 0 192 0 0 193 0 0 193 0 0 194 0 0 195 0 0 195 0 0 196 0 0 196 0
0 197 0 0 197 0 0 197 0 0 198 0 0 198 0 0 198 0 0 199 0 0 199 0 0 199
0 0 199 0 0 199 0 0 199 0 0 199 0 0 199 0 0 199 0 0 198 0 0 198 0 0
198 0 0 197 0 0 197 0 0 196 0 0 195 0 0 194 0 0 193 0 0 192 0 0 191 0
0 189 0 0 188 0 0 186 0 0 183 0 0 181 0 0 177 0 0 173 0 0 168 0 0 160
0 0 166 166 0 166 166 0 166 166 0 166 166 0 166 166 0 166 166 0 166
166 0 166 166 0 166 166 0 166 166 0 166 166 0 167 167 0 167 167 0 167
167 0 167 167 0 167 167 0 167 167 0 167 167 0 167 167 0 167 167 0 167
167 0 167 167 0 167 167 0 167 167 0 167 167 0 167 167 0 167 167 0 167
167 0 167 167 0 167 167 0
146 146 0 146 146 0 146 146 0 146 146 0 146 146 0 147 147 0 147 147 0
147 147 0 147 147 0 147 147 0 147 147 0 147 147 0 147 147 0 148 148 0
148 148 0 148 148 0 148 148 0 148 148 0 148 148 0 148 148 0 148 148 0
149 149 0 149 149 0 149 149 0 149 149 0 149 149 0 149 149 0 149 149 0
150 150 0 150 150 0 150 150 0 51 0 0 51 0 0 51 0 0 51 0 0 51 0 0 51 0
0 51 0 0 51 0 0 52 0 0 55 0 0 59 0 0 62 0 0 65 0 0 68 0 0 71 0 0 73 0
0 76 0 0 79 0 0 81 0 0 84 0 0 86 0 0 88 0 0 91 0 0 93 0 0 95 0 0 97 0
0 99 0 0 101 0 0 103 0 0 105 0 0 107 0 0 109 0 0 111 0 0 113 0 0 115
0 0 117 0 0 119 0 0 120 0 0 122 0 0 124 0 0 126 0 0 127 0 0 129 0 0
130 0 0 132 0 0 134 0 0 135 0 0 137 0 0 138 0 0 140 0 0 141 0 0 143 0
0 144 0 0 146 0 0 147 0 0 149 0 0 150 0 0 151 0 0 153 0 0 154 0 0 155
0 0 157 0 0 158 0 0 159 0 0 160 0 0 162 0 0 163 0 0 164 0 0 165 0 0
166 0 0 168 0 0 169 0 0 170 0 0 171 0 0 172 0 0 173 0 0 174 0 0 175 0
0 176 0 0 177 0 0 178 0 0 179 0 0 180 0 0 181 0 0 182 0 0 183 0 0 184
0 0 185 0 0 186 0 0 186 0 0 187 0 0 188 0 0 189 0 0 189 0 0 190 0 0
191 0 0 192 0 0 192 0 0 193 0 0 193 0 0 194 0 0 195 0 0 195 0 0 196 0
0 196 0 0 196 0 0 197 0 0 197 0 0 197 0 0 198 0 0 198 0 0 198 0 0 198
0 0 198 0 0 198 0 0 198 0 0 198 0 0 198 0 0 198 0 0 198 0 0 198 0 0
197 0 0 197 0 0 196 0 0 196 0 0 195 0 0 194 0 0 193 0 0 192 0 0 191 0
0 189 0 0 187 0 0 185 0 0 183 0 0 180 0 0 177 0 0 173 0 0 168 0 0 161
0 0 167 167 0 167 167 0 167 167 0 167 167 0 167 167 0 167 167 0 167
167 0 167 167 0 167 167 0 167 167 0 167 167 0 167 167 0 167 167 0 167
167 0 168 168 0 168 168 0 168 168 0 168 168 0 168 168 0 168 168 0 168
168 0 168 168 0 168 168 0 168 168 0 168 168 0 168 168 0 168 168 0 168
168 0 168 168 0 168 168 0
146 146 0 147 147 0 147 147 0 147 147 0 147 147 0 147 147 0 147 147 0
147 147 0 147 147 0 148 148 0 148 148 0 148 148 0 148 148 0 148 148 0
148 148 0 148 148 0 149 149 0 149 149 0 149 149 0 149 149 0 149 149 0
149 149 0 149 149 0 149 149 0 150 150 0 150 150 0 150 150 0 150 150 0
150 150 0 150 150 0 51 0 0 51 0 0 51 0 0 51 0 0 51 0 0 51 0 0 51 0 0
51 0 0 51 0 0 52 0 0 55 0 0 59 0 0 62 0 0 65 0 0 68 0 0 71 0 0 73 0 0
76 0 0 78 0 0 81 0 0 83 0 0 86 0 0 88 0 0 90 0 0 93 0 0 95 0 0 97 0 0
99 0 0 101 0 0 103 0 0 105 0 0 107 0 0 109 0 0 111 0 0 113 0 0 115 0
0 117 0 0 118 0 0 120 0 0 122 0 0 124 0 0 125 0 0 127 0 0 129 0 0 130
0 0 132 0 0 133 0 0 135 0 0 136 0 0 138 0 0 139 0 0 141 0 0 142 0 0
144 0 0 145 0 0 147 0 0 148 0 0 149 0 0 151 0 0 152 0 0 154 0 0 155 0
0 156 0 0 157 0 0 159 0 0 160 0 0 161 0 0 162 0 0 164 0 0 165 0 0 166
0 0 167 0 0 168 0 0 169 0 0 170 0 0 172 0 0 173 0 0 174 0 0 175 0 0
176 0 0 177 0 0 178 0 0 179 0 0 180 0 0 181 0 0 182 0 0 182 0 0 183 0
0 184 0 0 185 0 0 186 0 0 187 0 0 187 0 0 188 0 0 189 0 0 190 0 0 190
0 0 191 0 0 192 0 0 192 0 0 193 0 0 193 0 0 194 0 0 194 0 0 195 0 0
195 0 0 196 0 0 196 0 0 197 0 0 197 0 0 197 0 0 197 0 0 198 0 0 198 0
0 198 0 0 198 0 0 198 0 0 198 0 0 198 0 0 198 0 0 197 0 0 197 0 0 197
0 0 196 0 0 196 0 0 195 0 0 194 0 0 194 0 0 193 0 0 191 0 0 190 0 0
189 0 0 187 0 0 185 0 0 183 0 0 180 0 0 177 0 0 173 0 0 168 0 0 161 0
0 147 0 0 167 167 0 167 167 0 168 168 0 168 168 0 168 168 0 168 168 0
168 168 0 168 168 0 168 168 0 168 168 0 168 168 0 168 168 0 168 168 0
168 168 0 168 168 0 168 168 0 169 169 0 169 169 0 169 169 0 169 169 0
169 169 0 169 169 0 169 169 0 169 169 0 169 169 0 169 169 0 169 169 0
169 169 0 169 169 0
147 147 0 147 147 0 147 147 0 147 147 0 147 147 0 148 148 0 148 148 0
148 148 0 148 148 0 148 148 0 148 148 0 148 148 0 149 149 0 149 149 0
149 149 0 149 149 0 149 149 0 149 149 0 149 149 0 149 149 0 150 150 0
150 150 0 150 150 0 150 150 0 150 150 0 150 150 0 150 150 0 150 150 0
151 151 0 151 151 0 51 0 0 51 0 0 51 0 0 51 0 0 51 0 0 51 0 0 51 0 0
51 0 0 51 0 0 52 0 0 55 0 0 59 0 0 62 0 0 65 0 0 68 0 0 70 0 0 73 0 0
76 0 0 78 0 0 81 0 0 83 0 0 86 0 0 88 0 0 90 0 0 92 0 0 95 0 0 97 0 0
99 0 0 101 0 0 103 0 0 105 0 0 107 0 0 109 0 0 111 0 0 113 0 0 114 0
0 116 0 0 118 0 0 120 0 0 121 0 0 123 0 0 125 0 0 126 0 0 128 0 0 130
0 0 131 0 0 133 0 0 134 0 0 136 0 0 138 0 0 139 0 0 141 0 0 142 0 0
143 0 0 145 0 0 146 0 0 148 0 0 149 0 0 150 0 0 152 0 0 153 0 0 154 0
0 156 0 0 157 0 0 158 0 0 159 0 0 161 0 0 162 0 0 163 0 0 164 0 0 165
0 0 167 0 0 168 0 0 169 0 0 170 0 0 171 0 0 172 0 0 173 0 0 174 0 0
175 0 0 176 0 0 177 0 0 178 0 0 179 0 0 180 0 0 181 0 0 182 0 0 183 0
0 184 0 0 184 0 0 185 0 0 186 0 0 187 0 0 188 0 0 188 0 0 189 0 0 190
0 0 190 0 0 191 0 0 192 0 0 192 0 0 193 0 0 193 0 0 194 0 0 194 0 0
195 0 0 195 0 0 196 0 0 196 0 0 196 0 0 197 0 0 197 0 0 197 0 0 197 0
0 197 0 0 197 0 0 197 0 0 197 0 0 197 0 0 197 0 0 197 0 0 197 0 0 196
0 0 196 0 0 195 0 0 195 0 0 194 0 0 193 0 0 192 0 0 191 0 0 190 0 0
188 0 0 187 0 0 185 0 0 182 0 0 180 0 0 177 0 0 173 0 0 168 0 0 162 0
0 149 0 0 168 168 0 168 168 0 168 168 0 168 168 0 168 168 0 169 169 0
169 169 0 169 169 0 169 169 0 169 169 0 169 169 0 169 169 0 169 169 0
169 169 0 169 169 0 169 169 0 169 169 0 169 169 0 169 169 0 169 169 0
170 170 0 170 170 0 170 170 0 170 170 0 170 170 0 170 170 0 170 170 0
170 170 0 170 170 0
148 148 0 148 148 0 148 148 0 148 148 0 148 148 0 148 148 0 148 148 0
148 148 0 149 149 0 149 149 0 149 149 0 149 149 0 149 149 0 149 149 0
149 149 0 149 149 0 150 150 0 150 150 0 150 150 0 150 150 0 150 150 0
150 150 0 150 150 0 150 150 0 151 151 0 151 151 0 151 151 0 151 151 0
151 151 0 151 151 0 51 0 0 51 0 0 51 0 0 51 0 0 51 0 0 51 0 0 51 0 0
51 0 0 51 0 0 52 0 0 55 0 0 58 0 0 61 0 0 64 0 0 67 0 0 70 0 0 73 0 0
76 0 0 78 0 0 81 0 0 83 0 0 85 0 0 88 0 0 90 0 0 92 0 0 94 0 0 96 0 0
99 0 0 101 0 0 103 0 0 105 0 0 107 0 0 108 0 0 110 0 0 112 0 0 114 0
0 116 0 0 118 0 0 119 0 0 121 0 0 123 0 0 124 0 0 126 0 0 128 0 0 129
0 0 131 0 0 133 0 0 134 0 0 136 0 0 137 0 0 139 0 0 140 0 0 142 0 0
143 0 0 144 0 0 146 0 0 147 0 0 149 0 0 150 0 0 151 0 0 153 0 0 154 0
0 155 0 0 156 0 0 158 0 0 159 0 0 160 0 0 161 0 0 163 0 0 164 0 0 165
0 0 166 0 0 167 0 0 168 0 0 169 0 0 171 0 0 172 0 0 173 0 0 174 0 0
175 0 0 176 0 0 177 0 0 178 0 0 179 0 0 180 0 0 180 0 0 181 0 0 182 0
0 183 0 0 184 0 0 185 0 0 185 0 0 186 0 0 187 0 0 188 0 0 188 0 0 189
0 0 190 0 0 190 0 0 191 0 0 192 0 0 192 0 0 193 0 0 193 0 0 194 0 0
194 0 0 195 0 0 195 0 0 195 0 0 196 0 0 196 0 0 196 0 0 196 0 0 197 0
0 197 0 0 197 0 0 197 0 0 197 0 0 197 0 0 196 0 0 196 0 0 196 0 0 196
0 0 195 0 0 195 0 0 194 0 0 193 0 0 192 0 0 192 0 0 190 0 0 189 0 0
188 0 0 186 0 0 184 0 0 182 0 0 179 0 0 176 0 0 173 0 0 168 0 0 162 0
0 151 0 0 169 169 0 169 169 0 169 169 0 169 169 0 169 169 0 169 169 0
169 169 0 169 169 0 169 169 0 170 170 0 170 170 0 170 170 0 170 170 0
170 170 0 170 170 0 170 170 0 170 170 0 170 170 0 170 170 0 170 170 0
170 170 0 170 170 0 170 170 0 170 170 0 171 171 0 171 171 0 171 171 0
171 171 0 171 171 0
148 148 0 148 148 0 148 148 0 148 148 0 149 149 0 149 149 0 149 149 0
149 149 0 149 149 0 149 149 0 149 149 0 149 149 0 150 150 0 150 150 0
150 150 0 150 150 0 150 150 0 150 150 0 150 150 0 150 150 0 151 151 0
151 151 0 151 151 0 151 151 0 151 151 0 151 151 0 151 151 0 152 152 0
152 152 0 152 152 0 51 0 0 51 0 0 51 0 0 51 0 0 51 0 0 51 0 0 51 0 0
51 0 0 51 0 0 52 0 0 55 0 0 58 0 0 61 0 0 64 0 0 67 0 0 70 0 0 73 0 0
75 0 0 78 0 0 80 0 0 83 0 0 85 0 0 87 0 0 90 0 0 92 0 0 94 0 0 96 0 0
98 0 0 100 0 0 102 0 0 104 0 0 106 0 0 108 0 0 110 0 0 112 0 0 114 0
0 115 0 0 117 0 0 119 0 0 121 0 0 122 0 0 124 0 0 126 0 0 127 0 0 129
0 0 131 0 0 132 0 0 134 0 0 135 0 0 137 0 0 138 0 0 140 0 0 141 0 0
143 0 0 144 0 0 145 0 0 147 0 0 148 0 0 149 0 0 151 0 0 152 0 0 153 0
0 155 0 0 156 0 0 157 0 0 158 0 0 160 0 0 161 0 0 162 0 0 163 0 0 164
0 0 166 0 0 167 0 0 168 0 0 169 0 0 170 0 0 171 0 0 172 0 0 173 0 0
174 0 0 175 0 0 176 0 0 177 0 0 178 0 0 179 0 0 180 0 0 181 0 0 182 0
0 182 0 0 183 0 0 184 0 0 185 0 0 186 0 0 186 0 0 187 0 0 188 0 0 189
0 0 189 0 0 190 0 0 190 0 0 191 0 0 192 0 0 192 0 0 193 0 0 193 0 0
194 0 0 194 0 0 194 0 0 195 0 0 195 0 0 195 0 0 196 0 0 196 0 0 196 0
0 196 0 0 196 0 0 196 0 0 196 0 0 196 0 0 196 0 0 196 0 0 195 0 0 195
0 0 195 0 0 194 0 0 193 0 0 193 0 0 192 0 0 191 0 0 190 0 0 189 0 0
187 0 0 186 0 0 184 0 0 182 0 0 179 0 0 176 0 0 172 0 0 168 0 0 162 0
0 152 0 0 170 170 0 170 170 0 170 170 0 170 170 0 170 170 0 170 170 0
170 170 0 170 170 0 170 170 0 170 170 0 170 170 0 170 170 0 170 170 0
171 171 0 171 171 0 171 171 0 171 171 0 171 171 0 171 171 0 171 171 0
171 171 0 171 171 0 171 171 0 171 171 0 171 171 0 171 171 0 171 171 0
171 171 0 171 171 0
149 149 0 149 149 0 149 149 0 149 149 0 149 149 0 149 149 0 149 149 0
149 149 0 150 150 0 150 150 0 150 150 0 150 150 0 150 150 0 150 150 0
150 150 0 150 150 0 151 151 0 151 151 0 151 151 0 151 151 0 151 151 0
151 151 0 151 151 0 152 152 0 152 152 0 152 152 0 152 152 0 152 152 0
152 152 0 152 152 0 51 0 0 51 0 0 51 0 0 51 0 0 51 0 0 51 0 0 51 0 0
51 0 0 51 0 0 51 0 0 55 0 0 58 0 0 61 0 0 64 0 0 67 0 0 70 0 0 72 0 0
75 0 0 78 0 0 80 0 0 82 0 0 85 0 0 87 0 0 89 0 0 92 0 0 94 0 0 96 0 0
98 0 0 100 0 0 102 0 0 104 0 0 106 0 0 108 0 0 110 0 0 111 0 0 113 0
0 115 0 0 117 0 0 119 0 0 120 0 0 122 0 0 124 0 0 125 0 0 127 0 0 128
0 0 130 0 0 132 0 0 133 0 0 135 0 0 136 0 0 138 0 0 139 0 0 141 0 0
142 0 0 143 0 0 145 0 0 146 0 0 148 0 0 149 0 0 150 0 0 152 0 0 153 0
0 154 0 0 155 0 0 157 0 0 158 0 0 159 0 0 160 0 0 162 0 0 163 0 0 164
0 0 165 0 0 166 0 0 167 0 0 168 0 0 169 0 0 170 0 0 171 0 0 173 0 0
174 0 0 175 0 0 176 0 0 176 0 0 177 0 0 178 0 0 179 0 0 180 0 0 181 0
0 182 0 0 183 0 0 183 0 0 184 0 0 185 0 0 186 0 0 187 0 0 187 0 0 188
0 0 189 0 0 189 0 0 190 0 0 190 0 0 191 0 0 191 0 0 192 0 0 192 0 0
193 0 0 193 0 0 194 0 0 194 0 0 194 0 0 195 0 0 195 0 0 195 0 0 195 0
0 195 0 0 195 0 0 195 0 0 195 0 0 195 0 0 195 0 0 195 0 0 195 0 0 194
0 0 194 0 0 193 0 0 193 0 0 192 0 0 191 0 0 190 0 0 189 0 0 188 0 0
187 0 0 185 0 0 183 0 0 181 0 0 179 0 0 176 0 0 172 0 0 168 0 0 162 0
0 152 0 0 170 170 0 170 170 0 170 170 0 170 170 0 171 171 0 171 171 0
171 171 0 171 171 0 171 171 0 171 171 0 171 171 0 171 171 0 171 171 0
171 171 0 171 171 0 171 171 0 171 171 0 172 172 0 172 172 0 172 172 0
172 172 0 172 172 0 172 172 0 172 172 0 172 172 0 172 172 0 172 172 0
172 172 0 172 172 0
149 149 0 149 149 0 149 149 0 149 149 0 150 150 0 150 150 0 150 150 0
150 150 0 150 150 0 150 150 0 150 150 0 150 150 0 151 151 0 151 151 0
151 151 0 151 151 0 151 151 0 151 151 0 151 151 0 151 151 0 152 152 0
152 152 0 152 152 0 152 152 0 152 152 0 152 152 0 152 152 0 153 153 0
153 153 0 153 153 0 51 0 0 51 0 0 51 0 0 51 0 0 51 0 0 51 0 0 51 0 0
51 0 0 51 0 0 51 0 0 55 0 0 58 0 0 61 0 0 64 0 0 67 0 0 69 0 0 72 0 0
75 0 0 77 0 0 80 0 0 82 0 0 84 0 0 87 0 0 89 0 0 91 0 0 93 0 0 95 0 0
98 0 0 100 0 0 102 0 0 103 0 0 105 0 0 107 0 0 109 0 0 111 0 0 113 0
0 115 0 0 116 0 0 118 0 0 120 0 0 122 0 0 123 0 0 125 0 0 126 0 0 128
0 0 130 0 0 131 0 0 133 0 0 134 0 0 136 0 0 137 0 0 139 0 0 140 0 0
142 0 0 143 0 0 144 0 0 146 0 0 147 0 0 148 0 0 150 0 0 151 0 0 152 0
0 154 0 0 155 0 0 156 0 0 157 0 0 159 0 0 160 0 0 161 0 0 162 0 0 163
0 0 164 0 0 166 0 0 167 0 0 168 0 0 169 0 0 170 0 0 171 0 0 172 0 0
173 0 0 174 0 0 175 0 0 176 0 0 177 0 0 178 0 0 179 0 0 179 0 0 180 0
0 181 0 0 182 0 0 183 0 0 184 0 0 184 0 0 185 0 0 186 0 0 187 0 0 187
0 0 188 0 0 189 0 0 189 0 0 190 0 0 190 0 0 191 0 0 191 0 0 192 0 0
192 0 0 193 0 0 193 0 0 193 0 0 194 0 0 194 0 0 194 0 0 194 0 0 195 0
0 195 0 0 195 0 0 195 0 0 195 0 0 195 0 0 194 0 0 194 0 0 194 0 0 194
0 0 193 0 0 193 0 0 192 0 0 191 0 0 191 0 0 190 0 0 189 0 0 187 0 0
186 0 0 184 0 0 183 0 0 180 0 0 178 0 0 175 0 0 172 0 0 167 0 0 161 0
0 152 0 0 171 171 0 171 171 0 171 171 0 171 171 0 171 171 0 171 171 0
171 171 0 171 171 0 172 172 0 172 172 0 172 172 0 172 172 0 172 172 0
172 172 0 172 172 0 172 172 0 172 172 0 172 172 0 172 172 0 172 172 0
172 172 0 173 173 0 173 173 0 173 173 0 173 173 0 173 173 0 173 173 0
173 173 0 173 173 0
149 149 0 150 150 0 150 150 0 150 150 0 150 150 0 150 150 0 150 150 0
150 150 0 151 151 0 151 151 0 151 151 0 151 151 0 151 151 0 151 151 0
151 151 0 151 151 0 152 152 0 152 152 0 152 152 0 152 152 0 152 152 0
152 152 0 152 152 0 153 153 0 153 153 0 153 153 0 153 153 0 153 153 0
153 153 0 153 153 0 51 0 0 51 0 0 51 0 0 51 0 0 51 0 0 51 0 0 51 0 0
51 0 0 51 0 0 51 0 0 54 0 0 58 0 0 61 0 0 64 0 0 66 0 0 69 0 0 72 0 0
74 0 0 77 0 0 79 0 0 82 0 0 84 0 0 86 0 0 89 0 0 91 0 0 93 0 0 95 0 0
97 0 0 99 0 0 101 0 0 103 0 0 105 0 0 107 0 0 109 0 0 111 0 0 112 0 0
114 0 0 116 0 0 118 0 0 119 0 0 121 0 0 123 0 0 124 0 0 126 0 0 128 0
0 129 0 0 131 0 0 132 0 0 134 0 0 135 0 0 137 0 0 138 0 0 140 0 0 141
0 0 142 0 0 144 0 0 145 0 0 147 0 0 148 0 0 149 0 0 151 0 0 152 0 0
153 0 0 154 0 0 156 0 0 157 0 0 158 0 0 159 0 0 160 0 0 162 0 0 163 0
0 164 0 0 165 0 0 166 0 0 167 0 0 168 0 0 169 0 0 170 0 0 171 0 0 172
0 0 173 0 0 174 0 0 175 0 0 176 0 0 177 0 0 178 0 0 179 0 0 180 0 0
181 0 0 181 0 0 182 0 0 183 0 0 184 0 0 184 0 0 185 0 0 186 0 0 187 0
0 187 0 0 188 0 0 188 0 0 189 0 0 190 0 0 190 0 0 191 0 0 191 0 0 192
0 0 192 0 0 192 0 0 193 0 0 193 0 0 193 0 0 193 0 0 194 0 0 194 0 0
194 0 0 194 0 0 194 0 0 194 0 0 194 0 0 194 0 0 194 0 0 193 0 0 193 0
0 193 0 0 192 0 0 191 0 0 191 0 0 190 0 0 189 0 0 188 0 0 187 0 0 185
0 0 184 0 0 182 0 0 180 0 0 177 0 0 175 0 0 171 0 0 167 0 0 161 0 0
152 0 0 172 172 0 172 172 0 172 172 0 172 172 0 172 172 0 172 172 0
172 172 0 172 172 0 172 172 0 172 172 0 172 172 0 172 172 0 173 173 0
173 173 0 173 173 0 173 173 0 173 173 0 173 173 0 173 173 0 173 173 0
173 173 0 173 173 0 173 173 0 173 173 0 173 173 0 174 174 0 174 174 0
174 174 0 174 174 0
150 150 0 150 150 0 150 150 0 150 150 0 150 150 0 151 151 0 151 151 0
151 151 0 151 151 0 151 151 0 151 151 0 151 151 0 152 152 0 152 152 0
152 152 0 152 152 0 152 152 0 152 152 0 152 152 0 152 152 0 153 153 0
153 153 0 153 153 0 153 153 0 153 153 0 153 153 0 153 153 0 154 154 0
154 154 0 154 154 0 51 0 0 51 0 0 51 0 0 51 0 0 51 0 0 51 0 0 51 0 0
51 0 0 51 0 0 51 0 0 54 0 0 57 0 0 60 0 0 63 0 0 66 0 0 69 0 0 71 0 0
74 0 0 77 0 0 79 0 0 81 0 0 84 0 0 86 0 0 88 0 0 90 0 0 93 0 0 95 0 0
97 0 0 99 0 0 101 0 0 103 0 0 105 0 0 106 0 0 108 0 0 110 0 0 112 0 0
114 0 0 115 0 0 117 0 0 119 0 0 121 0 0 122 0 0 124 0 0 125 0 0 127 0
0 129 0 0 130 0 0 132 0 0 133 0 0 135 0 0 136 0 0 138 0 0 139 0 0 141
0 0 142 0 0 143 0 0 145 0 0 146 0 0 147 0 0 149 0 0 150 0 0 151 0 0
153 0 0 154 0 0 155 0 0 156 0 0 157 0 0 159 0 0 160 0 0 161 0 0 162 0
0 163 0 0 164 0 0 165 0 0 167 0 0 168 0 0 169 0 0 170 0 0 171 0 0 172
0 0 173 0 0 174 0 0 175 0 0 176 0 0 176 0 0 177 0 0 178 0 0 179 0 0
180 0 0 181 0 0 182 0 0 182 0 0 183 0 0 184 0 0 185 0 0 185 0 0 186 0
0 187 0 0 187 0 0 188 0 0 188 0 0 189 0 0 189 0 0 190 0 0 190 0 0 191
0 0 191 0 0 192 0 0 192 0 0 192 0 0 193 0 0 193 0 0 193 0 0 193 0 0
193 0 0 193 0 0 193 0 0 193 0 0 193 0 0 193 0 0 193 0 0 193 0 0 192 0
0 192 0 0 191 0 0 191 0 0 190 0 0 189 0 0 188 0 0 187 0 0 186 0 0 185
0 0 183 0 0 181 0 0 179 0 0 177 0 0 174 0 0 171 0 0 166 0 0 161 0 0
152 0 0 172 172 0 172 172 0 172 172 0 172 172 0 173 173 0 173 173 0
173 173 0 173 173 0 173 173 0 173 173 0 173 173 0 173 173 0 173 173 0
173 173 0 173 173 0 173 173 0 174 174 0 174 174 0 174 174 0 174 174 0
174 174 0 174 174 0 174 174 0 174 174 0 174 174 0 174 174 0 174 174 0
174 174 0 174 174 0
150 150 0 151 151 0 151 151 0 151 151 0 151 151 0 151 151 0 151 151 0
151 151 0 151 151 0 152 152 0 152 152 0 152 152 0 152 152 0 152 152 0
152 152 0 152 152 0 153 153 0 153 153 0 153 153 0 153 153 0 153 153 0
153 153 0 153 153 0 153 153 0 154 154 0 154 154 0 154 154 0 154 154 0
154 154 0 154 154 0 51 0 0 51 0 0 51 0 0 51 0 0 51 0 0 51 0 0 51 0 0
51 0 0 51 0 0 51 0 0 54 0 0 57 0 0 60 0 0 63 0 0 66 0 0 68 0 0 71 0 0
74 0 0 76 0 0 79 0 0 81 0 0 83 0 0 86 0 0 88 0 0 90 0 0 92 0 0 94 0 0
96 0 0 98 0 0 100 0 0 102 0 0 104 0 0 106 0 0 108 0 0 110 0 0 111 0 0
113 0 0 115 0 0 117 0 0 118 0 0 120 0 0 122 0 0 123 0 0 125 0 0 127 0
0 128 0 0 130 0 0 131 0 0 133 0 0 134 0 0 136 0 0 137 0 0 139 0 0 140
0 0 141 0 0 143 0 0 144 0 0 145 0 0 147 0 0 148 0 0 149 0 0 151 0 0
152 0 0 153 0 0 154 0 0 156 0 0 157 0 0 158 0 0 159 0 0 160 0 0 162 0
0 163 0 0 164 0 0 165 0 0 166 0 0 167 0 0 168 0 0 169 0 0 170 0 0 171
0 0 172 0 0 173 0 0 174 0 0 175 0 0 176 0 0 177 0 0 178 0 0 178 0 0
179 0 0 180 0 0 181 0 0 182 0 0 182 0 0 183 0 0 184 0 0 185 0 0 185 0
0 186 0 0 186 0 0 187 0 0 188 0 0 188 0 0 189 0 0 189 0 0 190 0 0 190
0 0 191 0 0 191 0 0 191 0 0 192 0 0 192 0 0 192 0 0 192 0 0 192 0 0
192 0 0 193 0 0 193 0 0 193 0 0 192 0 0 192 0 0 192 0 0 192 0 0 191 0
0 191 0 0 191 0 0 190 0 0 189 0 0 188 0 0 188 0 0 186 0 0 185 0 0 184
0 0 182 0 0 181 0 0 179 0 0 176 0 0 173 0 0 170 0 0 166 0 0 160 0 0
152 0 0 173 173 0 173 173 0 173 173 0 173 173 0 173 173 0 173 173 0
173 173 0 173 173 0 174 174 0 174 174 0 174 174 0 174 174 0 174 174 0
174 174 0 174 174 0 174 174 0 174 174 0 174 174 0 174 174 0 174 174 0
175 175 0 175 175 0 175 175 0 175 175 0 175 175 0 175 175 0 175 175 0
175 175 0 175 175 0
151 151 0 151 151 0 151 151 0 151 151 0 151 151 0 152 152 0 152 152 0
152 152 0 152 152 0 152 152 0 152 152 0 152 152 0 152 152 0 153 153 0
153 153 0 153 153 0 153 153 0 153 153 0 153 153 0 153 153 0 154 154 0
154 154 0 154 154 0 154 154 0 154 154 0 154 154 0 154 154 0 154 154 0
155 155 0 155 155 0 51 0 0 51 0 0 51 0 0 51 0 0 51 0 0 51 0 0 51 0 0
51 0 0 51 0 0 51 0 0 53 0 0 57 0 0 60 0 0 63 0 0 65 0 0 68 0 0 71 0 0
73 0 0 76 0 0 78 0 0 81 0 0 83 0 0 85 0 0 87 0 0 90 0 0 92 0 0 94 0 0
96 0 0 98 0 0 100 0 0 102 0 0 104 0 0 106 0 0 107 0 0 109 0 0 111 0 0
113 0 0 115 0 0 116 0 0 118 0 0 120 0 0 121 0 0 123 0 0 124 0 0 126 0
0 128 0 0 129 0 0 131 0 0 132 0 0 134 0 0 135 0 0 137 0 0 138 0 0 139
0 0 141 0 0 142 0 0 144 0 0 145 0 0 146 0 0 148 0 0 149 0 0 150 0 0
151 0 0 153 0 0 154 0 0 155 0 0 156 0 0 157 0 0 159 0 0 160 0 0 161 0
0 162 0 0 163 0 0 164 0 0 165 0 0 166 0 0 167 0 0 168 0 0 169 0 0 170
0 0 171 0 0 172 0 0 173 0 0 174 0 0 175 0 0 176 0 0 177 0 0 178 0 0
179 0 0 179 0 0 180 0 0 181 0 0 182 0 0 182 0 0 183 0 0 184 0 0 184 0
0 185 0 0 186 0 0 186 0 0 187 0 0 187 0 0 188 0 0 188 0 0 189 0 0 189
0 0 190 0 0 190 0 0 190 0 0 191 0 0 191 0 0 191 0 0 191 0 0 192 0 0
192 0 0 192 0 0 192 0 0 192 0 0 192 0 0 192 0 0 191 0 0 191 0 0 191 0
0 190 0 0 190 0 0 189 0 0 188 0 0 188 0 0 187 0 0 186 0 0 185 0 0 183
0 0 182 0 0 180 0 0 178 0 0 175 0 0 173 0 0 169 0 0 165 0 0 160 0 0
151 0 0 173 173 0 174 174 0 174 174 0 174 174 0 174 174 0 174 174 0
174 174 0 174 174 0 174 174 0 174 174 0 174 174 0 174 174 0 175 175 0
175 175 0 175 175 0 175 175 0 175 175 0 175 175 0 175 175 0 175 175 0
175 175 0 175 175 0 175 175 0 175 175 0 175 175 0 176 176 0 176 176 0
176 176 0 176 176 0
151 151 0 151 151 0 152 152 0 152 152 0 152 152 0 152 152 0 152 152 0
152 152 0 152 152 0 153 153 0 153 153 0 153 153 0 153 153 0 153 153 0
153 153 0 153 153 0 153 153 0 154 154 0 154 154 0 154 154 0 154 154 0
154 154 0 154 154 0 154 154 0 155 155 0 155 155 0 155 155 0 155 155 0
155 155 0 155 155 0 51 0 0 51 0 0 51 0 0 51 0 0 51 0 0 51 0 0 51 0 0
51 0 0 51 0 0 51 0 0 53 0 0 56 0 0 59 0 0 62 0 0 65 0 0 68 0 0 70 0 0
73 0 0 75 0 0 78 0 0 80 0 0 82 0 0 85 0 0 87 0 0 89 0 0 91 0 0 93 0 0
95 0 0 97 0 0 99 0 0 101 0 0 103 0 0 105 0 0 107 0 0 109 0 0 111 0 0
112 0 0 114 0 0 116 0 0 117 0 0 119 0 0 121 0 0 122 0 0 124 0 0 126 0
0 127 0 0 129 0 0 130 0 0 132 0 0 133 0 0 135 0 0 136 0 0 137 0 0 139
0 0 140 0 0 142 0 0 143 0 0 144 0 0 146 0 0 147 0 0 148 0 0 149 0 0
151 0 0 152 0 0 153 0 0 154 0 0 156 0 0 157 0 0 158 0 0 159 0 0 160 0
0 161 0 0 162 0 0 164 0 0 165 0 0 166 0 0 167 0 0 168 0 0 169 0 0 170
0 0 171 0 0 172 0 0 173 0 0 173 0 0 174 0 0 175 0 0 176 0 0 177 0 0
178 0 0 179 0 0 179 0 0 180 0 0 181 0 0 182 0 0 182 0 0 183 0 0 184 0
0 184 0 0 185 0 0 186 0 0 186 0 0 187 0 0 187 0 0 188 0 0 188 0 0 189
0 0 189 0 0 189 0 0 190 0 0 190 0 0 190 0 0 190 0 0 191 0 0 191 0 0
191 0 0 191 0 0 191 0 0 191 0 0 191 0 0 191 0 0 190 0 0 190 0 0 190 0
0 189 0 0 189 0 0 188 0 0 188 0 0 187 0 0 186 0 0 185 0 0 184 0 0 182
0 0 181 0 0 179 0 0 177 0 0 175 0 0 172 0 0 168 0 0 164 0 0 159 0 0
151 0 0 174 174 0 174 174 0 174 174 0 174 174 0 174 174 0 174 174 0
175 175 0 175 175 0 175 175 0 175 175 0 175 175 0 175 175 0 175 175 0
175 175 0 175 175 0 175 175 0 175 175 0 176 176 0 176 176 0 176 176 0
176 176 0 176 176 0 176 176 0 176 176 0 176 176 0 176 176 0 176 176 0
176 176 0 176 176 0
152 152 0 152 152 0 152 152 0 152 152 0 152 152 0 152 152 0 153 153 0
153 153 0 153 153 0 153 153 0 153 153 0 153 153 0 153 153 0 154 154 0
154 154 0 154 154 0 154 154 0 154 154 0 154 154 0 154 154 0 154 154 0
155 155 0 155 155 0 155 155 0 155 155 0 155 155 0 155 155 0 155 155 0
156 156 0 156 156 0 51 0 0 51 0 0 51 0 0 51 0 0 51 0 0 51 0 0 51 0 0
51 0 0 51 0 0 51 0 0 53 0 0 56 0 0 59 0 0 62 0 0 65 0 0 67 0 0 70 0 0
72 0 0 75 0 0 77 0 0 80 0 0 82 0 0 84 0 0 86 0 0 89 0 0 91 0 0 93 0 0
95 0 0 97 0 0 99 0 0 101 0 0 103 0 0 105 0 0 106 0 0 108 0 0 110 0 0
112 0 0 113 0 0 115 0 0 117 0 0 119 0 0 120 0 0 122 0 0 123 0 0 125 0
0 126 0 0 128 0 0 130 0 0 131 0 0 133 0 0 134 0 0 135 0 0 137 0 0 138
0 0 140 0 0 141 0 0 142 0 0 144 0 0 145 0 0 146 0 0 148 0 0 149 0 0
150 0 0 151 0 0 153 0 0 154 0 0 155 0 0 156 0 0 157 0 0 158 0 0 160 0
0 161 0 0 162 0 0 163 0 0 164 0 0 165 0 0 166 0 0 167 0 0 168 0 0 169
0 0 170 0 0 171 0 0 172 0 0 173 0 0 174 0 0 175 0 0 175 0 0 176 0 0
177 0 0 178 0 0 179 0 0 179 0 0 180 0 0 181 0 0 182 0 0 182 0 0 183 0
0 184 0 0 184 0 0 185 0 0 185 0 0 186 0 0 186 0 0 187 0 0 187 0 0 188
0 0 188 0 0 189 0 0 189 0 0 189 0 0 189 0 0 190 0 0 190 0 0 190 0 0
190 0 0 190 0 0 190 0 0 190 0 0 190 0 0 190 0 0 190 0 0 189 0 0 189 0
0 189 0 0 188 0 0 188 0 0 187 0 0 186 0 0 185 0 0 184 0 0 183 0 0 181
0 0 180 0 0 178 0 0 176 0 0 174 0 0 171 0 0 168 0 0 163 0 0 158 0 0
150 0 0 175 175 0 175 175 0 175 175 0 175 175 0 175 175 0 175 175 0
175 175 0 175 175 0 175 175 0 175 175 0 176 176 0 176 176 0 176 176 0
176 176 0 176 176 0 176 176 0 176 176 0 176 176 0 176 176 0 176 176 0
176 176 0 177 177 0 177 177 0 177 177 0 177 177 0 177 177 0 177 177 0
177 177 0 177 177 0
152 152 0 152 152 0 153 153 0 153 153 0 153 153 0 153 153 0 153 153 0
153 153 0 153 153 0 153 153 0 154 154 0 154 154 0 154 154 0 154 154 0
154 154 0 154 154 0 154 154 0 155 155 0 155 155 0 155 155 0 155 155 0
155 155 0 155 155 0 155 155 0 155 155 0 156 156 0 156 156 0 156 156 0
156 156 0 156 156 0 51 0 0 51 0 0 51 0 0 51 0 0 51 0 0 51 0 0 51 0 0
51 0 0 51 0 0 51 0 0 52 0 0 55 0 0 58 0 0 61 0 0 64 0 0 67 0 0 69 0 0
72 0 0 74 0 0 77 0 0 79 0 0 82 0 0 84 0 0 86 0 0 88 0 0 90 0 0 92 0 0
94 0 0 96 0 0 98 0 0 100 0 0 102 0 0 104 0 0 106 0 0 108 0 0 109 0 0
111 0 0 113 0 0 115 0 0 116 0 0 118 0 0 120 0 0 121 0 0 123 0 0 124 0
0 126 0 0 127 0 0 129 0 0 130 0 0 132 0 0 133 0 0 135 0 0 136 0 0 138
0 0 139 0 0 140 0 0 142 0 0 143 0 0 144 0 0 146 0 0 147 0 0 148 0 0
149 0 0 151 0 0 152 0 0 153 0 0 154 0 0 155 0 0 157 0 0 158 0 0 159 0
0 160 0 0 161 0 0 162 0 0 163 0 0 164 0 0 165 0 0 166 0 0 167 0 0 168
0 0 169 0 0 170 0 0 171 0 0 172 0 0 173 0 0 174 0 0 175 0 0 176 0 0
176 0 0 177 0 0 178 0 0 179 0 0 179 0 0 180 0 0 181 0 0 182 0 0 182 0
0 183 0 0 183 0 0 184 0 0 185 0 0 185 0 0 186 0 0 186 0 0 187 0 0 187
0 0 187 0 0 188 0 0 188 0 0 188 0 0 189 0 0 189 0 0 189 0 0 189 0 0
189 0 0 189 0 0 189 0 0 189 0 0 189 0 0 189 0 0 189 0 0 189 0 0 188 0
0 188 0 0 187 0 0 187 0 0 186 0 0 185 0 0 184 0 0 183 0 0 182 0 0 181
0 0 179 0 0 177 0 0 175 0 0 173 0 0 170 0 0 167 0 0 162 0 0 157 0 0
149 0 0 175 175 0 175 175 0 175 175 0 175 175 0 176 176 0 176 176 0
176 176 0 176 176 0 176 176 0 176 176 0 176 176 0 176 176 0 176 176 0
176 176 0 177 177 0 177 177 0 177 177 0 177 177 0 177 177 0 177 177 0
177 177 0 177 177 0 177 177 0 177 177 0 177 177 0 177 177 0 178 178 0
178 178 0 178 178 0
153 153 0 153 153 0 153 153 0 153 153 0 153 153 0 153 153 0 153 153 0
154 154 0 154 154 0 154 154 0 154 154 0 154 154 0 154 154 0 154 154 0
155 155 0 155 155 0 155 155 0 155 155 0 155 155 0 155 155 0 155 155 0
155 155 0 156 156 0 156 156 0 156 156 0 156 156 0 156 156 0 156 156 0
156 156 0 157 157 0 51 0 0 51 0 0 51 0 0 51 0 0 51 0 0 51 0 0 51 0 0
51 0 0 51 0 0 51 0 0 52 0 0 55 0 0 58 0 0 61 0 0 64 0 0 66 0 0 69 0 0
71 0 0 74 0 0 76 0 0 79 0 0 81 0 0 83 0 0 85 0 0 88 0 0 90 0 0 92 0 0
94 0 0 96 0 0 98 0 0 100 0 0 102 0 0 103 0 0 105 0 0 107 0 0 109 0 0
111 0 0 112 0 0 114 0 0 116 0 0 117 0 0 119 0 0 121 0 0 122 0 0 124 0
0 125 0 0 127 0 0 128 0 0 130 0 0 131 0 0 133 0 0 134 0 0 136 0 0 137
0 0 138 0 0 140 0 0 141 0 0 142 0 0 144 0 0 145 0 0 146 0 0 148 0 0
149 0 0 150 0 0 151 0 0 152 0 0 154 0 0 155 0 0 156 0 0 157 0 0 158 0
0 159 0 0 160 0 0 161 0 0 163 0 0 164 0 0 165 0 0 166 0 0 167 0 0 168
0 0 169 0 0 169 0 0 170 0 0 171 0 0 172 0 0 173 0 0 174 0 0 175 0 0
176 0 0 176 0 0 177 0 0 178 0 0 179 0 0 179 0 0 180 0 0 181 0 0 181 0
0 182 0 0 183 0 0 183 0 0 184 0 0 184 0 0 185 0 0 185 0 0 186 0 0 186
0 0 187 0 0 187 0 0 187 0 0 188 0 0 188 0 0 188 0 0 188 0 0 188 0 0
188 0 0 188 0 0 188 0 0 188 0 0 188 0 0 188 0 0 188 0 0 188 0 0 187 0
0 187 0 0 186 0 0 186 0 0 185 0 0 184 0 0 183 0 0 182 0 0 181 0 0 180
0 0 178 0 0 176 0 0 174 0 0 172 0 0 169 0 0 166 0 0 161 0 0 156 0 0
147 0 0 176 176 0 176 176 0 176 176 0 176 176 0 176 176 0 176 176 0
176 176 0 176 176 0 177 177 0 177 177 0 177 177 0 177 177 0 177 177 0
177 177 0 177 177 0 177 177 0 177 177 0 177 177 0 177 177 0 178 178 0
178 178 0 178 178 0 178 178 0 178 178 0 178 178 0 178 178 0 178 178 0
178 178 0 178 178 0
153 153 0 153 153 0 153 153 0 154 154 0 154 154 0 154 154 0 154 154 0
154 154 0 154 154 0 154 154 0 154 154 0 155 155 0 155 155 0 155 155 0
155 155 0 155 155 0 155 155 0 155 155 0 156 156 0 156 156 0 156 156 0
156 156 0 156 156 0 156 156 0 156 156 0 156 156 0 157 157 0 157 157 0
157 157 0 157 157 0 157 157 0 51 0 0 51 0 0 51 0 0 51 0 0 51 0 0 51 0
0 51 0 0 51 0 0 51 0 0 51 0 0 54 0 0 57 0 0 60 0 0 63 0 0 66 0 0 68 0
0 71 0 0 73 0 0 76 0 0 78 0 0 81 0 0 83 0 0 85 0 0 87 0 0 89 0 0 91 0
0 93 0 0 95 0 0 97 0 0 99 0 0 101 0 0 103 0 0 105 0 0 107 0 0 108 0 0
110 0 0 112 0 0 113 0 0 115 0 0 117 0 0 118 0 0 120 0 0 122 0 0 123 0
0 125 0 0 126 0 0 128 0 0 129 0 0 131 0 0 132 0 0 134 0 0 135 0 0 136
0 0 138 0 0 139 0 0 140 0 0 142 0 0 143 0 0 144 0 0 146 0 0 147 0 0
148 0 0 149 0 0 151 0 0 152 0 0 153 0 0 154 0 0 155 0 0 156 0 0 158 0
0 159 0 0 160 0 0 161 0 0 162 0 0 163 0 0 164 0 0 165 0 0 166 0 0 167
0 0 168 0 0 169 0 0 170 0 0 171 0 0 171 0 0 172 0 0 173 0 0 174 0 0
175 0 0 176 0 0 176 0 0 177 0 0 178 0 0 179 0 0 179 0 0 180 0 0 181 0
0 181 0 0 182 0 0 182 0 0 183 0 0 184 0 0 184 0 0 184 0 0 185 0 0 185
0 0 186 0 0 186 0 0 186 0 0 187 0 0 187 0 0 187 0 0 187 0 0 187 0 0
188 0 0 188 0 0 188 0 0 188 0 0 187 0 0 187 0 0 187 0 0 187 0 0 186 0
0 186 0 0 185 0 0 185 0 0 184 0 0 183 0 0 182 0 0 181 0 0 180 0 0 179
0 0 177 0 0 175 0 0 173 0 0 171 0 0 168 0 0 165 0 0 160 0 0 155 0 0
176 176 0 176 176 0 176 176 0 176 176 0 177 177 0 177 177 0 177 177 0
177 177 0 177 177 0 177 177 0 177 177 0 177 177 0 177 177 0 177 177 0
178 178 0 178 178 0 178 178 0 178 178 0 178 178 0 178 178 0 178 178 0
178 178 0 178 178 0 178 178 0 178 178 0 179 179 0 179 179 0 179 179 0
179 179 0 179 179 0
154 154 0 154 154 0 154 154 0 154 154 0 154 154 0 154 154 0 154 154 0
154 154 0 155 155 0 155 155 0 155 155 0 155 155 0 155 155 0 155 155 0
155 155 0 156 156 0 156 156 0 156 156 0 156 156 0 156 156 0 156 156 0
156 156 0 156 156 0 157 157 0 157 157 0 157 157 0 157 157 0 157 157 0
157 157 0 157 157 0 158 158 0 51 0 0 51 0 0 51 0 0 51 0 0 51 0 0 51 0
0 51 0 0 51 0 0 51 0 0 51 0 0 54 0 0 57 0 0 60 0 0 63 0 0 65 0 0 68 0
0 70 0 0 73 0 0 75 0 0 78 0 0 80 0 0 82 0 0 84 0 0 87 0 0 89 0 0 91 0
0 93 0 0 95 0 0 97 0 0 99 0 0 100 0 0 102 0 0 104 0 0 106 0 0 108 0 0
109 0 0 111 0 0 113 0 0 115 0 0 116 0 0 118 0 0 119 0 0 121 0 0 123 0
0 124 0 0 126 0 0 127 0 0 129 0 0 130 0 0 131 0 0 133 0 0 134 0 0 136
0 0 137 0 0 138 0 0 140 0 0 141 0 0 142 0 0 144 0 0 145 0 0 146 0 0
147 0 0 149 0 0 150 0 0 151 0 0 152 0 0 153 0 0 155 0 0 156 0 0 157 0
0 158 0 0 159 0 0 160 0 0 161 0 0 162 0 0 163 0 0 164 0 0 165 0 0 166
0 0 167 0 0 168 0 0 169 0 0 170 0 0 171 0 0 172 0 0 172 0 0 173 0 0
174 0 0 175 0 0 176 0 0 176 0 0 177 0 0 178 0 0 178 0 0 179 0 0 180 0
0 180 0 0 181 0 0 182 0 0 182 0 0 183 0 0 183 0 0 184 0 0 184 0 0 184
0 0 185 0 0 185 0 0 186 0 0 186 0 0 186 0 0 186 0 0 186 0 0 187 0 0
187 0 0 187 0 0 187 0 0 187 0 0 187 0 0 186 0 0 186 0 0 186 0 0 185 0
0 185 0 0 184 0 0 184 0 0 183 0 0 182 0 0 181 0 0 180 0 0 179 0 0 178
0 0 176 0 0 174 0 0 172 0 0 170 0 0 167 0 0 164 0 0 159 0 0 154 0 0
177 177 0 177 177 0 177 177 0 177 177 0 177 177 0 177 177 0 177 177 0
177 177 0 178 178 0 178 178 0 178 178 0 178 178 0 178 178 0 178 178 0
178 178 0 178 178 0 178 178 0 178 178 0 178 178 0 179 179 0 179 179 0
179 179 0 179 179 0 179 179 0 179 179 0 179 179 0 179 179 0 179 179 0
179 179 0 179 179 0
154 154 0 154 154 0 154 154 0 154 154 0 154 154 0 155 155 0 155 155 0
155 155 0 155 155 0 155 155 0 155 155 0 155 155 0 156 156 0 156 156 0
156 156 0 156 156 0 156 156 0 156 156 0 156 156 0 156 156 0 157 157 0
157 157 0 157 157 0 157 157 0 157 157 0 157 157 0 157 157 0 158 158 0
158 158 0 158 158 0 158 158 0 158 158 0 51 0 0 51 0 0 51 0 0 51 0 0
51 0 0 51 0 0 51 0 0 51 0 0 51 0 0 53 0 0 56 0 0 59 0 0 62 0 0 65 0 0
67 0 0 70 0 0 72 0 0 75 0 0 77 0 0 79 0 0 82 0 0 84 0 0 86 0 0 88 0 0
90 0 0 92 0 0 94 0 0 96 0 0 98 0 0 100 0 0 102 0 0 104 0 0 105 0 0
107 0 0 109 0 0 111 0 0 112 0 0 114 0 0 116 0 0 117 0 0 119 0 0 120 0
0 122 0 0 123 0 0 125 0 0 126 0 0 128 0 0 129 0 0 131 0 0 132 0 0 134
0 0 135 0 0 136 0 0 138 0 0 139 0 0 140 0 0 142 0 0 143 0 0 144 0 0
146 0 0 147 0 0 148 0 0 149 0 0 150 0 0 152 0 0 153 0 0 154 0 0 155 0
0 156 0 0 157 0 0 158 0 0 159 0 0 160 0 0 161 0 0 162 0 0 163 0 0 164
0 0 165 0 0 166 0 0 167 0 0 168 0 0 169 0 0 170 0 0 171 0 0 172 0 0
172 0 0 173 0 0 174 0 0 175 0 0 176 0 0 176 0 0 177 0 0 178 0 0 178 0
0 179 0 0 180 0 0 180 0 0 181 0 0 181 0 0 182 0 0 182 0 0 183 0 0 183
0 0 184 0 0 184 0 0 184 0 0 185 0 0 185 0 0 185 0 0 185 0 0 186 0 0
186 0 0 186 0 0 186 0 0 186 0 0 186 0 0 186 0 0 185 0 0 185 0 0 185 0
0 184 0 0 184 0 0 184 0 0 183 0 0 182 0 0 181 0 0 180 0 0 179 0 0 178
0 0 177 0 0 175 0 0 173 0 0 171 0 0 169 0 0 166 0 0 162 0 0 158 0 0
177 177 0 177 177 0 177 177 0 177 177 0 177 177 0 178 178 0 178 178 0
178 178 0 178 178 0 178 178 0 178 178 0 178 178 0 178 178 0 178 178 0
179 179 0 179 179 0 179 179 0 179 179 0 179 179 0 179 179 0 179 179 0
179 179 0 179 179 0 179 179 0 179 179 0 180 180 0 180 180 0 180 180 0
180 180 0 180 180 0 180 180 0
154 154 0 154 154 0 155 155 0 155 155 0 155 155 0 155 155 0 155 155 0
155 155 0 155 155 0 156 156 0 156 156 0 156 156 0 156 156 0 156 156 0
156 156 0 156 156 0 156 156 0 157 157 0 157 157 0 157 157 0 157 157 0
157 157 0 157 157 0 157 157 0 158 158 0 158 158 0 158 158 0 158 158 0
158 158 0 158 158 0 158 158 0 159 159 0 159 159 0 51 0 0 51 0 0 51 0
0 51 0 0 51 0 0 51 0 0 51 0 0 51 0 0 53 0 0 56 0 0 59 0 0 61 0 0 64 0
0 67 0 0 69 0 0 72 0 0 74 0 0 76 0 0 79 0 0 81 0 0 83 0 0 85 0 0 87 0
0 90 0 0 92 0 0 94 0 0 95 0 0 97 0 0 99 0 0 101 0 0 103 0 0 105 0 0
106 0 0 108 0 0 110 0 0 112 0 0 113 0 0 115 0 0 117 0 0 118 0 0 120 0
0 121 0 0 123 0 0 124 0 0 126 0 0 127 0 0 129 0 0 130 0 0 132 0 0 133
0 0 134 0 0 136 0 0 137 0 0 138 0 0 140 0 0 141 0 0 142 0 0 144 0 0
145 0 0 146 0 0 147 0 0 148 0 0 150 0 0 151 0 0 152 0 0 153 0 0 154 0
0 155 0 0 156 0 0 157 0 0 159 0 0 160 0 0 161 0 0 162 0 0 163 0 0 164
0 0 165 0 0 166 0 0 166 0 0 167 0 0 168 0 0 169 0 0 170 0 0 171 0 0
172 0 0 172 0 0 173 0 0 174 0 0 175 0 0 175 0 0 176 0 0 177 0 0 177 0
0 178 0 0 179 0 0 179 0 0 180 0 0 180 0 0 181 0 0 181 0 0 182 0 0 182
0 0 183 0 0 183 0 0 183 0 0 184 0 0 184 0 0 184 0 0 184 0 0 185 0 0
185 0 0 185 0 0 185 0 0 185 0 0 185 0 0 185 0 0 184 0 0 184 0 0 184 0
0 184 0 0 183 0 0 183 0 0 182 0 0 181 0 0 180 0 0 179 0 0 178 0 0 177
0 0 176 0 0 174 0 0 172 0 0 170 0 0 168 0 0 165 0 0 161 0 0 177 177 0
178 178 0 178 178 0 178 178 0 178 178 0 178 178 0 178 178 0 178 178 0
178 178 0 178 178 0 179 179 0 179 179 0 179 179 0 179 179 0 179 179 0
179 179 0 179 179 0 179 179 0 179 179 0 179 179 0 180 180 0 180 180 0
180 180 0 180 180 0 180 180 0 180 180 0 180 180 0 180 180 0 180 180 0
180 180 0 180 180 0 181 181 0
155 155 0 155 155 0 155 155 0 155 155 0 155 155 0 155 155 0 156 156 0
156 156 0 156 156 0 156 156 0 156 156 0 156 156 0 156 156 0 156 156 0
157 157 0 157 157 0 157 157 0 157 157 0 157 157 0 157 157 0 157 157 0
158 158 0 158 158 0 158 158 0 158 158 0 158 158 0 158 158 0 158 158 0
159 159 0 159 159 0 159 159 0 159 159 0 159 159 0 51 0 0 51 0 0 51 0
0 51 0 0 51 0 0 51 0 0 51 0 0 51 0 0 52 0 0 55 0 0 58 0 0 61 0 0 63 0
0 66 0 0 69 0 0 71 0 0 74 0 0 76 0 0 78 0 0 80 0 0 83 0 0 85 0 0 87 0
0 89 0 0 91 0 0 93 0 0 95 0 0 97 0 0 99 0 0 100 0 0 102 0 0 104 0 0
106 0 0 108 0 0 109 0 0 111 0 0 113 0 0 114 0 0 116 0 0 117 0 0 119 0
0 121 0 0 122 0 0 124 0 0 125 0 0 127 0 0 128 0 0 129 0 0 131 0 0 132
0 0 134 0 0 135 0 0 136 0 0 138 0 0 139 0 0 140 0 0 142 0 0 143 0 0
144 0 0 145 0 0 147 0 0 148 0 0 149 0 0 150 0 0 151 0 0 152 0 0 153 0
0 155 0 0 156 0 0 157 0 0 158 0 0 159 0 0 160 0 0 161 0 0 162 0 0 163
0 0 164 0 0 165 0 0 166 0 0 167 0 0 167 0 0 168 0 0 169 0 0 170 0 0
171 0 0 172 0 0 172 0 0 173 0 0 174 0 0 175 0 0 175 0 0 176 0 0 177 0
0 177 0 0 178 0 0 178 0 0 179 0 0 180 0 0 180 0 0 181 0 0 181 0 0 181
0 0 182 0 0 182 0 0 183 0 0 183 0 0 183 0 0 183 0 0 184 0 0 184 0 0
184 0 0 184 0 0 184 0 0 184 0 0 184 0 0 184 0 0 183 0 0 183 0 0 183 0
0 183 0 0 182 0 0 182 0 0 181 0 0 180 0 0 179 0 0 178 0 0 177 0 0 176
0 0 175 0 0 173 0 0 171 0 0 169 0 0 166 0 0 163 0 0 160 0 0 178 178 0
178 178 0 178 178 0 178 178 0 178 178 0 178 178 0 179 179 0 179 179 0
179 179 0 179 179 0 179 179 0 179 179 0 179 179 0 179 179 0 179 179 0
180 180 0 180 180 0 180 180 0 180 180 0 180 180 0 180 180 0 180 180 0
180 180 0 180 180 0 180 180 0 181 181 0 181 181 0 181 181 0 181 181 0
181 181 0 181 181 0 181 181 0
155 155 0 155 155 0 155 155 0 156 156 0 156 156 0 156 156 0 156 156 0
156 156 0 156 156 0 156 156 0 156 156 0 157 157 0 157 157 0 157 157 0
157 157 0 157 157 0 157 157 0 157 157 0 158 158 0 158 158 0 158 158 0
158 158 0 158 158 0 158 158 0 158 158 0 159 159 0 159 159 0 159 159 0
159 159 0 159 159 0 159 159 0 159 159 0 159 159 0 160 160 0 51 0 0 51
0 0 51 0 0 51 0 0 51 0 0 51 0 0 51 0 0 51 0 0 54 0 0 57 0 0 60 0 0 63
0 0 65 0 0 68 0 0 70 0 0 73 0 0 75 0 0 78 0 0 80 0 0 82 0 0 84 0 0 86
0 0 88 0 0 90 0 0 92 0 0 94 0 0 96 0 0 98 0 0 100 0 0 102 0 0 103 0 0
105 0 0 107 0 0 109 0 0 110 0 0 112 0 0 114 0 0 115 0 0 117 0 0 118 0
0 120 0 0 121 0 0 123 0 0 124 0 0 126 0 0 127 0 0 129 0 0 130 0 0 132
0 0 133 0 0 134 0 0 136 0 0 137 0 0 138 0 0 140 0 0 141 0 0 142 0 0
143 0 0 145 0 0 146 0 0 147 0 0 148 0 0 149 0 0 150 0 0 152 0 0 153 0
0 154 0 0 155 0 0 156 0 0 157 0 0 158 0 0 159 0 0 160 0 0 161 0 0 162
0 0 163 0 0 164 0 0 165 0 0 166 0 0 167 0 0 167 0 0 168 0 0 169 0 0
170 0 0 171 0 0 172 0 0 172 0 0 173 0 0 174 0 0 174 0 0 175 0 0 176 0
0 176 0 0 177 0 0 178 0 0 178 0 0 179 0 0 179 0 0 180 0 0 180 0 0 180
0 0 181 0 0 181 0 0 182 0 0 182 0 0 182 0 0 182 0 0 183 0 0 183 0 0
183 0 0 183 0 0 183 0 0 183 0 0 183 0 0 183 0 0 182 0 0 182 0 0 182 0
0 181 0 0 181 0 0 180 0 0 180 0 0 179 0 0 178 0 0 177 0 0 176 0 0 175
0 0 173 0 0 172 0 0 170 0 0 168 0 0 165 0 0 162 0 0 178 178 0 178 178
0 179 179 0 179 179 0 179 179 0 179 179 0 179 179 0 179 179 0 179 179
0 179 179 0 179 179 0 180 180 0 180 180 0 180 180 0 180 180 0 180 180
0 180 180 0 180 180 0 180 180 0 180 180 0 180 180 0 181 181 0 181 181
0 181 181 0 181 181 0 181 181 0 181 181 0 181 181 0 181 181 0 181 181
0 181 181 0 182 182 0 182 182 0
156 156 0 156 156 0 156 156 0 156 156 0 156 156 0 156 156 0 156 156 0
156 156 0 157 157 0 157 157 0 157 157 0 157 157 0 157 157 0 157 157 0
157 157 0 158 158 0 158 158 0 158 158 0 158 158 0 158 158 0 158 158 0
158 158 0 158 158 0 159 159 0 159 159 0 159 159 0 159 159 0 159 159 0
159 159 0 159 159 0 160 160 0 160 160 0 160 160 0 160 160 0 160 160 0
160 160 0 51 0 0 51 0 0 51 0 0 51 0 0 51 0 0 51 0 0 54 0 0 57 0 0 59
0 0 62 0 0 65 0 0 67 0 0 70 0 0 72 0 0 75 0 0 77 0 0 79 0 0 81 0 0 83
0 0 86 0 0 88 0 0 90 0 0 92 0 0 94 0 0 95 0 0 97 0 0 99 0 0 101 0 0
103 0 0 104 0 0 106 0 0 108 0 0 110 0 0 111 0 0 113 0 0 115 0 0 116 0
0 118 0 0 119 0 0 121 0 0 122 0 0 124 0 0 125 0 0 127 0 0 128 0 0 129
0 0 131 0 0 132 0 0 134 0 0 135 0 0 136 0 0 138 0 0 139 0 0 140 0 0
141 0 0 143 0 0 144 0 0 145 0 0 146 0 0 147 0 0 149 0 0 150 0 0 151 0
0 152 0 0 153 0 0 154 0 0 155 0 0 156 0 0 157 0 0 158 0 0 159 0 0 160
0 0 161 0 0 162 0 0 163 0 0 164 0 0 165 0 0 166 0 0 167 0 0 167 0 0
168 0 0 169 0 0 170 0 0 171 0 0 171 0 0 172 0 0 173 0 0 174 0 0 174 0
0 175 0 0 175 0 0 176 0 0 177 0 0 177 0 0 178 0 0 178 0 0 179 0 0 179
0 0 180 0 0 180 0 0 180 0 0 181 0 0 181 0 0 181 0 0 181 0 0 182 0 0
182 0 0 182 0 0 182 0 0 182 0 0 182 0 0 182 0 0 182 0 0 181 0 0 181 0
0 181 0 0 180 0 0 180 0 0 179 0 0 179 0 0 178 0 0 177 0 0 176 0 0 175
0 0 174 0 0 172 0 0 171 0 0 169 0 0 166 0 0 178 178 0 179 179 0 179
179 0 179 179 0 179 179 0 179 179 0 179 179 0 179 179 0 179 179 0 180
180 0 180 180 0 180 180 0 180 180 0 180 180 0 180 180 0 180 180 0 180
180 0 180 180 0 181 181 0 181 181 0 181 181 0 181 181 0 181 181 0 181
181 0 181 181 0 181 181 0 181 181 0 181 181 0 182 182 0 182 182 0 182
182 0 182 182 0 182 182 0 182 182 0 182 182 0
156 156 0 156 156 0 156 156 0 156 156 0 156 156 0 157 157 0 157 157 0
157 157 0 157 157 0 157 157 0 157 157 0 157 157 0 158 158 0 158 158 0
158 158 0 158 158 0 158 158 0 158 158 0 158 158 0 158 158 0 159 159 0
159 159 0 159 159 0 159 159 0 159 159 0 159 159 0 159 159 0 160 160 0
160 160 0 160 160 0 160 160 0 160 160 0 160 160 0 160 160 0 161 161 0
161 161 0 161 161 0 51 0 0 51 0 0 51 0 0 51 0 0 51 0 0 53 0 0 56 0 0
59 0 0 61 0 0 64 0 0 67 0 0 69 0 0 72 0 0 74 0 0 76 0 0 78 0 0 81 0 0
83 0 0 85 0 0 87 0 0 89 0 0 91 0 0 93 0 0 95 0 0 97 0 0 98 0 0 100 0
0 102 0 0 104 0 0 106 0 0 107 0 0 109 0 0 111 0 0 112 0 0 114 0 0 115
0 0 117 0 0 118 0 0 120 0 0 122 0 0 123 0 0 124 0 0 126 0 0 127 0 0
129 0 0 130 0 0 131 0 0 133 0 0 134 0 0 135 0 0 137 0 0 138 0 0 139 0
0 141 0 0 142 0 0 143 0 0 144 0 0 145 0 0 147 0 0 148 0 0 149 0 0 150
0 0 151 0 0 152 0 0 153 0 0 154 0 0 155 0 0 156 0 0 157 0 0 158 0 0
159 0 0 160 0 0 161 0 0 162 0 0 163 0 0 164 0 0 165 0 0 166 0 0 167 0
0 167 0 0 168 0 0 169 0 0 170 0 0 171 0 0 171 0 0 172 0 0 173 0 0 173
0 0 174 0 0 175 0 0 175 0 0 176 0 0 176 0 0 177 0 0 177 0 0 178 0 0
178 0 0 179 0 0 179 0 0 179 0 0 180 0 0 180 0 0 180 0 0 180 0 0 181 0
0 181 0 0 181 0 0 181 0 0 181 0 0 181 0 0 181 0 0 181 0 0 180 0 0 180
0 0 180 0 0 179 0 0 179 0 0 178 0 0 178 0 0 177 0 0 176 0 0 175 0 0
174 0 0 173 0 0 171 0 0 169 0 0 167 0 0 179 179 0 179 179 0 179 179 0
179 179 0 179 179 0 179 179 0 180 180 0 180 180 0 180 180 0 180 180 0
180 180 0 180 180 0 180 180 0 180 180 0 180 180 0 181 181 0 181 181 0
181 181 0 181 181 0 181 181 0 181 181 0 181 181 0 181 181 0 181 181 0
182 182 0 182 182 0 182 182 0 182 182 0 182 182 0 182 182 0 182 182 0
182 182 0 182 182 0 182 182 0 183 183 0 183 183 0
156 156 0 156 156 0 157 157 0 157 157 0 157 157 0 157 157 0 157 157 0
157 157 0 157 157 0 157 157 0 158 158 0 158 158 0 158 158 0 158 158 0
158 158 0 158 158 0 158 158 0 159 159 0 159 159 0 159 159 0 159 159 0
159 159 0 159 159 0 159 159 0 160 160 0 160 160 0 160 160 0 160 160 0
160 160 0 160 160 0 160 160 0 160 160 0 161 161 0 161 161 0 161 161 0
161 161 0 161 161 0 161 161 0 51 0 0 51 0 0 51 0 0 51 0 0 52 0 0 55 0
0 58 0 0 61 0 0 63 0 0 66 0 0 68 0 0 71 0 0 73 0 0 75 0 0 78 0 0 80 0
0 82 0 0 84 0 0 86 0 0 88 0 0 90 0 0 92 0 0 94 0 0 96 0 0 98 0 0 100
0 0 101 0 0 103 0 0 105 0 0 107 0 0 108 0 0 110 0 0 111 0 0 113 0 0
115 0 0 116 0 0 118 0 0 119 0 0 121 0 0 122 0 0 124 0 0 125 0 0 127 0
0 128 0 0 129 0 0 131 0 0 132 0 0 133 0 0 135 0 0 136 0 0 137 0 0 139
0 0 140 0 0 141 0 0 142 0 0 143 0 0 145 0 0 146 0 0 147 0 0 148 0 0
149 0 0 150 0 0 151 0 0 152 0 0 154 0 0 155 0 0 156 0 0 157 0 0 158 0
0 159 0 0 159 0 0 160 0 0 161 0 0 162 0 0 163 0 0 164 0 0 165 0 0 166
0 0 167 0 0 167 0 0 168 0 0 169 0 0 170 0 0 170 0 0 171 0 0 172 0 0
172 0 0 173 0 0 174 0 0 174 0 0 175 0 0 175 0 0 176 0 0 176 0 0 177 0
0 177 0 0 178 0 0 178 0 0 178 0 0 179 0 0 179 0 0 179 0 0 179 0 0 180
0 0 180 0 0 180 0 0 180 0 0 180 0 0 180 0 0 180 0 0 179 0 0 179 0 0
179 0 0 179 0 0 178 0 0 178 0 0 177 0 0 176 0 0 176 0 0 175 0 0 174 0
0 173 0 0 171 0 0 170 0 0 168 0 0 179 179 0 179 179 0 179 179 0 179
179 0 180 180 0 180 180 0 180 180 0 180 180 0 180 180 0 180 180 0 180
180 0 180 180 0 181 181 0 181 181 0 181 181 0 181 181 0 181 181 0 181
181 0 181 181 0 181 181 0 181 181 0 182 182 0 182 182 0 182 182 0 182
182 0 182 182 0 182 182 0 182 182 0 182 182 0 182 182 0 183 183 0 183
183 0 183 183 0 183 183 0 183 183 0 183 183 0 183 183 0
157 157 0 157 157 0 157 157 0 157 157 0 157 157 0 157 157 0 157 157 0
158 158 0 158 158 0 158 158 0 158 158 0 158 158 0 158 158 0 158 158 0
159 159 0 159 159 0 159 159 0 159 159 0 159 159 0 159 159 0 159 159 0
159 159 0 160 160 0 160 160 0 160 160 0 160 160 0 160 160 0 160 160 0
160 160 0 161 161 0 161 161 0 161 161 0 161 161 0 161 161 0 161 161 0
161 161 0 162 162 0 162 162 0 162 162 0 162 162 0 51 0 0 51 0 0 51 0
0 54 0 0 57 0 0 60 0 0 63 0 0 65 0 0 68 0 0 70 0 0 72 0 0 75 0 0 77 0
0 79 0 0 81 0 0 83 0 0 85 0 0 87 0 0 89 0 0 91 0 0 93 0 0 95 0 0 97 0
0 99 0 0 101 0 0 102 0 0 104 0 0 106 0 0 107 0 0 109 0 0 111 0 0 112
0 0 114 0 0 115 0 0 117 0 0 119 0 0 120 0 0 121 0 0 123 0 0 124 0 0
126 0 0 127 0 0 129 0 0 130 0 0 131 0 0 133 0 0 134 0 0 135 0 0 136 0
0 138 0 0 139 0 0 140 0 0 141 0 0 143 0 0 144 0 0 145 0 0 146 0 0 147
0 0 148 0 0 149 0 0 151 0 0 152 0 0 153 0 0 154 0 0 155 0 0 156 0 0
157 0 0 158 0 0 159 0 0 160 0 0 160 0 0 161 0 0 162 0 0 163 0 0 164 0
0 165 0 0 166 0 0 166 0 0 167 0 0 168 0 0 169 0 0 169 0 0 170 0 0 171
0 0 171 0 0 172 0 0 173 0 0 173 0 0 174 0 0 174 0 0 175 0 0 175 0 0
176 0 0 176 0 0 177 0 0 177 0 0 177 0 0 178 0 0 178 0 0 178 0 0 178 0
0 179 0 0 179 0 0 179 0 0 179 0 0 179 0 0 179 0 0 179 0 0 178 0 0 178
0 0 178 0 0 178 0 0 177 0 0 177 0 0 176 0 0 175 0 0 174 0 0 174 0 0
173 0 0 171 0 0 170 0 0 179 179 0 179 179 0 180 180 0 180 180 0 180
180 0 180 180 0 180 180 0 180 180 0 180 180 0 180 180 0 181 181 0 181
181 0 181 181 0 181 181 0 181 181 0 181 181 0 181 181 0 181 181 0 181
181 0 182 182 0 182 182 0 182 182 0 182 182 0 182 182 0 182 182 0 182
182 0 182 182 0 182 182 0 183 183 0 183 183 0 183 183 0 183 183 0 183
183 0 183 183 0 183 183 0 183 183 0 183 183 0 183 183 0 184 184 0
157 157 0 157 157 0 157 157 0 157 157 0 158 158 0 158 158 0 158 158 0
158 158 0 158 158 0 158 158 0 158 158 0 158 158 0 159 159 0 159 159 0
159 159 0 159 159 0 159 159 0 159 159 0 159 159 0 160 160 0 160 160 0
160 160 0 160 160 0 160 160 0 160 160 0 160 160 0 161 161 0 161 161 0
161 161 0 161 161 0 161 161 0 161 161 0 161 161 0 162 162 0 162 162 0
162 162 0 162 162 0 162 162 0 162 162 0 162 162 0 162 162 0 163 163 0
51 0 0 54 0 0 56 0 0 59 0 0 62 0 0 64 0 0 67 0 0 69 0 0 72 0 0 74 0 0
76 0 0 78 0 0 81 0 0 83 0 0 85 0 0 87 0 0 89 0 0 91 0 0 93 0 0 94 0 0
96 0 0 98 0 0 100 0 0 102 0 0 103 0 0 105 0 0 107 0 0 108 0 0 110 0 0
112 0 0 113 0 0 115 0 0 116 0 0 118 0 0 119 0 0 121 0 0 122 0 0 124 0
0 125 0 0 126 0 0 128 0 0 129 0 0 130 0 0 132 0 0 133 0 0 134 0 0 136
0 0 137 0 0 138 0 0 139 0 0 141 0 0 142 0 0 143 0 0 144 0 0 145 0 0
146 0 0 148 0 0 149 0 0 150 0 0 151 0 0 152 0 0 153 0 0 154 0 0 155 0
0 156 0 0 157 0 0 158 0 0 159 0 0 160 0 0 160 0 0 161 0 0 162 0 0 163
0 0 164 0 0 165 0 0 166 0 0 166 0 0 167 0 0 168 0 0 168 0 0 169 0 0
170 0 0 170 0 0 171 0 0 172 0 0 172 0 0 173 0 0 173 0 0 174 0 0 174 0
0 175 0 0 175 0 0 176 0 0 176 0 0 176 0 0 177 0 0 177 0 0 177 0 0 177
0 0 177 0 0 178 0 0 178 0 0 178 0 0 178 0 0 178 0 0 177 0 0 177 0 0
177 0 0 177 0 0 176 0 0 176 0 0 175 0 0 175 0 0 174 0 0 173 0 0 172 0
0 171 0 0 179 179 0 180 180 0 180 180 0 180 180 0 180 180 0 180 180 0
180 180 0 180 180 0 180 180 0 181 181 0 181 181 0 181 181 0 181 181 0
181 181 0 181 181 0 181 181 0 181 181 0 182 182 0 182 182 0 182 182 0
182 182 0 182 182 0 182 182 0 182 182 0 182 182 0 182 182 0 183 183 0
183 183 0 183 183 0 183 183 0 183 183 0 183 183 0 183 183 0 183 183 0
183 183 0 184 184 0 184 184 0 184 184 0 184 184 0 184 184 0 184 184 0
157 157 0 158 158 0 158 158 0 158 158 0 158 158 0 158 158 0 158 158 0
158 158 0 158 158 0 159 159 0 159 159 0 159 159 0 159 159 0 159 159 0
159 159 0 159 159 0 160 160 0 160 160 0 160 160 0 160 160 0 160 160 0
160 160 0 160 160 0 160 160 0 161 161 0 161 161 0 161 161 0 161 161 0
161 161 0 161 161 0 161 161 0 162 162 0 162 162 0 162 162 0 162 162 0
162 162 0 162 162 0 162 162 0 163 163 0 163 163 0 163 163 0 163 163 0
163 163 0 163 163 0 56 0 0 58 0 0 61 0 0 64 0 0 66 0 0 68 0 0 71 0 0
73 0 0 75 0 0 78 0 0 80 0 0 82 0 0 84 0 0 86 0 0 88 0 0 90 0 0 92 0 0
94 0 0 95 0 0 97 0 0 99 0 0 101 0 0 103 0 0 104 0 0 106 0 0 108 0 0
109 0 0 111 0 0 112 0 0 114 0 0 115 0 0 117 0 0 118 0 0 120 0 0 121 0
0 123 0 0 124 0 0 126 0 0 127 0 0 128 0 0 130 0 0 131 0 0 132 0 0 134
0 0 135 0 0 136 0 0 137 0 0 139 0 0 140 0 0 141 0 0 142 0 0 143 0 0
144 0 0 146 0 0 147 0 0 148 0 0 149 0 0 150 0 0 151 0 0 152 0 0 153 0
0 154 0 0 155 0 0 156 0 0 157 0 0 158 0 0 159 0 0 160 0 0 160 0 0 161
0 0 162 0 0 163 0 0 164 0 0 165 0 0 165 0 0 166 0 0 167 0 0 168 0 0
168 0 0 169 0 0 170 0 0 170 0 0 171 0 0 171 0 0 172 0 0 172 0 0 173 0
0 173 0 0 174 0 0 174 0 0 175 0 0 175 0 0 175 0 0 176 0 0 176 0 0 176
0 0 176 0 0 176 0 0 176 0 0 177 0 0 177 0 0 177 0 0 176 0 0 176 0 0
176 0 0 176 0 0 176 0 0 175 0 0 175 0 0 174 0 0 174 0 0 173 0 0 172 0
0 180 180 0 180 180 0 180 180 0 180 180 0 180 180 0 180 180 0 180 180
0 180 180 0 181 181 0 181 181 0 181 181 0 181 181 0 181 181 0 181 181
0 181 181 0 181 181 0 182 182 0 182 182 0 182 182 0 182 182 0 182 182
0 182 182 0 182 182 0 182 182 0 183 183 0 183 183 0 183 183 0 183 183
0 183 183 0 183 183 0 183 183 0 183 183 0 183 183 0 184 184 0 184 184
0 184 184 0 184 184 0 184 184 0 184 184 0 184 184 0 184 184 0 184 184
0 184 184 0
158 158 0 158 158 0 158 158 0 158 158 0 158 158 0 158 158 0 159 159 0
159 159 0 159 159 0 159 159 0 159 159 0 159 159 0 159 159 0 159 159 0
160 160 0 160 160 0 160 160 0 160 160 0 160 160 0 160 160 0 160 160 0
161 161 0 161 161 0 161 161 0 161 161 0 161 161 0 161 161 0 161 161 0
162 162 0 162 162 0 162 162 0 162 162 0 162 162 0 162 162 0 162 162 0
163 163 0 163 163 0 163 163 0 163 163 0 163 163 0 163 163 0 163 163 0
163 163 0 164 164 0 164 164 0 164 164 0 60 0 0 63 0 0 65 0 0 68 0 0
70 0 0 72 0 0 75 0 0 77 0 0 79 0 0 81 0 0 83 0 0 85 0 0 87 0 0 89 0 0
91 0 0 93 0 0 95 0 0 96 0 0 98 0 0 100 0 0 102 0 0 103 0 0 105 0 0
107 0 0 108 0 0 110 0 0 112 0 0 113 0 0 115 0 0 116 0 0 118 0 0 119 0
0 121 0 0 122 0 0 123 0 0 125 0 0 126 0 0 128 0 0 129 0 0 130 0 0 131
0 0 133 0 0 134 0 0 135 0 0 137 0 0 138 0 0 139 0 0 140 0 0 141 0 0
142 0 0 144 0 0 145 0 0 146 0 0 147 0 0 148 0 0 149 0 0 150 0 0 151 0
0 152 0 0 153 0 0 154 0 0 155 0 0 156 0 0 157 0 0 158 0 0 159 0 0 160
0 0 160 0 0 161 0 0 162 0 0 163 0 0 164 0 0 164 0 0 165 0 0 166 0 0
167 0 0 167 0 0 168 0 0 169 0 0 169 0 0 170 0 0 170 0 0 171 0 0 171 0
0 172 0 0 172 0 0 173 0 0 173 0 0 174 0 0 174 0 0 174 0 0 174 0 0 175
0 0 175 0 0 175 0 0 175 0 0 175 0 0 175 0 0 175 0 0 175 0 0 175 0 0
175 0 0 175 0 0 175 0 0 174 0 0 174 0 0 174 0 0 173 0 0 172 0 0 180
180 0 180 180 0 180 180 0 180 180 0 180 180 0 180 180 0 180 180 0 181
181 0 181 181 0 181 181 0 181 181 0 181 181 0 181 181 0 181 181 0 182
182 0 182 182 0 182 182 0 182 182 0 182 182 0 182 182 0 182 182 0 182
182 0 182 182 0 183 183 0 183 183 0 183 183 0 183 183 0 183 183 0 183
183 0 183 183 0 183 183 0 184 184 0 184 184 0 184 184 0 184 184 0 184
184 0 184 184 0 184 184 0 184 184 0 184 184 0 185 185 0 185 185 0 185
185 0 185 185 0 185 185 0
158 158 0 158 158 0 158 158 0 158 158 0 159 159 0 159 159 0 159 159 0
159 159 0 159 159 0 159 159 0 159 159 0 160 160 0 160 160 0 160 160 0
160 160 0 160 160 0 160 160 0 160 160 0 160 160 0 161 161 0 161 161 0
161 161 0 161 161 0 161 161 0 161 161 0 161 161 0 162 162 0 162 162 0
162 162 0 162 162 0 162 162 0 162 162 0 162 162 0 163 163 0 163 163 0
163 163 0 163 163 0 163 163 0 163 163 0 163 163 0 164 164 0 164 164 0
164 164 0 164 164 0 164 164 0 164 164 0 164 164 0 165 165 0 165 165 0
67 0 0 69 0 0 71 0 0 74 0 0 76 0 0 78 0 0 80 0 0 82 0 0 84 0 0 86 0 0
88 0 0 90 0 0 92 0 0 94 0 0 96 0 0 97 0 0 99 0 0 101 0 0 103 0 0 104
0 0 106 0 0 108 0 0 109 0 0 111 0 0 112 0 0 114 0 0 115 0 0 117 0 0
118 0 0 120 0 0 121 0 0 123 0 0 124 0 0 125 0 0 127 0 0 128 0 0 129 0
0 131 0 0 132 0 0 133 0 0 134 0 0 136 0 0 137 0 0 138 0 0 139 0 0 140
0 0 142 0 0 143 0 0 144 0 0 145 0 0 146 0 0 147 0 0 148 0 0 149 0 0
150 0 0 151 0 0 152 0 0 153 0 0 154 0 0 155 0 0 156 0 0 157 0 0 158 0
0 159 0 0 159 0 0 160 0 0 161 0 0 162 0 0 163 0 0 163 0 0 164 0 0 165
0 0 166 0 0 166 0 0 167 0 0 168 0 0 168 0 0 169 0 0 169 0 0 170 0 0
170 0 0 171 0 0 171 0 0 172 0 0 172 0 0 172 0 0 173 0 0 173 0 0 173 0
0 174 0 0 174 0 0 174 0 0 174 0 0 174 0 0 174 0 0 174 0 0 174 0 0 174
0 0 174 0 0 174 0 0 174 0 0 173 0 0 173 0 0 180 180 0 180 180 0 180
180 0 180 180 0 180 180 0 180 180 0 180 180 0 181 181 0 181 181 0 181
181 0 181 181 0 181 181 0 181 181 0 181 181 0 182 182 0 182 182 0 182
182 0 182 182 0 182 182 0 182 182 0 182 182 0 182 182 0 183 183 0 183
183 0 183 183 0 183 183 0 183 183 0 183 183 0 183 183 0 183 183 0 183
183 0 184 184 0 184 184 0 184 184 0 184 184 0 184 184 0 184 184 0 184
184 0 184 184 0 184 184 0 185 185 0 185 185 0 185 185 0 185 185 0 185
185 0 185 185 0 185 185 0 185 185 0
158 158 0 159 159 0 159 159 0 159 159 0 159 159 0 159 159 0 159 159 0
159 159 0 159 159 0 160 160 0 160 160 0 160 160 0 160 160 0 160 160 0
160 160 0 160 160 0 161 161 0 161 161 0 161 161 0 161 161 0 161 161 0
161 161 0 161 161 0 162 162 0 162 162 0 162 162 0 162 162 0 162 162 0
162 162 0 162 162 0 162 162 0 163 163 0 163 163 0 163 163 0 163 163 0
163 163 0 163 163 0 163 163 0 164 164 0 164 164 0 164 164 0 164 164 0
164 164 0 164 164 0 164 164 0 165 165 0 165 165 0 165 165 0 165 165 0
165 165 0 165 165 0 71 0 0 73 0 0 75 0 0 77 0 0 79 0 0 81 0 0 83 0 0
85 0 0 87 0 0 89 0 0 91 0 0 93 0 0 95 0 0 97 0 0 98 0 0 100 0 0 102 0
0 103 0 0 105 0 0 107 0 0 108 0 0 110 0 0 111 0 0 113 0 0 114 0 0 116
0 0 117 0 0 119 0 0 120 0 0 122 0 0 123 0 0 124 0 0 126 0 0 127 0 0
128 0 0 130 0 0 131 0 0 132 0 0 134 0 0 135 0 0 136 0 0 137 0 0 138 0
0 140 0 0 141 0 0 142 0 0 143 0 0 144 0 0 145 0 0 146 0 0 147 0 0 148
0 0 149 0 0 150 0 0 151 0 0 152 0 0 153 0 0 154 0 0 155 0 0 156 0 0
157 0 0 158 0 0 158 0 0 159 0 0 160 0 0 161 0 0 162 0 0 162 0 0 163 0
0 164 0 0 165 0 0 165 0 0 166 0 0 166 0 0 167 0 0 168 0 0 168 0 0 169
0 0 169 0 0 170 0 0 170 0 0 171 0 0 171 0 0 171 0 0 172 0 0 172 0 0
172 0 0 173 0 0 173 0 0 173 0 0 173 0 0 173 0 0 173 0 0 173 0 0 173 0
0 173 0 0 173 0 0 173 0 0 172 0 0 180 180 0 180 180 0 180 180 0 180
180 0 180 180 0 180 180 0 181 181 0 181 181 0 181 181 0 181 181 0 181
181 0 181 181 0 181 181 0 181 181 0 182 182 0 182 182 0 182 182 0 182
182 0 182 182 0 182 182 0 182 182 0 183 183 0 183 183 0 183 183 0 183
183 0 183 183 0 183 183 0 183 183 0 183 183 0 184 184 0 184 184 0 184
184 0 184 184 0 184 184 0 184 184 0 184 184 0 184 184 0 184 184 0 185
185 0 185 185 0 185 185 0 185 185 0 185 185 0 185 185 0 185 185 0 185
185 0 185 185 0 186 186 0 186 186 0 186 186 0
159 159 0 159 159 0 159 159 0 159 159 0 159 159 0 159 159 0 160 160 0
160 160 0 160 160 0 160 160 0 160 160 0 160 160 0 160 160 0 160 160 0
161 161 0 161 161 0 161 161 0 161 161 0 161 161 0 161 161 0 161 161 0
162 162 0 162 162 0 162 162 0 162 162 0 162 162 0 162 162 0 162 162 0
163 163 0 163 163 0 163 163 0 163 163 0 163 163 0 163 163 0 163 163 0
164 164 0 164 164 0 164 164 0 164 164 0 164 164 0 164 164 0 164 164 0
165 165 0 165 165 0 165 165 0 165 165 0 165 165 0 165 165 0 165 165 0
166 166 0 166 166 0 166 166 0 166 166 0 166 166 0 76 0 0 79 0 0 81 0
0 83 0 0 85 0 0 87 0 0 88 0 0 90 0 0 92 0 0 94 0 0 96 0 0 98 0 0 99 0
0 101 0 0 103 0 0 104 0 0 106 0 0 107 0 0 109 0 0 111 0 0 112 0 0 114
0 0 115 0 0 117 0 0 118 0 0 119 0 0 121 0 0 122 0 0 124 0 0 125 0 0
126 0 0 128 0 0 129 0 0 130 0 0 131 0 0 133 0 0 134 0 0 135 0 0 136 0
0 137 0 0 139 0 0 140 0 0 141 0 0 142 0 0 143 0 0 144 0 0 145 0 0 146
0 0 147 0 0 148 0 0 149 0 0 150 0 0 151 0 0 152 0 0 153 0 0 154 0 0
155 0 0 156 0 0 157 0 0 157 0 0 158 0 0 159 0 0 160 0 0 161 0 0 161 0
0 162 0 0 163 0 0 164 0 0 164 0 0 165 0 0 165 0 0 166 0 0 167 0 0 167
0 0 168 0 0 168 0 0 169 0 0 169 0 0 170 0 0 170 0 0 170 0 0 171 0 0
171 0 0 171 0 0 171 0 0 172 0 0 172 0 0 172 0 0 172 0 0 172 0 0 172 0
0 172 0 0 172 0 0 180 180 0 180 180 0 180 180 0 180 180 0 180 180 0
180 180 0 181 181 0 181 181 0 181 181 0 181 181 0 181 181 0 181 181 0
181 181 0 181 181 0 182 182 0 182 182 0 182 182 0 182 182 0 182 182 0
182 182 0 182 182 0 183 183 0 183 183 0 183 183 0 183 183 0 183 183 0
183 183 0 183 183 0 183 183 0 184 184 0 184 184 0 184 184 0 184 184 0
184 184 0 184 184 0 184 184 0 184 184 0 184 184 0 185 185 0 185 185 0
185 185 0 185 185 0 185 185 0 185 185 0 185 185 0 185 185 0 186 186 0
186 186 0 186 186 0 186 186 0 186 186 0 186 186 0 186 186 0
159 159 0 159 159 0 159 159 0 159 159 0 160 160 0 160 160 0 160 160 0
160 160 0 160 160 0 160 160 0 160 160 0 161 161 0 161 161 0 161 161 0
161 161 0 161 161 0 161 161 0 161 161 0 162 162 0 162 162 0 162 162 0
162 162 0 162 162 0 162 162 0 162 162 0 162 162 0 163 163 0 163 163 0
163 163 0 163 163 0 163 163 0 163 163 0 163 163 0 164 164 0 164 164 0
164 164 0 164 164 0 164 164 0 164 164 0 164 164 0 165 165 0 165 165 0
165 165 0 165 165 0 165 165 0 165 165 0 165 165 0 166 166 0 166 166 0
166 166 0 166 166 0 166 166 0 166 166 0 166 166 0 167 167 0 167 167 0
167 167 0 167 167 0 84 0 0 86 0 0 88 0 0 89 0 0 91 0 0 93 0 0 95 0 0
97 0 0 98 0 0 100 0 0 102 0 0 103 0 0 105 0 0 107 0 0 108 0 0 110 0 0
111 0 0 113 0 0 114 0 0 116 0 0 117 0 0 119 0 0 120 0 0 121 0 0 123 0
0 124 0 0 125 0 0 127 0 0 128 0 0 129 0 0 131 0 0 132 0 0 133 0 0 134
0 0 135 0 0 137 0 0 138 0 0 139 0 0 140 0 0 141 0 0 142 0 0 143 0 0
144 0 0 145 0 0 146 0 0 147 0 0 148 0 0 149 0 0 150 0 0 151 0 0 152 0
0 153 0 0 154 0 0 155 0 0 156 0 0 156 0 0 157 0 0 158 0 0 159 0 0 160
0 0 160 0 0 161 0 0 162 0 0 162 0 0 163 0 0 164 0 0 164 0 0 165 0 0
166 0 0 166 0 0 167 0 0 167 0 0 168 0 0 168 0 0 168 0 0 169 0 0 169 0
0 169 0 0 170 0 0 170 0 0 170 0 0 170 0 0 171 0 0 171 0 0 171 0 0 179
179 0 180 180 0 180 180 0 180 180 0 180 180 0 180 180 0 180 180 0 180
180 0 181 181 0 181 181 0 181 181 0 181 181 0 181 181 0 181 181 0 181
181 0 182 182 0 182 182 0 182 182 0 182 182 0 182 182 0 182 182 0 182
182 0 182 182 0 183 183 0 183 183 0 183 183 0 183 183 0 183 183 0 183
183 0 183 183 0 184 184 0 184 184 0 184 184 0 184 184 0 184 184 0 184
184 0 184 184 0 184 184 0 184 184 0 185 185 0 185 185 0 185 185 0 185
185 0 185 185 0 185 185 0 185 185 0 185 185 0 186 186 0 186 186 0 186
186 0 186 186 0 186 186 0 186 186 0 186 186 0 186 186 0 186 186 0 187
187 0
159 159 0 160 160 0 160 160 0 160 160 0 160 160 0 160 160 0 160 160 0
160 160 0 160 160 0 161 161 0 161 161 0 161 161 0 161 161 0 161 161 0
161 161 0 161 161 0 162 162 0 162 162 0 162 162 0 162 162 0 162 162 0
162 162 0 162 162 0 163 163 0 163 163 0 163 163 0 163 163 0 163 163 0
163 163 0 163 163 0 163 163 0 164 164 0 164 164 0 164 164 0 164 164 0
164 164 0 164 164 0 164 164 0 165 165 0 165 165 0 165 165 0 165 165 0
165 165 0 165 165 0 165 165 0 166 166 0 166 166 0 166 166 0 166 166 0
166 166 0 166 166 0 166 166 0 167 167 0 167 167 0 167 167 0 167 167 0
167 167 0 167 167 0 167 167 0 168 168 0 168 168 0 168 168 0 90 0 0 92
0 0 94 0 0 96 0 0 97 0 0 99 0 0 101 0 0 102 0 0 104 0 0 106 0 0 107 0
0 109 0 0 110 0 0 112 0 0 113 0 0 115 0 0 116 0 0 118 0 0 119 0 0 120
0 0 122 0 0 123 0 0 124 0 0 126 0 0 127 0 0 128 0 0 130 0 0 131 0 0
132 0 0 133 0 0 134 0 0 136 0 0 137 0 0 138 0 0 139 0 0 140 0 0 141 0
0 142 0 0 143 0 0 144 0 0 145 0 0 146 0 0 147 0 0 148 0 0 149 0 0 150
0 0 151 0 0 152 0 0 153 0 0 154 0 0 155 0 0 155 0 0 156 0 0 157 0 0
158 0 0 159 0 0 159 0 0 160 0 0 161 0 0 161 0 0 162 0 0 163 0 0 163 0
0 164 0 0 164 0 0 165 0 0 166 0 0 166 0 0 166 0 0 167 0 0 167 0 0 168
0 0 168 0 0 168 0 0 169 0 0 169 0 0 169 0 0 179 179 0 179 179 0 180
180 0 180 180 0 180 180 0 180 180 0 180 180 0 180 180 0 180 180 0 181
181 0 181 181 0 181 181 0 181 181 0 181 181 0 181 181 0 181 181 0 181
181 0 182 182 0 182 182 0 182 182 0 182 182 0 182 182 0 182 182 0 182
182 0 183 183 0 183 183 0 183 183 0 183 183 0 183 183 0 183 183 0 183
183 0 183 183 0 184 184 0 184 184 0 184 184 0 184 184 0 184 184 0 184
184 0 184 184 0 184 184 0 185 185 0 185 185 0 185 185 0 185 185 0 185
185 0 185 185 0 185 185 0 185 185 0 186 186 0 186 186 0 186 186 0 186
186 0 186 186 0 186 186 0 186 186 0 186 186 0 187 187 0 187 187 0 187
187 0 187 187 0 187 187 0
160 160 0 160 160 0 160 160 0 160 160 0 160 160 0 160 160 0 161 161 0
161 161 0 161 161 0 161 161 0 161 161 0 161 161 0 161 161 0 161 161 0
162 162 0 162 162 0 162 162 0 162 162 0 162 162 0 162 162 0 162 162 0
163 163 0 163 163 0 163 163 0 163 163 0 163 163 0 163 163 0 163 163 0
164 164 0 164 164 0 164 164 0 164 164 0 164 164 0 164 164 0 164 164 0
165 165 0 165 165 0 165 165 0 165 165 0 165 165 0 165 165 0 165 165 0
165 165 0 166 166 0 166 166 0 166 166 0 166 166 0 166 166 0 166 166 0
166 166 0 167 167 0 167 167 0 167 167 0 167 167 0 167 167 0 167 167 0
167 167 0 168 168 0 168 168 0 168 168 0 168 168 0 168 168 0 168 168 0
168 168 0 169 169 0 169 169 0 169 169 0 98 0 0 100 0 0 102 0 0 103 0
0 105 0 0 106 0 0 108 0 0 109 0 0 111 0 0 112 0 0 114 0 0 115 0 0 117
0 0 118 0 0 120 0 0 121 0 0 122 0 0 124 0 0 125 0 0 126 0 0 127 0 0
129 0 0 130 0 0 131 0 0 132 0 0 133 0 0 135 0 0 136 0 0 137 0 0 138 0
0 139 0 0 140 0 0 141 0 0 142 0 0 143 0 0 144 0 0 145 0 0 146 0 0 147
0 0 148 0 0 149 0 0 150 0 0 151 0 0 152 0 0 153 0 0 154 0 0 154 0 0
155 0 0 156 0 0 157 0 0 158 0 0 158 0 0 159 0 0 160 0 0 160 0 0 161 0
0 162 0 0 162 0 0 163 0 0 163 0 0 164 0 0 164 0 0 165 0 0 165 0 0 166
0 0 166 0 0 167 0 0 179 179 0 179 179 0 179 179 0 179 179 0 179 179 0
180 180 0 180 180 0 180 180 0 180 180 0 180 180 0 180 180 0 180 180 0
181 181 0 181 181 0 181 181 0 181 181 0 181 181 0 181 181 0 181 181 0
182 182 0 182 182 0 182 182 0 182 182 0 182 182 0 182 182 0 182 182 0
182 182 0 183 183 0 183 183 0 183 183 0 183 183 0 183 183 0 183 183 0
183 183 0 184 184 0 184 184 0 184 184 0 184 184 0 184 184 0 184 184 0
184 184 0 184 184 0 185 185 0 185 185 0 185 185 0 185 185 0 185 185 0
185 185 0 185 185 0 185 185 0 186 186 0 186 186 0 186 186 0 186 186 0
186 186 0 186 186 0 186 186 0 186 186 0 187 187 0 187 187 0 187 187 0
187 187 0 187 187 0 187 187 0 187 187 0 187 187 0
160 160 0 160 160 0 160 160 0 160 160 0 161 161 0 161 161 0 161 161 0
161 161 0 161 161 0 161 161 0 161 161 0 162 162 0 162 162 0 162 162 0
162 162 0 162 162 0 162 162 0 162 162 0 162 162 0 163 163 0 163 163 0
163 163 0 163 163 0 163 163 0 163 163 0 163 163 0 164 164 0 164 164 0
164 164 0 164 164 0 164 164 0 164 164 0 164 164 0 165 165 0 165 165 0
165 165 0 165 165 0 165 165 0 165 165 0 165 165 0 166 166 0 166 166 0
166 166 0 166 166 0 166 166 0 166 166 0 166 166 0 167 167 0 167 167 0
167 167 0 167 167 0 167 167 0 167 167 0 167 167 0 168 168 0 168 168 0
168 168 0 168 168 0 168 168 0 168 168 0 168 168 0 169 169 0 169 169 0
169 169 0 169 169 0 169 169 0 169 169 0 169 169 0 170 170 0 170 170 0
170 170 0 170 170 0 170 170 0 107 0 0 109 0 0 110 0 0 111 0 0 113 0 0
114 0 0 116 0 0 117 0 0 119 0 0 120 0 0 121 0 0 123 0 0 124 0 0 125 0
0 126 0 0 128 0 0 129 0 0 130 0 0 131 0 0 133 0 0 134 0 0 135 0 0 136
0 0 137 0 0 138 0 0 139 0 0 140 0 0 141 0 0 142 0 0 143 0 0 144 0 0
145 0 0 146 0 0 147 0 0 148 0 0 149 0 0 150 0 0 151 0 0 152 0 0 153 0
0 153 0 0 154 0 0 155 0 0 156 0 0 157 0 0 157 0 0 158 0 0 159 0 0 159
0 0 160 0 0 161 0 0 161 0 0 162 0 0 162 0 0 163 0 0 178 178 0 178 178
0 179 179 0 179 179 0 179 179 0 179 179 0 179 179 0 179 179 0 179 179
0 180 180 0 180 180 0 180 180 0 180 180 0 180 180 0 180 180 0 180 180
0 181 181 0 181 181 0 181 181 0 181 181 0 181 181 0 181 181 0 181 181
0 182 182 0 182 182 0 182 182 0 182 182 0 182 182 0 182 182 0 182 182
0 183 183 0 183 183 0 183 183 0 183 183 0 183 183 0 183 183 0 183 183
0 183 183 0 184 184 0 184 184 0 184 184 0 184 184 0 184 184 0 184 184
0 184 184 0 185 185 0 185 185 0 185 185 0 185 185 0 185 185 0 185 185
0 185 185 0 185 185 0 186 186 0 186 186 0 186 186 0 186 186 0 186 186
0 186 186 0 186 186 0 186 186 0 187 187 0 187 187 0 187 187 0 187 187
0 187 187 0 187 187 0 187 187 0 187 187 0 187 187 0 188 188 0 188 188
0
160 160 0 161 161 0 161 161 0 161 161 0 161 161 0 161 161 0 161 161 0
161 161 0 161 161 0 162 162 0 162 162 0 162 162 0 162 162 0 162 162 0
162 162 0 162 162 0 163 163 0 163 163 0 163 163 0 163 163 0 163 163 0
163 163 0 163 163 0 163 163 0 164 164 0 164 164 0 164 164 0 164 164 0
164 164 0 164 164 0 164 164 0 165 165 0 165 165 0 165 165 0 165 165 0
165 165 0 165 165 0 165 165 0 166 166 0 166 166 0 166 166 0 166 166 0
166 166 0 166 166 0 166 166 0 167 167 0 167 167 0 167 167 0 167 167 0
167 167 0 167 167 0 167 167 0 168 168 0 168 168 0 168 168 0 168 168 0
168 168 0 168 168 0 168 168 0 169 169 0 169 169 0 169 169 0 169 169 0
169 169 0 169 169 0 169 169 0 170 170 0 170 170 0 170 170 0 170 170 0
170 170 0 170 170 0 170 170 0 171 171 0 171 171 0 171 171 0 171 171 0
171 171 0 171 171 0 171 171 0 116 0 0 118 0 0 119 0 0 120 0 0 122 0 0
123 0 0 124 0 0 125 0 0 127 0 0 128 0 0 129 0 0 130 0 0 132 0 0 133 0
0 134 0 0 135 0 0 136 0 0 137 0 0 138 0 0 139 0 0 140 0 0 141 0 0 142
0 0 143 0 0 144 0 0 145 0 0 146 0 0 147 0 0 148 0 0 149 0 0 150 0 0
151 0 0 152 0 0 152 0 0 153 0 0 154 0 0 155 0 0 155 0 0 156 0 0 157 0
0 158 0 0 178 178 0 178 178 0 178 178 0 178 178 0 178 178 0 178 178 0
178 178 0 179 179 0 179 179 0 179 179 0 179 179 0 179 179 0 179 179 0
179 179 0 180 180 0 180 180 0 180 180 0 180 180 0 180 180 0 180 180 0
180 180 0 181 181 0 181 181 0 181 181 0 181 181 0 181 181 0 181 181 0
181 181 0 182 182 0 182 182 0 182 182 0 182 182 0 182 182 0 182 182 0
182 182 0 183 183 0 183 183 0 183 183 0 183 183 0 183 183 0 183 183 0
183 183 0 184 184 0 184 184 0 184 184 0 184 184 0 184 184 0 184 184 0
184 184 0 184 184 0 185 185 0 185 185 0 185 185 0 185 185 0 185 185 0
185 185 0 185 185 0 186 186 0 186 186 0 186 186 0 186 186 0 186 186 0
186 186 0 186 186 0 186 186 0 187 187 0 187 187 0 187 187 0 187 187 0
187 187 0 187 187 0 187 187 0 187 187 0 187 187 0 188 188 0 188 188 0
188 188 0 188 188 0 188 188 0
161 161 0 161 161 0 161 161 0 161 161 0 161 161 0 161 161 0 161 161 0
162 162 0 162 162 0 162 162 0 162 162 0 162 162 0 162 162 0 162 162 0
163 163 0 163 163 0 163 163 0 163 163 0 163 163 0 163 163 0 163 163 0
163 163 0 164 164 0 164 164 0 164 164 0 164 164 0 164 164 0 164 164 0
164 164 0 165 165 0 165 165 0 165 165 0 165 165 0 165 165 0 165 165 0
165 165 0 166 166 0 166 166 0 166 166 0 166 166 0 166 166 0 166 166 0
166 166 0 167 167 0 167 167 0 167 167 0 167 167 0 167 167 0 167 167 0
167 167 0 168 168 0 168 168 0 168 168 0 168 168 0 168 168 0 168 168 0
168 168 0 169 169 0 169 169 0 169 169 0 169 169 0 169 169 0 169 169 0
169 169 0 170 170 0 170 170 0 170 170 0 170 170 0 170 170 0 170 170 0
170 170 0 171 171 0 171 171 0 171 171 0 171 171 0 171 171 0 171 171 0
171 171 0 172 172 0 172 172 0 172 172 0 172 172 0 172 172 0 172 172 0
172 172 0 173 173 0 173 173 0 173 173 0 173 173 0 173 173 0 173 173 0
173 173 0 174 174 0 174 174 0 174 174 0 174 174 0 174 174 0 136 0 0
137 0 0 138 0 0 139 0 0 140 0 0 141 0 0 142 0 0 175 175 0 176 176 0
176 176 0 176 176 0 176 176 0 176 176 0 176 176 0 176 176 0 177 177 0
177 177 0 177 177 0 177 177 0 177 177 0 177 177 0 177 177 0 178 178 0
178 178 0 178 178 0 178 178 0 178 178 0 178 178 0 178 178 0 179 179 0
179 179 0 179 179 0 179 179 0 179 179 0 179 179 0 180 180 0 180 180 0
180 180 0 180 180 0 180 180 0 180 180 0 180 180 0 181 181 0 181 181 0
181 181 0 181 181 0 181 181 0 181 181 0 181 181 0 182 182 0 182 182 0
182 182 0 182 182 0 182 182 0 182 182 0 182 182 0 182 182 0 183 183 0
183 183 0 183 183 0 183 183 0 183 183 0 183 183 0 183 183 0 184 184 0
184 184 0 184 184 0 184 184 0 184 184 0 184 184 0 184 184 0 185 185 0
185 185 0 185 185 0 185 185 0 185 185 0 185 185 0 185 185 0 185 185 0
186 186 0 186 186 0 186 186 0 186 186 0 186 186 0 186 186 0 186 186 0
186 186 0 187 187 0 187 187 0 187 187 0 187 187 0 187 187 0 187 187 0
187 187 0 187 187 0 188 188 0 188 188 0 188 188 0 188 188 0 188 188 0
188 188 0 188 188 0 188 188 0
0 0 0 0 0 0 0 0 0 0 0 0 0 0 0 0 0 0 0 0 0 0 0 0 0 0 0 0 0 0 0 0 0 0 0
0 0 0 0 0 0 0 0 0 0 0 0 0 0 0 0 0 0 0 0 0 0 0 0 0 0 0 0 0 0 0 0 0 0 0
0 0 0 0 0 0 0 0 0 0 0 0 0 0 0 0 0 0 0 0 0 0 0 0 0 0 0 0 0 0 0 0 0 0 0
0 0 0 0 0 0 0 0 0 0 0 0 0 0 0 0 0 0 0 0 0 0 0 0 0 0 0 0 0 0 0 0 0 0 0
0 0 0 0 0 0 0 0 0 0 0 0 0 0 0 0 0 0 0 0 0 0 0 0 0 0 0 0 0 0 0 0 0 0 0
0 0 0 0 0 0 0 0 0 0 0 0 0 0 0 0 0 0 0 0 0 0 0 0 0 0 0 0 0 0 0 0 0 0 0
0 0 0 0 0 0 0 0 0 0 0 0 0 0 0 0 0 0 0 0 0 0 0 0 0 0 0 0 0 0 0 0 0 0 0
0 0 0 0 0 0 0 0 0 0 0 0 0 0 0 0 0 0 0 0 0 0 0 0 0 0 0 0 0 0 0 0 0 0 0
0 0 0 0 0 0 0 0 0 0 0 0 0 0 0 0 0 0 0 0 0 0 0 0 0 0 0 0 0 0 0 0 0 0 0
0 0 0 0 0 0 0 0 0 0 0 0 0 0 0 0 0 0 0 0 0 0 0 0 0 0 0 0 0 0 0 0 0 0 0
0 0 0 0 0 0 0 0 0 0 0 0 0 0 0 0 0 0 0 0 0 0 0 0 0 0 0 0 0 0 0 0 0 0 0
0 0 0 0 0 0 0 0 0 0 0 0 0 0 0 0 0 0 0 0 0 0 0 0 0 0 0 0 0 0 0 0 0 0 0
0 0 0 0 0 0 0 0 0 0 0 0 0 0 0 0 0 0 0 0 0 0 0 0 0 0 0 0 0 0 0 0 0 0 0
0 0 0 0 0 0 0 0 0 0 0 0 0 0 0 0 0 0 0 0 0 0 0 0 0 0 0 0 0 0 0 0 0 0 0
0 0 0 0 0 0 0 0 0 0 0 0 0 0 0 0 0 0 0 0 0 0 0 0 0 0 0 0 0 0 0 0 0 0 0
0 0 0 0 0 0 0 0 0 0 0 0 0 0 0 0 0 0 0 0 0 0 0 0 0 0 0 0 0 0 0 0 0 0 0
0 0 0 0 0 0 0 0 0 0 0 0 0 0 0 0 0 0 0 0 0 0 0 0 0 0 0 0 0 0 0 0 0 0 0
0 0 0 0 0

